;FLAVOR:Marlin
;TIME:4331
;Filament used: 3.04275m
;Layer height: 0.2
;MINX:90.802
;MINY:93.992
;MINZ:0.2
;MAXX:144.174
;MAXY:147.495
;MAXZ:10
;Generated with Cura_SteamEngine 4.5.0
M140 S50
M105
M190 S50
M104 S200
M105
M109 S200
M82 ;absolute extrusion mode
; Ender 3 Custom Start G-code
G92 E0 ; Reset Extruder
G28 ; Home all axes
G1 Z2.0 F3000 ; Move Z Axis up little to prevent scratching of Heat Bed
G1 X0.1 Y20 Z0.3 F5000.0 ; Move to start position
G1 X0.1 Y200.0 Z0.3 F1500.0 E15 ; Draw the first line
G1 X0.4 Y200.0 Z0.3 F5000.0 ; Move to side a little
G1 X0.4 Y20 Z0.3 F1500.0 E30 ; Draw the second line
G92 E0 ; Reset Extruder
G1 Z2.0 F3000 ; Move Z Axis up little to prevent scratching of Heat Bed
G1 X5 Y20 Z0.3 F5000.0 ; Move over to prevent blob squish
G92 E0
G92 E0
G1 F2700 E-5
;LAYER_COUNT:50
;LAYER:0
M107
;MESH:NestedObject.stl
G0 F6000 X128.325 Y146.609 Z0.2
;TYPE:WALL-INNER
G1 F2700 E0
G1 F600 X96.486 Y141.319 E1.07349
G1 X91.679 Y109.404 E2.14696
G1 X120.548 Y94.969 E3.22049
G1 X143.195 Y117.965 E4.29397
G1 X128.325 Y146.609 E5.3674
G0 F6000 X128.312 Y147.013
G1 F600 X96.133 Y141.666 E6.45235
G1 X91.24 Y109.176 E7.54516
G1 X120.629 Y94.481 E8.63803
G1 X143.684 Y117.891 E9.73084
G1 X128.546 Y147.052 E10.82364
G1 X128.312 Y147.013 E10.83153
G0 F6000 X128.767 Y147.495
;TYPE:WALL-OUTER
G1 F600 X128.246 Y147.408 E10.8491
G1 X95.782 Y142.014 E11.94366
G1 X95.753 Y141.823 E11.95009
G1 X90.802 Y108.948 E13.05584
G1 X91.275 Y108.711 E13.07344
G1 X120.71 Y93.993 E14.16802
G1 X120.845 Y94.13 E14.17441
G1 X144.173 Y117.817 E15.28017
G1 X144.085 Y117.987 E15.28653
G1 X128.767 Y147.495 E16.39233
G0 F6000 X128.612 Y147.185
G0 X126.164 Y146.166
;TYPE:FILL
G1 F600 X92.178 Y112.181 E17.99091
G0 F6000 X92.621 Y115.12
G1 F600 X130.33 Y105.016 E19.28936
G0 F6000 X128.322 Y102.978
G1 F600 X117.151 Y144.67 E20.72495
G0 F6000 X115.988 Y144.476
G1 F600 X93.683 Y122.171 E21.77411
G0 F6000 X93.52 Y121.091
G1 F600 X135.17 Y109.931 E23.20826
G0 F6000 X133.205 Y107.936
G1 F600 X123.098 Y145.658 E24.50715
G0 F6000 X119.792 Y145.11
G1 F600 X130.501 Y142.24 E24.87591
G0 F6000 X130.577 Y142.095
G1 F600 X95.877 Y107.394 E26.50811
G0 F6000 X96.113 Y107.275
G1 F600 X93.121 Y118.441 E26.8926
G0 F6000 X94.419 Y127.062
G1 F600 X140.01 Y114.846 E28.46245
G0 F6000 X138.088 Y112.894
G1 F600 X129.93 Y143.341 E29.51084
G0 F6000 X133.477 Y136.509
G1 F600 X101.534 Y104.566 E31.01334
G0 F6000 X103.285 Y103.689
G1 F600 X95.356 Y133.281 E32.03229
G0 F6000 X95.319 Y133.032
G1 F600 X141.738 Y120.594 E33.63066
G0 F6000 X142.176 Y119.752
G1 F600 X118.504 Y96.08 E34.74412
G0 F6000 X117.63 Y96.516
G1 F600 X105.257 Y142.694 E36.33418
G0 F6000 X105.484 Y142.732
G1 F600 X134.247 Y135.025 E37.32459
G0 F6000 X136.377 Y130.924
G1 F600 X107.191 Y101.737 E38.69743
G0 F6000 X110.458 Y100.102
G1 F600 X99.31 Y141.706 E40.13
G0 F6000 X96.218 Y139.003
G1 F600 X137.992 Y127.809 E41.56843
G0 F6000 X139.276 Y125.338
G1 F600 X112.847 Y98.909 E42.81157
G0 F6000 X119.875 Y95.394
G1 F600 X120.65 Y95.186 E42.83826
G0 F6000 X123.439 Y98.019
G1 F600 X111.204 Y143.682 E44.41059
G0 F6000 X105.812 Y142.786
G1 F600 X95.187 Y132.161 E44.91036
G0 F6000 X93.109 Y108.778
G1 F600 X125.49 Y100.101 E46.02535
G0 F6000 X142.971 Y117.853
G1 F600 X142.769 Y118.609 E46.05138
G1 F2700 E41.05138
;MESH:NONMESH
G0 F300 X142.769 Y118.609 Z0.4
G0 F6000 X128.325 Y146.609
;TIME_ELAPSED:147.849029
;LAYER:1
M140 S50
M106 S85
;TYPE:WALL-INNER
;MESH:NestedObject.stl
G1 F2700 E46.05138
G1 F1050 X96.487 Y141.32 E47.12483
G1 X96.444 Y141.037 E47.13435
G1 X91.68 Y109.404 E48.19833
G1 X120.548 Y94.969 E49.27183
G1 X143.196 Y117.964 E50.34531
G1 X128.325 Y146.609 E51.41879
G0 F7500 X128.546 Y147.052
G1 F1050 X96.134 Y141.667 E52.51159
G1 X96.048 Y141.097 E52.53077
G1 X91.241 Y109.176 E53.60443
G1 X120.629 Y94.481 E54.69727
G1 X143.685 Y117.89 E55.79009
G1 X128.546 Y147.052 E56.88293
G0 F7500 X128.767 Y147.495
;TYPE:WALL-OUTER
G1 F1050 X95.781 Y142.014 E57.99509
G1 X95.652 Y141.156 E58.02395
G1 X90.802 Y108.948 E59.10727
G1 X120.71 Y93.993 E60.21944
G1 X144.174 Y117.816 E61.33159
G1 X128.767 Y147.495 E62.4438
G0 F7500 X128.612 Y147.185
G0 X128.062 Y146.453
G0 X128.108 Y146.178
;TYPE:SKIN
G1 F1050 X96.831 Y140.983 E63.49833
G1 X92.109 Y109.626 E64.55303
G1 X120.47 Y95.444 E65.60768
G1 X142.72 Y118.034 E66.66228
G1 X128.108 Y146.178 E67.717
G0 F7500 X127.822 Y145.968
G1 F1050 X128.264 Y145.527 E67.73776
G0 F7500 X127.337 Y145.888
G1 F1050 X128.875 Y144.35 E67.81011
G0 F7500 X129.267 Y144.554
G0 X129.877 Y143.378
G0 X129.486 Y143.174
G1 F1050 X126.852 Y145.807 E67.93398
G0 F7500 X126.367 Y145.726
G1 F1050 X130.097 Y141.997 E68.1094
G0 F7500 X130.488 Y142.201
G0 X131.099 Y141.025
G0 X130.707 Y140.821
G1 F1050 X125.882 Y145.646 E68.33636
G0 F7500 X125.397 Y145.565
G1 F1050 X131.318 Y139.644 E68.61486
G0 F7500 X131.71 Y139.848
G0 X132.321 Y138.672
G0 X131.929 Y138.467
G1 F1050 X124.912 Y145.485 E68.94494
G0 F7500 X124.427 Y145.404
G1 F1050 X132.54 Y137.291 E69.32655
G0 F7500 X132.931 Y137.495
G0 X133.542 Y136.318
G0 X133.151 Y136.114
G1 F1050 X123.942 Y145.323 E69.75972
G0 F7500 X123.457 Y145.243
G1 F1050 X133.762 Y134.937 E70.24446
G0 F7500 X134.154 Y135.141
G0 X134.764 Y133.965
G0 X134.373 Y133.761
G1 F1050 X122.972 Y145.162 E70.78072
G0 F7500 X122.487 Y145.082
G1 F1050 X134.983 Y132.585 E71.36852
G0 F7500 X135.375 Y132.789
G0 X135.986 Y131.612
G0 X135.594 Y131.408
G1 F1050 X122.002 Y145.001 E72.00787
G0 F7500 X121.517 Y144.92
G1 F1050 X136.205 Y130.232 E72.69875
G0 F7500 X136.596 Y130.436
G0 X137.207 Y129.259
G0 X136.816 Y129.055
G1 F1050 X121.031 Y144.84 E73.44123
G0 F7500 X120.546 Y144.76
G1 F1050 X137.427 Y127.878 E74.23528
G0 F7500 X137.818 Y128.082
G0 X138.429 Y126.906
G0 X138.038 Y126.702
G1 F1050 X120.061 Y144.679 E75.08086
G0 F7500 X119.575 Y144.599
G1 F1050 X138.649 Y125.525 E75.97805
G0 F7500 X139.04 Y125.729
G0 X139.651 Y124.552
G0 X139.26 Y124.348
G1 F1050 X119.09 Y144.518 E76.92678
G0 F7500 X118.605 Y144.437
G1 F1050 X139.871 Y123.172 E77.92705
G0 F7500 X140.261 Y123.376
G0 X140.872 Y122.199
G0 X140.482 Y121.995
G1 F1050 X118.12 Y144.357 E78.97888
G0 F7500 X117.635 Y144.276
G1 F1050 X141.093 Y120.819 E80.08225
G0 F7500 X141.483 Y121.023
G0 X142.094 Y119.846
G0 X141.704 Y119.642
G1 F1050 X117.15 Y144.196 E81.2372
G0 F7500 X116.665 Y144.115
G1 F1050 X142.315 Y118.465 E82.4437
G0 F7500 X142.339 Y117.876
G1 F1050 X116.18 Y144.034 E83.67411
G0 F7500 X115.695 Y143.954
G1 F1050 X142.059 Y117.59 E84.91419
G0 F7500 X141.778 Y117.305
G1 F1050 X115.21 Y143.873 E86.16387
G0 F7500 X114.725 Y143.792
G1 F1050 X141.497 Y117.02 E87.42314
G0 F7500 X141.217 Y116.735
G1 F1050 X114.24 Y143.712 E88.69206
G0 F7500 X113.755 Y143.631
G1 F1050 X140.936 Y116.45 E89.97057
G0 F7500 X140.655 Y116.165
G1 F1050 X113.27 Y143.551 E91.2587
G0 F7500 X112.784 Y143.47
G1 F1050 X140.374 Y115.88 E92.55645
G0 F7500 X140.094 Y115.595
G1 F1050 X112.299 Y143.389 E93.86382
G0 F7500 X111.814 Y143.31
G1 F1050 X139.813 Y115.31 E95.18083
G0 F7500 X139.532 Y115.025
G1 F1050 X111.329 Y143.229 E96.50743
G0 F7500 X110.843 Y143.148
G1 F1050 X139.251 Y114.74 E97.84366
G0 F7500 X138.971 Y114.455
G1 F1050 X110.358 Y143.068 E99.18953
G0 F7500 X109.873 Y142.987
G1 F1050 X138.69 Y114.17 E100.54499
G0 F7500 X138.409 Y113.885
G1 F1050 X109.388 Y142.906 E101.91005
G0 F7500 X108.903 Y142.826
G1 F1050 X138.129 Y113.6 E103.28475
G0 F7500 X137.848 Y113.315
G1 F1050 X108.418 Y142.745 E104.66905
G0 F7500 X107.933 Y142.665
G1 F1050 X137.567 Y113.031 E106.06294
G0 F7500 X137.286 Y112.746
G1 F1050 X107.448 Y142.584 E107.46643
G0 F7500 X106.963 Y142.503
G1 F1050 X137.006 Y112.461 E108.87953
G0 F7500 X136.725 Y112.176
G1 F1050 X106.478 Y142.423 E110.30226
G0 F7500 X105.993 Y142.342
G1 F1050 X136.444 Y111.891 E111.73458
G0 F7500 X136.164 Y111.606
G1 F1050 X105.508 Y142.262 E113.17655
G0 F7500 X105.023 Y142.181
G1 F1050 X135.883 Y111.321 E114.62811
G0 F7500 X135.602 Y111.036
G1 F1050 X104.537 Y142.1 E116.08929
G0 F7500 X104.052 Y142.02
G1 F1050 X135.321 Y110.751 E117.56008
G0 F7500 X135.041 Y110.466
G1 F1050 X103.567 Y141.94 E119.04052
G0 F7500 X103.082 Y141.859
G1 F1050 X134.76 Y110.181 E120.53056
G0 F7500 X134.479 Y109.896
G1 F1050 X102.596 Y141.779 E122.03024
G0 F7500 X102.111 Y141.698
G1 F1050 X134.198 Y109.611 E123.53951
G0 F7500 X133.918 Y109.326
G1 F1050 X101.626 Y141.617 E125.05841
G0 F7500 X101.141 Y141.537
G1 F1050 X133.637 Y109.041 E126.58692
G0 F7500 X133.356 Y108.756
G1 F1050 X100.656 Y141.456 E128.12503
G0 F7500 X100.171 Y141.376
G1 F1050 X133.076 Y108.471 E129.67278
G0 F7500 X132.795 Y108.186
G1 F1050 X99.686 Y141.295 E131.23012
G0 F7500 X99.201 Y141.214
G1 F1050 X132.514 Y107.901 E132.79706
G0 F7500 X132.233 Y107.616
G1 F1050 X98.716 Y141.134 E134.37362
G0 F7500 X98.231 Y141.053
G1 F1050 X131.953 Y107.331 E135.9598
G0 F7500 X131.672 Y107.046
G1 F1050 X97.746 Y140.973 E137.5556
G0 F7500 X97.261 Y140.892
G1 F1050 X131.391 Y106.761 E139.161
G0 F7500 X131.111 Y106.476
G1 F1050 X96.942 Y140.644 E140.76818
G0 F7500 X96.868 Y140.153
G1 F1050 X130.831 Y106.191 E142.36567
G0 F7500 X130.55 Y105.906
G1 F1050 X96.795 Y139.661 E143.9534
G0 F7500 X96.72 Y139.169
G1 F1050 X130.269 Y105.621 E145.53142
G0 F7500 X129.988 Y105.336
G1 F1050 X96.646 Y138.678 E147.09972
G0 F7500 X96.573 Y138.186
G1 F1050 X129.708 Y105.051 E148.65829
G0 F7500 X129.427 Y104.766
G1 F1050 X96.498 Y137.694 E150.20715
G0 F7500 X96.424 Y137.203
G1 F1050 X129.146 Y104.481 E151.74629
G0 F7500 X128.865 Y104.196
G1 F1050 X96.35 Y136.712 E153.27572
G0 F7500 X96.276 Y136.219
G1 F1050 X128.585 Y103.911 E154.79541
G0 F7500 X128.304 Y103.626
G1 F1050 X96.202 Y135.728 E156.30539
G0 F7500 X96.128 Y135.237
G1 F1050 X128.023 Y103.341 E157.80566
G0 F7500 X127.743 Y103.056
G1 F1050 X96.054 Y134.744 E159.29619
G0 F7500 X95.98 Y134.253
G1 F1050 X127.462 Y102.771 E160.77701
G0 F7500 X127.181 Y102.486
G1 F1050 X95.906 Y133.761 E162.24809
G0 F7500 X95.832 Y133.27
G1 F1050 X126.9 Y102.201 E163.70945
G0 F7500 X126.62 Y101.916
G1 F1050 X95.758 Y132.778 E165.16111
G0 F7500 X95.684 Y132.286
G1 F1050 X126.339 Y101.631 E166.60303
G0 F7500 X126.058 Y101.346
G1 F1050 X95.61 Y131.795 E168.03523
G0 F7500 X95.536 Y131.303
G1 F1050 X125.778 Y101.061 E169.45772
G0 F7500 X125.497 Y100.776
G1 F1050 X95.462 Y130.811 E170.87047
G0 F7500 X95.387 Y130.32
G1 F1050 X125.216 Y100.491 E172.27354
G0 F7500 X124.935 Y100.206
G1 F1050 X95.313 Y129.829 E173.66689
G0 F7500 X95.24 Y129.336
G1 F1050 X124.655 Y99.921 E175.05048
G0 F7500 X124.374 Y99.637
G1 F1050 X95.165 Y128.845 E176.42436
G0 F7500 X95.091 Y128.354
G1 F1050 X124.093 Y99.352 E177.78853
G0 F7500 X123.812 Y99.067
G1 F1050 X95.018 Y127.861 E179.14291
G0 F7500 X94.943 Y127.37
G1 F1050 X123.532 Y98.782 E180.48762
G0 F7500 X123.251 Y98.497
G1 F1050 X94.869 Y126.878 E181.8226
G0 F7500 X94.795 Y126.387
G1 F1050 X122.97 Y98.212 E183.14787
G0 F7500 X122.69 Y97.927
G1 F1050 X94.721 Y125.895 E184.46342
G0 F7500 X94.647 Y125.403
G1 F1050 X122.409 Y97.642 E185.76924
G0 F7500 X122.128 Y97.357
G1 F1050 X94.573 Y124.912 E187.06534
G0 F7500 X94.499 Y124.42
G1 F1050 X121.847 Y97.072 E188.3517
G0 F7500 X121.567 Y96.787
G1 F1050 X94.425 Y123.928 E189.62836
G0 F7500 X94.351 Y123.437
G1 F1050 X121.286 Y96.502 E190.8953
G0 F7500 X121.005 Y96.217
G1 F1050 X94.277 Y122.946 E192.15252
G0 F7500 X94.203 Y122.453
G1 F1050 X120.725 Y95.932 E193.40001
G0 F7500 X120.444 Y95.647
G1 F1050 X94.129 Y121.962 E194.63779
G0 F7500 X94.055 Y121.471
G1 F1050 X119.336 Y96.189 E195.82695
G0 F7500 X119.141 Y95.796
G0 X118.01 Y96.362
G0 X118.205 Y96.754
G1 F1050 X93.981 Y120.978 E196.96638
G0 F7500 X93.907 Y120.487
G1 F1050 X117.074 Y97.32 E198.05608
G0 F7500 X116.879 Y96.927
G0 X115.747 Y97.494
G0 X115.942 Y97.886
G1 F1050 X93.833 Y119.996 E199.09605
G0 F7500 X93.758 Y119.504
G1 F1050 X114.811 Y98.451 E200.08631
G0 F7500 X114.616 Y98.059
G0 X113.485 Y98.625
G0 X113.68 Y99.017
G1 F1050 X93.685 Y119.012 E201.02682
G0 F7500 X93.611 Y118.52
G1 F1050 X112.548 Y99.583 E201.91756
G0 F7500 X112.353 Y99.191
G0 X111.222 Y99.756
G0 X111.417 Y100.148
G1 F1050 X93.536 Y118.029 E202.75862
G0 F7500 X93.463 Y117.537
G1 F1050 X110.286 Y100.714 E203.54993
G0 F7500 X110.091 Y100.322
G0 X108.959 Y100.888
G0 X109.154 Y101.28
G1 F1050 X93.389 Y117.045 E204.29146
G0 F7500 X93.314 Y116.554
G1 F1050 X108.023 Y101.846 E204.98331
G0 F7500 X107.828 Y101.453
G0 X106.696 Y102.019
G0 X106.891 Y102.411
G1 F1050 X93.24 Y116.063 E205.62543
G0 F7500 X93.166 Y115.57
G1 F1050 X105.759 Y102.978 E206.21774
G0 F7500 X105.564 Y102.586
G0 X104.433 Y103.151
G0 X104.628 Y103.543
G1 F1050 X93.092 Y115.079 E206.76036
G0 F7500 X93.018 Y114.588
G1 F1050 X103.497 Y104.109 E207.25326
G0 F7500 X103.302 Y103.717
G0 X102.17 Y104.283
G0 X102.365 Y104.675
G1 F1050 X92.944 Y114.095 E207.69637
G0 F7500 X92.87 Y113.604
G1 F1050 X101.234 Y105.24 E208.08979
G0 F7500 X101.039 Y104.848
G0 X99.907 Y105.414
G0 X100.102 Y105.806
G1 F1050 X92.796 Y113.113 E208.43346
G0 F7500 X92.722 Y112.621
G1 F1050 X98.971 Y106.372 E208.7274
G0 F7500 X98.776 Y105.98
G0 X97.645 Y106.545
G0 X97.84 Y106.937
G1 F1050 X92.648 Y112.129 E208.97161
G0 F7500 X92.574 Y111.638
G1 F1050 X96.708 Y107.503 E209.16609
G0 F7500 X96.513 Y107.111
G0 X95.382 Y107.677
G0 X95.577 Y108.069
G1 F1050 X92.5 Y111.146 E209.31082
G0 F7500 X92.426 Y110.654
G1 F1050 X94.446 Y108.634 E209.40584
G0 F7500 X94.251 Y108.242
G0 X93.119 Y108.808
G0 X93.314 Y109.2
G1 F1050 X92.352 Y110.162 E209.45109
G0 F7500 X91.619 Y110.27
G1 F2700 E204.45109
;MESH:NONMESH
G0 F300 X91.619 Y110.27 Z0.6
G0 F7500 X96.644 Y141.166
G0 X128.325 Y146.609
;TIME_ELAPSED:440.972085
;LAYER:2
M106 S170
;TYPE:WALL-INNER
;MESH:NestedObject.stl
G1 F2700 E209.45109
G1 F1500 X96.487 Y141.32 E210.52453
G1 X91.68 Y109.404 E211.59804
G1 X120.548 Y94.969 E212.67154
G1 X143.196 Y117.964 E213.74502
G1 X128.325 Y146.609 E214.81849
G0 F9000 X128.546 Y147.052
G1 F1500 X96.134 Y141.667 E215.9113
G1 X95.948 Y140.43 E215.9529
G1 X91.241 Y109.176 E217.00414
G1 X120.629 Y94.481 E218.09698
G1 X143.685 Y117.89 E219.18979
G1 X128.546 Y147.052 E220.28264
G0 F9000 X128.767 Y147.495
;TYPE:WALL-OUTER
G1 F1500 X95.781 Y142.014 E221.3948
G1 X95.552 Y140.489 E221.44609
G1 X90.802 Y108.948 E222.50697
G1 X120.71 Y93.993 E223.61915
G1 X144.174 Y117.816 E224.7313
G1 X128.767 Y147.495 E225.84351
G0 F9000 X128.612 Y147.185
G0 X128.062 Y146.453
G0 X128.108 Y146.178
;TYPE:SKIN
G1 F1500 X96.83 Y140.983 E226.89807
G1 X92.109 Y109.626 E227.95276
G1 X120.47 Y95.444 E229.00742
G1 X142.72 Y118.034 E230.06201
G1 X128.108 Y146.178 E231.11673
G1 F2700 E226.11673
G0 F9000 X128.062 Y146.453
G0 X96.644 Y141.166
G0 X96.481 Y140.536
G0 X96.914 Y140.472
G1 F2700 E231.11673
G1 F1500 X97.348 Y140.906 E231.13714
G0 F9000 X98.027 Y141.019
G1 F1500 X96.814 Y139.807 E231.19418
G0 F9000 X96.714 Y139.14
G1 F1500 X98.705 Y141.132 E231.28785
G0 F9000 X99.383 Y141.244
G1 F1500 X96.614 Y138.474 E231.41812
G0 F9000 X96.513 Y137.808
G1 F1500 X100.062 Y141.357 E231.58505
G0 F9000 X100.74 Y141.47
G1 F1500 X96.413 Y137.142 E231.78861
G0 F9000 X96.313 Y136.477
G1 F1500 X101.418 Y141.582 E232.02873
G0 F9000 X102.097 Y141.695
G1 F1500 X96.213 Y135.811 E232.3055
G0 F9000 X96.112 Y135.145
G1 F1500 X102.775 Y141.808 E232.6189
G0 F9000 X103.453 Y141.92
G1 F1500 X96.012 Y134.478 E232.96893
G0 F9000 X95.911 Y133.812
G1 F1500 X104.132 Y142.033 E233.35562
G0 F9000 X104.81 Y142.146
G1 F1500 X95.812 Y133.147 E233.77888
G0 F9000 X95.711 Y132.481
G1 F1500 X105.489 Y142.258 E234.23878
G0 F9000 X106.167 Y142.371
G1 F1500 X95.611 Y131.815 E234.73531
G0 F9000 X95.511 Y131.149
G1 F1500 X106.845 Y142.484 E235.26845
G0 F9000 X107.524 Y142.596
G1 F1500 X95.41 Y130.483 E235.83823
G0 F9000 X95.31 Y129.817
G1 F1500 X108.202 Y142.708 E236.4446
G0 F9000 X108.881 Y142.822
G1 F1500 X95.21 Y129.151 E237.08765
G0 F9000 X95.11 Y128.485
G1 F1500 X109.559 Y142.934 E237.76728
G0 F9000 X110.237 Y143.046
G1 F1500 X95.009 Y127.819 E238.48354
G0 F9000 X94.909 Y127.153
G1 F1500 X110.916 Y143.16 E239.23646
G0 F9000 X111.594 Y143.272
G1 F1500 X94.809 Y126.487 E240.02597
G0 F9000 X94.709 Y125.821
G1 F1500 X112.272 Y143.384 E240.85208
G0 F9000 X112.951 Y143.498
