;FLAVOR:Marlin
;TIME:3543
;Filament used: 2.24811m
;Layer height: 0.2
;MINX:107.731
;MINY:103.7
;MINZ:0.2
;MAXX:127.271
;MAXY:131.3
;MAXZ:28
;Generated with Cura_SteamEngine 4.5.0
M140 S50
M105
M190 S50
M104 S200
M105
M109 S200
M82 ;absolute extrusion mode
; Ender 3 Custom Start G-code
G92 E0 ; Reset Extruder
G28 ; Home all axes
G1 Z2.0 F3000 ; Move Z Axis up little to prevent scratching of Heat Bed
G1 X0.1 Y20 Z0.3 F5000.0 ; Move to start position
G1 X0.1 Y200.0 Z0.3 F1500.0 E15 ; Draw the first line
G1 X0.4 Y200.0 Z0.3 F5000.0 ; Move to side a little
G1 X0.4 Y20 Z0.3 F1500.0 E30 ; Draw the second line
G92 E0 ; Reset Extruder
G1 Z2.0 F3000 ; Move Z Axis up little to prevent scratching of Heat Bed
G1 X5 Y20 Z0.3 F5000.0 ; Move over to prevent blob squish
G92 E0
G92 E0
G1 F2700 E-5
;LAYER_COUNT:140
;LAYER:0
M107
;MESH:clips.stl
G0 F6000 X120.682 Y130.5 Z0.2
;TYPE:WALL-INNER
G1 F2700 E0
G1 F600 X120.72 Y130.269 E0.00779
G1 X124.642 Y106.731 E0.80146
G1 X124.68 Y106.5 E0.80924
G1 X124.446 Y106.5 E0.81407
G1 X124.445 Y106.5 E0.8141
G1 X110.555 Y106.5 E1.27608
G1 X110.554 Y106.5 E1.27612
G1 X110.32 Y106.5 E1.2839
G1 X110.358 Y106.731 E1.28872
G1 X114.28 Y130.269 E2.08239
G1 X114.318 Y130.5 E2.09018
G1 X114.084 Y130.5 E2.095
G1 X114.083 Y130.5 E2.09504
G1 X112.367 Y130.5 E2.15211
G1 X108.685 Y104.727 E3.01803
G1 X108.653 Y104.5 E3.02565
G1 X108.882 Y104.5 E3.0304
G1 X108.883 Y104.5 E3.03043
G1 X126.117 Y104.5 E3.60364
G1 X126.118 Y104.5 E3.60367
G1 X126.347 Y104.5 E3.61129
G1 X126.315 Y104.727 E3.61604
G1 X122.633 Y130.5 E4.48196
G1 X120.917 Y130.5 E4.53903
G1 X120.916 Y130.5 E4.53907
G1 X120.682 Y130.5 E4.54389
G0 F6000 X120.444 Y130.9
G1 F600 X120.443 Y130.9 E4.54392
G1 X120.209 Y130.9 E4.5517
G1 X120.247 Y130.669 E4.55653
G1 X124.17 Y107.131 E5.35021
G1 X124.208 Y106.9 E5.35799
G1 X123.974 Y106.9 E5.36281
G1 X123.973 Y106.9 E5.36285
G1 X111.027 Y106.9 E5.79343
G1 X111.026 Y106.9 E5.79347
G1 X110.792 Y106.9 E5.80125
G1 X110.83 Y107.131 E5.80607
G1 X114.753 Y130.669 E6.59975
G1 X114.791 Y130.9 E6.60754
G1 X114.557 Y130.9 E6.61236
G1 X114.556 Y130.9 E6.61239
G1 X112.02 Y130.9 E6.69674
G1 X108.224 Y104.327 E7.58953
G1 X108.192 Y104.1 E7.59716
G1 X108.421 Y104.1 E7.60191
G1 X108.422 Y104.1 E7.60194
G1 X126.578 Y104.1 E8.20581
G1 X126.579 Y104.1 E8.20584
G1 X126.808 Y104.1 E8.21346
G1 X126.776 Y104.327 E8.21821
G1 X122.98 Y130.9 E9.11101
G1 X120.444 Y130.9 E9.19536
G0 F6000 X119.736 Y131.3
;TYPE:WALL-OUTER
G1 F600 X123.736 Y107.3 E10.00461
G1 X111.264 Y107.3 E10.41943
G1 X115.264 Y131.3 E11.22868
G1 X111.673 Y131.3 E11.34812
G1 X107.731 Y103.7 E12.27542
G1 X127.269 Y103.7 E12.92525
G1 X123.327 Y131.3 E13.85255
G1 X119.736 Y131.3 E13.97199
G0 F6000 X120.048 Y131.036
G0 X120.867 Y130.064
G0 X121.142 Y130.11
;TYPE:SKIN
G1 F600 X125.14 Y106.11 E14.78123
G1 X109.86 Y106.11 E15.28944
G1 X113.858 Y130.11 E16.09869
G1 X112.705 Y130.11 E16.13704
G1 X109.103 Y104.89 E16.98437
G1 X125.897 Y104.89 E17.54294
G1 X122.295 Y130.11 E18.39027
G1 X121.142 Y130.11 E18.42862
G1 F2700 E13.42862
G0 F6000 X120.867 Y130.064
G0 X124.002 Y107.075
G0 X110.998 Y107.075
G0 X114.856 Y130.311
G0 X112.978 Y130.39
G0 X112.978 Y129.949
G1 F2700 E18.42862
G1 F600 X112.82 Y129.79 E18.43608
G0 F6000 X112.725 Y129.13
G1 F600 X113.544 Y129.949 E18.4746
G0 F6000 X113.581 Y129.42
G1 F600 X112.631 Y128.47 E18.51929
G0 F6000 X112.537 Y127.81
G1 F600 X113.468 Y128.741 E18.56308
G0 F6000 X113.354 Y128.062
G1 F600 X112.442 Y127.15 E18.60597
G0 F6000 X112.348 Y126.49
G1 F600 X113.241 Y127.383 E18.64798
G0 F6000 X113.128 Y126.705
G1 F600 X112.254 Y125.831 E18.68909
G0 F6000 X112.159 Y125.17
G1 F600 X113.015 Y126.026 E18.72935
G0 F6000 X112.902 Y125.347
G1 F600 X112.065 Y124.51 E18.76872
G0 F6000 X111.971 Y123.851
G1 F600 X112.789 Y124.668 E18.80717
G0 F6000 X112.676 Y123.989
G1 F600 X111.877 Y123.191 E18.84473
G0 F6000 X111.782 Y122.53
G1 F600 X112.563 Y123.311 E18.88147
G0 F6000 X112.45 Y122.632
G1 F600 X111.688 Y121.871 E18.91729
G0 F6000 X112.337 Y121.953
G1 F600 X111.594 Y121.211 E18.95221
G0 F6000 X112.224 Y121.275
G1 F600 X111.5 Y120.551 E18.98627
G0 F6000 X112.111 Y120.596
G1 F600 X111.406 Y119.891 E19.01943
G0 F6000 X111.997 Y119.917
G1 F600 X111.312 Y119.231 E19.05167
G0 F6000 X111.884 Y119.238
G1 F600 X111.217 Y118.571 E19.08305
G0 F6000 X111.771 Y118.559
G1 F600 X111.123 Y117.911 E19.11353
G0 F6000 X111.658 Y117.881
G1 F600 X111.029 Y117.251 E19.14314
G0 F6000 X111.545 Y117.202
G1 F600 X110.935 Y116.592 E19.17183
G0 F6000 X111.432 Y116.523
G1 F600 X110.84 Y115.931 E19.19967
G0 F6000 X111.319 Y115.845
G1 F600 X110.746 Y115.271 E19.22665
G0 F6000 X111.206 Y115.166
G1 F600 X110.652 Y114.612 E19.25271
G0 F6000 X111.093 Y114.487
G1 F600 X110.558 Y113.952 E19.27787
G0 F6000 X110.98 Y113.808
G1 F600 X110.463 Y113.291 E19.30219
G0 F6000 X110.867 Y113.13
G1 F600 X110.369 Y112.632 E19.32562
G0 F6000 X110.754 Y112.451
G1 F600 X110.275 Y111.972 E19.34815
G0 F6000 X110.64 Y111.772
G1 F600 X110.18 Y111.312 E19.36978
G0 F6000 X110.527 Y111.093
G1 F600 X110.086 Y110.652 E19.39053
G0 F6000 X110.414 Y110.414
G1 F600 X109.992 Y109.992 E19.41038
G0 F6000 X110.301 Y109.735
G1 F600 X109.898 Y109.332 E19.42933
G0 F6000 X110.188 Y109.057
G1 F600 X109.803 Y108.672 E19.44744
G0 F6000 X110.076 Y108.378
G1 F600 X109.709 Y108.012 E19.46468
G0 F6000 X109.962 Y107.7
G1 F600 X109.615 Y107.352 E19.48103
G0 F6000 X109.849 Y107.021
G1 F600 X109.52 Y106.692 E19.4965
G0 F6000 X109.736 Y106.342
G1 F600 X109.426 Y106.032 E19.51108
G0 F6000 X109.909 Y105.949
G1 F600 X109.332 Y105.373 E19.5382
G0 F6000 X109.575 Y105.049
G1 F600 X110.474 Y105.949 E19.58051
G0 F6000 X111.04 Y105.949
G1 F600 X110.141 Y105.049 E19.62282
G0 F6000 X110.706 Y105.049
G1 F600 X111.606 Y105.949 E19.66515
G0 F6000 X112.171 Y105.949
G1 F600 X111.272 Y105.049 E19.70746
G0 F6000 X111.838 Y105.049
G1 F600 X112.737 Y105.949 E19.74977
G0 F6000 X113.303 Y105.949
G1 F600 X112.403 Y105.049 E19.7921
G0 F6000 X112.969 Y105.049
G1 F600 X113.868 Y105.949 E19.83441
G0 F6000 X114.434 Y105.949
G1 F600 X113.535 Y105.049 E19.87672
G0 F6000 X114.1 Y105.049
G1 F600 X115 Y105.949 E19.91906
G0 F6000 X115.565 Y105.949
G1 F600 X114.666 Y105.049 E19.96137
G0 F6000 X115.232 Y105.049
G1 F600 X116.131 Y105.949 E20.00368
G0 F6000 X116.697 Y105.949
G1 F600 X115.797 Y105.049 E20.04601
G0 F6000 X116.363 Y105.049
G1 F600 X117.263 Y105.949 E20.08834
G0 F6000 X117.828 Y105.949
G1 F600 X116.929 Y105.049 E20.13065
G0 F6000 X117.494 Y105.049
G1 F600 X118.394 Y105.949 E20.17299
G0 F6000 X118.96 Y105.949
G1 F600 X118.06 Y105.049 E20.21532
G0 F6000 X118.626 Y105.049
G1 F600 X119.525 Y105.949 E20.25763
G0 F6000 X120.091 Y105.949
G1 F600 X119.192 Y105.049 E20.29994
G0 F6000 X119.757 Y105.049
G1 F600 X120.657 Y105.949 E20.34227
G0 F6000 X121.222 Y105.949
G1 F600 X120.323 Y105.049 E20.38458
G0 F6000 X120.889 Y105.049
G1 F600 X121.788 Y105.949 E20.42689
G0 F6000 X122.354 Y105.949
G1 F600 X121.454 Y105.049 E20.46922
G0 F6000 X122.02 Y105.049
G1 F600 X122.919 Y105.949 E20.51153
G0 F6000 X123.485 Y105.949
G1 F600 X122.586 Y105.049 E20.55384
G0 F6000 X123.151 Y105.049
G1 F600 X124.051 Y105.949 E20.59618
G0 F6000 X124.616 Y105.949
G1 F600 X123.717 Y105.049 E20.63849
G0 F6000 X124.283 Y105.049
G1 F600 X125.182 Y105.949 E20.6808
G0 F6000 X125.307 Y106.073
G1 F600 X125.533 Y106.3 E20.69145
G0 F6000 X125.226 Y106.558
G1 F600 X125.462 Y106.795 E20.70258
G0 F6000 X125.145 Y107.043
G1 F600 X125.391 Y107.29 E20.71417
G0 F6000 X125.064 Y107.528
G1 F600 X125.321 Y107.784 E20.72623
G0 F6000 X124.983 Y108.013
G1 F600 X125.25 Y108.279 E20.73877
G0 F6000 X124.903 Y108.498
G1 F600 X125.179 Y108.774 E20.75175
G0 F6000 X124.822 Y108.983
G1 F600 X125.109 Y109.27 E20.76525
G0 F6000 X124.742 Y109.468
G1 F600 X125.039 Y109.765 E20.77922
G0 F6000 X124.66 Y109.952
G1 F600 X124.968 Y110.26 E20.79371
G0 F6000 X124.58 Y110.438
G1 F600 X124.897 Y110.755 E20.80862
G0 F6000 X124.499 Y110.923
G1 F600 X124.826 Y111.25 E20.824
G0 F6000 X124.418 Y111.408
G1 F600 X124.756 Y111.745 E20.83988
G0 F6000 X124.337 Y111.892
G1 F600 X124.685 Y112.24 E20.85624
G0 F6000 X124.257 Y112.377
G1 F600 X124.614 Y112.735 E20.87306
G0 F6000 X124.176 Y112.862
G1 F600 X124.544 Y113.23 E20.89037
G0 F6000 X124.095 Y113.347
G1 F600 X124.473 Y113.725 E20.90815
G0 F6000 X124.015 Y113.832
G1 F600 X124.402 Y114.22 E20.92638
G0 F6000 X123.933 Y114.317
G1 F600 X124.331 Y114.715 E20.9451
G0 F6000 X123.853 Y114.802
G1 F600 X124.261 Y115.21 E20.96429
G0 F6000 X123.772 Y115.287
G1 F600 X124.19 Y115.705 E20.98395
G0 F6000 X124.119 Y116.2
G1 F600 X123.692 Y115.772 E21.00406
G0 F6000 X123.61 Y116.256
G1 F600 X124.049 Y116.695 E21.02471
G0 F6000 X123.978 Y117.19
G1 F600 X123.53 Y116.741 E21.0458
G0 F6000 X123.449 Y117.226
G1 F600 X123.908 Y117.685 E21.06739
G0 F6000 X123.837 Y118.18
G1 F600 X123.368 Y117.712 E21.08943
G0 F6000 X123.288 Y118.197
G1 F600 X123.767 Y118.675 E21.11194
G0 F6000 X123.696 Y119.17
G1 F600 X123.206 Y118.681 E21.13496
G0 F6000 X123.126 Y119.166
G1 F600 X123.625 Y119.665 E21.15843
G0 F6000 X123.554 Y120.16
G1 F600 X123.045 Y119.651 E21.18238
G0 F6000 X122.965 Y120.136
G1 F600 X123.484 Y120.655 E21.20679
G0 F6000 X123.413 Y121.15
G1 F600 X122.884 Y120.621 E21.23167
G0 F6000 X122.803 Y121.106
G1 F600 X123.342 Y121.645 E21.25702
G0 F6000 X123.272 Y122.14
G1 F600 X122.722 Y121.591 E21.28287
G0 F6000 X122.642 Y122.076
G1 F600 X123.201 Y122.635 E21.30916
G0 F6000 X123.13 Y123.13
G1 F600 X122.561 Y122.561 E21.33593
G0 F6000 X122.48 Y123.045
G1 F600 X123.059 Y123.625 E21.36319
G0 F6000 X122.989 Y124.12
G1 F600 X122.399 Y123.53 E21.39094
G0 F6000 X122.318 Y124.015
G1 F600 X122.918 Y124.615 E21.41916
G0 F6000 X122.847 Y125.11
G1 F600 X122.238 Y124.5 E21.44783
G0 F6000 X122.157 Y124.986
G1 F600 X122.777 Y125.605 E21.47697
G0 F6000 X122.707 Y126.101
G1 F600 X122.076 Y125.47 E21.50665
G0 F6000 X121.995 Y125.955
G1 F600 X122.636 Y126.596 E21.5368
G0 F6000 X122.565 Y127.091
G1 F600 X121.915 Y126.44 E21.5674
G0 F6000 X121.834 Y126.925
G1 F600 X122.494 Y127.586 E21.59846
G0 F6000 X122.424 Y128.081
G1 F600 X121.753 Y127.41 E21.63003
G0 F6000 X121.672 Y127.895
G1 F600 X122.353 Y128.576 E21.66206
G0 F6000 X122.282 Y129.071
G1 F600 X121.591 Y128.38 E21.69456
G0 F6000 X121.511 Y128.865
G1 F600 X122.212 Y129.566 E21.72753
G0 F6000 X122.029 Y129.949
G1 F600 X121.43 Y129.35 E21.75571
G0 F6000 X121.349 Y129.834
G1 F600 X121.463 Y129.949 E21.76109
G0 F6000 X121.463 Y130.39
G0 X122.477 Y130.32
G0 X126.039 Y105.868
G0 X125.604 Y105.805
G1 F600 X124.848 Y105.049 E21.79665
G0 F6000 X125.414 Y105.049
G1 F600 X125.674 Y105.31 E21.80891
G0 F6000 X126.407 Y105.413
;MESH:NONMESH
G0 F300 X126.407 Y105.413 Z0.4
G0 F6000 X122.477 Y130.32
G0 X120.682 Y130.5
;TIME_ELAPSED:79.785199
;LAYER:1
M140 S50
M106 S85
;TYPE:WALL-INNER
;MESH:clips.stl
G1 F1050 X120.72 Y130.269 E21.81669
G1 X124.642 Y106.731 E22.61036
G1 X124.68 Y106.5 E22.61815
G1 X124.446 Y106.5 E22.62297
G1 X124.445 Y106.5 E22.62301
G1 X110.555 Y106.5 E23.08499
G1 X110.554 Y106.5 E23.08502
G1 X110.32 Y106.5 E23.09281
G1 X110.358 Y106.731 E23.09763
G1 X114.28 Y130.269 E23.8913
G1 X114.318 Y130.5 E23.89909
G1 X114.084 Y130.5 E23.90391
G1 X114.083 Y130.5 E23.90394
G1 X112.367 Y130.5 E23.96102
G1 X108.685 Y104.727 E24.82694
G1 X108.653 Y104.5 E24.83456
G1 X108.882 Y104.5 E24.83931
G1 X108.883 Y104.5 E24.83934
G1 X126.117 Y104.5 E25.41255
G1 X126.118 Y104.5 E25.41258
G1 X126.347 Y104.5 E25.4202
G1 X126.315 Y104.727 E25.42495
G1 X122.633 Y130.5 E26.29087
G1 X120.917 Y130.5 E26.34794
G1 X120.916 Y130.5 E26.34797
G1 X120.682 Y130.5 E26.3528
G0 F7500 X120.444 Y130.9
G1 F1050 X120.443 Y130.9 E26.35283
G1 X120.209 Y130.9 E26.36061
G1 X120.247 Y130.669 E26.36544
G1 X124.17 Y107.131 E27.15911
G1 X124.208 Y106.9 E27.1669
G1 X123.974 Y106.9 E27.17172
G1 X123.973 Y106.9 E27.17176
G1 X111.027 Y106.9 E27.60234
G1 X111.026 Y106.9 E27.60237
G1 X110.792 Y106.9 E27.61016
G1 X110.83 Y107.131 E27.61498
G1 X114.753 Y130.669 E28.40866
G1 X114.791 Y130.9 E28.41644
G1 X114.557 Y130.9 E28.42127
G1 X114.556 Y130.9 E28.4213
G1 X112.02 Y130.9 E28.50565
G1 X108.224 Y104.327 E29.39844
G1 X108.192 Y104.1 E29.40607
G1 X108.421 Y104.1 E29.41082
G1 X108.422 Y104.1 E29.41085
G1 X126.578 Y104.1 E30.01472
G1 X126.579 Y104.1 E30.01475
G1 X126.808 Y104.1 E30.02237
G1 X126.776 Y104.327 E30.02712
G1 X122.98 Y130.9 E30.91992
G1 X120.444 Y130.9 E31.00426
G0 F7500 X119.736 Y131.3
;TYPE:WALL-OUTER
G1 F1050 X123.736 Y107.3 E31.81352
G1 X111.264 Y107.3 E32.22834
G1 X115.264 Y131.3 E33.03759
G1 X111.673 Y131.3 E33.15703
G1 X107.731 Y103.7 E34.08432
G1 X127.269 Y103.7 E34.73416
G1 X123.327 Y131.3 E35.66146
G1 X119.736 Y131.3 E35.78089
G0 F7500 X120.048 Y131.036
G0 X120.867 Y130.064
G0 X121.142 Y130.11
;TYPE:SKIN
G1 F1050 X125.14 Y106.11 E36.59014
G1 X109.86 Y106.11 E37.09835
G1 X113.858 Y130.11 E37.9076
G1 X112.705 Y130.11 E37.94594
G1 X109.103 Y104.89 E38.79328
G1 X125.897 Y104.89 E39.35185
G1 X122.295 Y130.11 E40.19918
G1 X121.142 Y130.11 E40.23753
G0 F7500 X121.78 Y129.949
G1 F1050 X122.219 Y129.51 E40.25818
G0 F7500 X122.313 Y128.851
G1 F1050 X121.354 Y129.809 E40.30326
G0 F7500 X121.467 Y129.131
G1 F1050 X122.407 Y128.19 E40.3475
G0 F7500 X122.502 Y127.53
G1 F1050 X121.58 Y128.452 E40.39087
G0 F7500 X121.693 Y127.773
G1 F1050 X122.596 Y126.871 E40.43332
G0 F7500 X122.69 Y126.211
G1 F1050 X121.806 Y127.094 E40.47488
G0 F7500 X121.92 Y126.415
G1 F1050 X122.784 Y125.551 E40.51552
G0 F7500 X122.878 Y124.891
G1 F1050 X122.032 Y125.737 E40.55531
G0 F7500 X122.145 Y125.058
G1 F1050 X122.972 Y124.231 E40.59421
G0 F7500 X123.066 Y123.571
G1 F1050 X122.258 Y124.38 E40.63224
G0 F7500 X122.371 Y123.701
G1 F1050 X123.161 Y122.912 E40.66938
G0 F7500 X123.255 Y122.251
G1 F1050 X122.485 Y123.022 E40.70562
G0 F7500 X122.598 Y122.343
G1 F1050 X123.349 Y121.591 E40.74097
G0 F7500 X122.711 Y121.664
G1 F1050 X123.443 Y120.932 E40.7754
G0 F7500 X122.824 Y120.985
G1 F1050 X123.537 Y120.272 E40.80893
G0 F7500 X122.936 Y120.307
G1 F1050 X123.632 Y119.612 E40.84165
G0 F7500 X123.05 Y119.629
G1 F1050 X123.726 Y118.952 E40.87347
G0 F7500 X123.163 Y118.95
G1 F1050 X123.82 Y118.292 E40.9044
G0 F7500 X123.276 Y118.271
G1 F1050 X123.914 Y117.632 E40.93443
G0 F7500 X123.389 Y117.592
G1 F1050 X124.008 Y116.973 E40.96354
G0 F7500 X123.502 Y116.913
G1 F1050 X124.103 Y116.312 E40.99181
G0 F7500 X123.615 Y116.234
G1 F1050 X124.197 Y115.652 E41.01919
G0 F7500 X123.728 Y115.556
G1 F1050 X124.291 Y114.993 E41.04567
G0 F7500 X123.841 Y114.877
G1 F1050 X124.385 Y114.333 E41.07126
G0 F7500 X123.954 Y114.199
G1 F1050 X124.48 Y113.673 E41.096
G0 F7500 X124.067 Y113.52
G1 F1050 X124.574 Y113.013 E41.11985
G0 F7500 X124.18 Y112.841
G1 F1050 X124.668 Y112.353 E41.1428
G0 F7500 X124.293 Y112.162
G1 F1050 X124.762 Y111.693 E41.16486
G0 F7500 X124.406 Y111.483
G1 F1050 X124.856 Y111.034 E41.18601
G0 F7500 X124.52 Y110.805
G1 F1050 X124.951 Y110.373 E41.2063
G0 F7500 X124.633 Y110.126
G1 F1050 X125.045 Y109.713 E41.2257
G0 F7500 X124.745 Y109.448
G1 F1050 X125.139 Y109.054 E41.24424
G0 F7500 X124.858 Y108.769
G1 F1050 X125.233 Y108.394 E41.26188
G0 F7500 X124.971 Y108.09
G1 F1050 X125.328 Y107.734 E41.27864
G0 F7500 X125.085 Y107.411
G1 F1050 X125.422 Y107.074 E41.2945
G0 F7500 X125.198 Y106.732
G1 F1050 X125.516 Y106.414 E41.30945
G0 F7500 X125.311 Y106.053
G1 F1050 X125.61 Y105.754 E41.32352
G0 F7500 X125.705 Y105.094
G1 F1050 X124.849 Y105.95 E41.36378
G0 F7500 X124.283 Y105.95
G1 F1050 X125.184 Y105.049 E41.40616
G0 F7500 X124.618 Y105.049
G1 F1050 X123.718 Y105.95 E41.44852
G0 F7500 X123.152 Y105.95
G1 F1050 X124.052 Y105.049 E41.49088
G0 F7500 X123.487 Y105.049
G1 F1050 X122.586 Y105.95 E41.53326
G0 F7500 X122.021 Y105.95
G1 F1050 X122.921 Y105.049 E41.57561
G0 F7500 X122.355 Y105.049
G1 F1050 X121.455 Y105.95 E41.61797
G0 F7500 X120.889 Y105.95
G1 F1050 X121.789 Y105.049 E41.66033
G0 F7500 X121.224 Y105.049
G1 F1050 X120.324 Y105.95 E41.70268
G0 F7500 X119.758 Y105.95
G1 F1050 X120.658 Y105.049 E41.74504
G0 F7500 X120.092 Y105.049
G1 F1050 X119.192 Y105.95 E41.7874
G0 F7500 X118.627 Y105.95
G1 F1050 X119.527 Y105.049 E41.82975
G0 F7500 X118.961 Y105.049
