;FLAVOR:Marlin
;TIME:1745
;Filament used: 1.35034m
;Layer height: 0.2
;MINX:107.7
;MINY:107.7
;MINZ:0.2
;MAXX:127.3
;MAXY:127.3
;MAXZ:20
;Generated with Cura_SteamEngine 4.5.0
M140 S50
M105
M190 S50
M104 S200
M105
M109 S200
M82 ;absolute extrusion mode
; Ender 3 Custom Start G-code
G92 E0 ; Reset Extruder
G28 ; Home all axes
G1 Z2.0 F3000 ; Move Z Axis up little to prevent scratching of Heat Bed
G1 X0.1 Y20 Z0.3 F5000.0 ; Move to start position
G1 X0.1 Y200.0 Z0.3 F1500.0 E15 ; Draw the first line
G1 X0.4 Y200.0 Z0.3 F5000.0 ; Move to side a little
G1 X0.4 Y20 Z0.3 F1500.0 E30 ; Draw the second line
G92 E0 ; Reset Extruder
G1 Z2.0 F3000 ; Move Z Axis up little to prevent scratching of Heat Bed
G1 X5 Y20 Z0.3 F5000.0 ; Move over to prevent blob squish
G92 E0
G92 E0
G1 F2700 E-5
;LAYER_COUNT:100
;LAYER:0
M107
;MESH:Cube.stl
G0 F6000 X108.5 Y126.5 Z0.2
;TYPE:WALL-INNER
G1 F2700 E0
G1 F600 X108.5 Y108.5 E0.59868
G1 X126.5 Y108.5 E1.19736
G1 X126.5 Y126.5 E1.79605
G1 X108.5 Y126.5 E2.39473
G0 F6000 X108.1 Y126.9
G1 F600 X108.1 Y108.1 E3.02002
G1 X126.9 Y108.1 E3.64531
G1 X126.9 Y126.9 E4.2706
G1 X108.1 Y126.9 E4.89589
G0 F6000 X107.7 Y127.3
;TYPE:WALL-OUTER
G1 F600 X107.7 Y107.7 E5.54779
G1 X127.3 Y107.7 E6.19969
G1 X127.3 Y127.3 E6.85159
G1 X107.7 Y127.3 E7.50349
G0 F6000 X107.97 Y127.03
G0 X108.61 Y126.11
G0 X108.89 Y126.11
;TYPE:SKIN
G1 F600 X108.89 Y108.89 E8.07623
G1 X126.11 Y108.89 E8.64897
G1 X126.11 Y126.11 E9.22171
G1 X108.89 Y126.11 E9.79444
G0 F6000 X109.544 Y125.949
G1 F600 X109.049 Y125.454 E9.81773
G0 F6000 X109.049 Y124.888
G1 F600 X110.11 Y125.949 E9.86763
G0 F6000 X110.676 Y125.949
G1 F600 X109.049 Y124.322 E9.94416
G0 F6000 X109.049 Y123.757
G1 F600 X111.242 Y125.949 E10.04729
G0 F6000 X111.807 Y125.949
G1 F600 X109.049 Y123.191 E10.17702
G0 F6000 X109.049 Y122.625
G1 F600 X112.373 Y125.949 E10.33337
G0 F6000 X112.939 Y125.949
G1 F600 X109.049 Y122.06 E10.51632
G0 F6000 X109.049 Y121.494
G1 F600 X113.504 Y125.949 E10.72587
G0 F6000 X114.07 Y125.949
G1 F600 X109.049 Y120.928 E10.96204
G0 F6000 X109.049 Y120.363
G1 F600 X114.636 Y125.949 E11.22481
G0 F6000 X115.201 Y125.949
G1 F600 X109.049 Y119.797 E11.51419
G0 F6000 X109.049 Y119.231
G1 F600 X115.767 Y125.949 E11.83018
G0 F6000 X116.333 Y125.949
G1 F600 X109.049 Y118.665 E12.1728
G0 F6000 X109.049 Y118.1
G1 F600 X116.898 Y125.949 E12.54199
G0 F6000 X117.464 Y125.949
G1 F600 X109.049 Y117.534 E12.93781
G0 F6000 X109.049 Y116.968
G1 F600 X118.03 Y125.949 E13.36024
G0 F6000 X118.595 Y125.949
G1 F600 X109.049 Y116.403 E13.80926
G0 F6000 X109.049 Y115.837
G1 F600 X119.161 Y125.949 E14.2849
G0 F6000 X119.727 Y125.949
G1 F600 X109.049 Y115.271 E14.78716
G0 F6000 X109.049 Y114.706
G1 F600 X120.293 Y125.949 E15.31602
G0 F6000 X120.858 Y125.949
G1 F600 X109.049 Y114.14 E15.87148
G0 F6000 X109.049 Y113.574
G1 F600 X121.424 Y125.949 E16.45356
G0 F6000 X121.99 Y125.949
G1 F600 X109.049 Y113.009 E17.06224
G0 F6000 X109.049 Y112.443
G1 F600 X122.555 Y125.949 E17.69752
G0 F6000 X123.121 Y125.949
G1 F600 X109.049 Y111.877 E18.35942
G0 F6000 X109.049 Y111.312
G1 F600 X123.687 Y125.949 E19.04793
G0 F6000 X124.252 Y125.949
G1 F600 X109.049 Y110.746 E19.76303
G0 F6000 X109.049 Y110.18
G1 F600 X124.818 Y125.949 E20.50475
G0 F6000 X125.384 Y125.949
G1 F600 X109.049 Y109.614 E21.2731
G0 F6000 X109.049 Y109.049
G1 F600 X125.949 Y125.949 E22.06803
G0 F6000 X125.949 Y125.384
G1 F600 X109.615 Y109.05 E22.83633
G0 F6000 X110.181 Y109.05
G1 F600 X125.949 Y124.818 E23.57801
G0 F6000 X125.949 Y124.252
G1 F600 X110.747 Y109.05 E24.29306
G0 F6000 X111.312 Y109.05
G1 F600 X125.949 Y123.687 E24.98154
G0 F6000 X125.949 Y123.121
G1 F600 X111.878 Y109.05 E25.6434
G0 F6000 X112.444 Y109.05
G1 F600 X125.949 Y122.555 E26.27863
G0 F6000 X125.949 Y121.99
G1 F600 X113.009 Y109.05 E26.88729
G0 F6000 X113.575 Y109.05
G1 F600 X125.949 Y121.424 E27.46933
G0 F6000 X125.949 Y120.858
G1 F600 X114.141 Y109.05 E28.02474
G0 F6000 X114.706 Y109.05
G1 F600 X125.949 Y120.293 E28.55357
G0 F6000 X125.949 Y119.727
G1 F600 X115.272 Y109.05 E29.05579
G0 F6000 X115.838 Y109.05
G1 F600 X125.949 Y119.161 E29.53138
G0 F6000 X125.949 Y118.595
G1 F600 X116.403 Y109.05 E29.98037
G0 F6000 X116.969 Y109.05
G1 F600 X125.949 Y118.03 E30.40276
G0 F6000 X125.949 Y117.464
G1 F600 X117.535 Y109.05 E30.79853
G0 F6000 X118.1 Y109.05
G1 F600 X125.949 Y116.898 E31.1677
G0 F6000 X125.949 Y116.333
G1 F600 X118.666 Y109.05 E31.51027
G0 F6000 X119.232 Y109.05
G1 F600 X125.949 Y115.767 E31.82622
G0 F6000 X125.949 Y115.201
G1 F600 X119.798 Y109.05 E32.11554
G0 F6000 X120.363 Y109.05
G1 F600 X125.949 Y114.636 E32.37829
G0 F6000 X125.949 Y114.07
G1 F600 X120.929 Y109.05 E32.61441
G0 F6000 X121.495 Y109.05
G1 F600 X125.949 Y113.504 E32.82392
G0 F6000 X125.949 Y112.939
G1 F600 X122.06 Y109.05 E33.00684
G0 F6000 X122.626 Y109.05
G1 F600 X125.949 Y112.373 E33.16315
G0 F6000 X125.949 Y111.807
G1 F600 X123.192 Y109.05 E33.29283
G0 F6000 X123.757 Y109.05
G1 F600 X125.949 Y111.242 E33.39593
G0 F6000 X125.949 Y110.676
G1 F600 X124.323 Y109.05 E33.47241
G0 F6000 X124.889 Y109.05
G1 F600 X125.949 Y110.11 E33.52227
G0 F6000 X125.949 Y109.544
G1 F600 X125.454 Y109.05 E33.54553
G0 F6000 X125.454 Y108.31
G1 F2700 E28.54553
;MESH:NONMESH
G0 F300 X125.454 Y108.31 Z0.4
G0 F6000 X108.682 Y108.682
G0 X108.5 Y126.5
;TIME_ELAPSED:110.068868
;LAYER:1
M140 S50
M106 S85
;TYPE:WALL-INNER
;MESH:Cube.stl
G1 F2700 E33.54553
G1 F1050 X108.5 Y108.5 E34.14422
G1 X126.5 Y108.5 E34.7429
G1 X126.5 Y126.5 E35.34158
G1 X108.5 Y126.5 E35.94026
G0 F7500 X108.1 Y126.9
G1 F1050 X108.1 Y108.1 E36.56555
G1 X126.9 Y108.1 E37.19084
G1 X126.9 Y126.9 E37.81613
G1 X108.1 Y126.9 E38.44142
G0 F7500 X107.7 Y127.3
;TYPE:WALL-OUTER
G1 F1050 X107.7 Y107.7 E39.09332
G1 X127.3 Y107.7 E39.74522
G1 X127.3 Y127.3 E40.39712
G1 X107.7 Y127.3 E41.04902
G0 F7500 X107.97 Y127.03
G0 X108.61 Y126.11
G0 X108.89 Y126.11
;TYPE:SKIN
G1 F1050 X108.89 Y108.89 E41.62176
G1 X126.11 Y108.89 E42.1945
G1 X126.11 Y126.11 E42.76724
G1 X108.89 Y126.11 E43.33998
G0 F7500 X108.61 Y126.11
G0 X108.61 Y109.304
G0 X109.05 Y109.304
G1 F1050 X109.305 Y109.049 E43.35197
G0 F7500 X109.87 Y109.049
G1 F1050 X109.05 Y109.87 E43.39057
G0 F7500 X109.05 Y110.435
G1 F1050 X110.436 Y109.049 E43.45576
G0 F7500 X111.002 Y109.049
G1 F1050 X109.05 Y111.001 E43.54757
G0 F7500 X109.05 Y111.567
G1 F1050 X111.568 Y109.049 E43.66601
G0 F7500 X112.133 Y109.049
G1 F1050 X109.05 Y112.132 E43.81103
G0 F7500 X109.05 Y112.698
G1 F1050 X112.699 Y109.049 E43.98267
G0 F7500 X113.265 Y109.049
G1 F1050 X109.05 Y113.264 E44.18093
G0 F7500 X109.05 Y113.83
G1 F1050 X113.83 Y109.049 E44.40579
G0 F7500 X114.396 Y109.049
G1 F1050 X109.05 Y114.395 E44.65725
G0 F7500 X109.05 Y114.961
G1 F1050 X114.962 Y109.049 E44.93533
G0 F7500 X115.527 Y109.049
G1 F1050 X109.05 Y115.527 E45.24001
G0 F7500 X109.05 Y116.092
G1 F1050 X116.093 Y109.049 E45.57129
G0 F7500 X116.659 Y109.049
G1 F1050 X109.05 Y116.658 E45.9292
G0 F7500 X109.05 Y117.224
G1 F1050 X117.224 Y109.049 E46.3137
G0 F7500 X117.79 Y109.049
G1 F1050 X109.05 Y117.789 E46.7248
G0 F7500 X109.05 Y118.355
G1 F1050 X118.356 Y109.049 E47.16253
G0 F7500 X118.921 Y109.049
G1 F1050 X109.05 Y118.921 E47.62685
G0 F7500 X109.05 Y119.486
G1 F1050 X119.487 Y109.049 E48.11778
G0 F7500 X120.053 Y109.049
G1 F1050 X109.05 Y120.052 E48.63532
G0 F7500 X109.05 Y120.618
G1 F1050 X120.618 Y109.049 E49.17947
G0 F7500 X121.184 Y109.049
G1 F1050 X109.05 Y121.183 E49.75022
G0 F7500 X109.05 Y121.749
G1 F1050 X121.75 Y109.049 E50.34759
G0 F7500 X122.316 Y109.049
G1 F1050 X109.05 Y122.315 E50.97158
G0 F7500 X109.05 Y122.881
G1 F1050 X122.881 Y109.049 E51.62217
G0 F7500 X123.447 Y109.049
G1 F1050 X109.05 Y123.446 E52.29936
G0 F7500 X109.05 Y124.012
G1 F1050 X124.013 Y109.049 E53.00317
G0 F7500 X124.578 Y109.049
G1 F1050 X109.05 Y124.578 E53.73359
G0 F7500 X109.05 Y125.143
G1 F1050 X125.144 Y109.049 E54.4906
G0 F7500 X125.71 Y109.049
G1 F1050 X109.05 Y125.709 E55.27424
G0 F7500 X109.375 Y125.949
G1 F1050 X125.949 Y109.375 E56.05383
G0 F7500 X125.949 Y109.94
G1 F1050 X109.94 Y125.949 E56.80684
G0 F7500 X110.506 Y125.949
G1 F1050 X125.949 Y110.506 E57.53323
G0 F7500 X125.949 Y111.072
G1 F1050 X111.072 Y125.949 E58.233
G0 F7500 X111.638 Y125.949
G1 F1050 X125.949 Y111.638 E58.90615
G0 F7500 X125.949 Y112.203
G1 F1050 X112.203 Y125.949 E59.55271
G0 F7500 X112.769 Y125.949
G1 F1050 X125.949 Y112.769 E60.17266
G0 F7500 X125.949 Y113.335
G1 F1050 X113.335 Y125.949 E60.76599
G0 F7500 X113.9 Y125.949
G1 F1050 X125.949 Y113.9 E61.33273
G0 F7500 X125.949 Y114.466
G1 F1050 X114.466 Y125.949 E61.87286
G0 F7500 X115.032 Y125.949
G1 F1050 X125.949 Y115.032 E62.38636
G0 F7500 X125.949 Y115.597
G1 F1050 X115.597 Y125.949 E62.87329
G0 F7500 X116.163 Y125.949
G1 F1050 X125.949 Y116.163 E63.33359
G0 F7500 X125.949 Y116.729
G1 F1050 X116.729 Y125.949 E63.76727
G0 F7500 X117.294 Y125.949
G1 F1050 X125.949 Y117.294 E64.17438
G0 F7500 X125.949 Y117.86
G1 F1050 X117.86 Y125.949 E64.55486
G0 F7500 X118.426 Y125.949
G1 F1050 X125.949 Y118.426 E64.90872
G0 F7500 X125.949 Y118.991
G1 F1050 X118.991 Y125.949 E65.236
G0 F7500 X119.557 Y125.949
G1 F1050 X125.949 Y119.557 E65.53666
G0 F7500 X125.949 Y120.123
G1 F1050 X120.123 Y125.949 E65.8107
G0 F7500 X120.688 Y125.949
G1 F1050 X125.949 Y120.688 E66.05816
G0 F7500 X125.949 Y121.254
G1 F1050 X121.254 Y125.949 E66.279
G0 F7500 X121.82 Y125.949
G1 F1050 X125.949 Y121.82 E66.47321
G0 F7500 X125.949 Y122.386
G1 F1050 X122.386 Y125.949 E66.6408
G0 F7500 X122.951 Y125.949
G1 F1050 X125.949 Y122.951 E66.78182
G0 F7500 X125.949 Y123.517
G1 F1050 X123.517 Y125.949 E66.89622
G0 F7500 X124.083 Y125.949
G1 F1050 X125.949 Y124.083 E66.98399
G0 F7500 X125.949 Y124.648
G1 F1050 X124.648 Y125.949 E67.04518
G0 F7500 X125.214 Y125.949
G1 F1050 X125.949 Y125.214 E67.07975
G0 F7500 X125.949 Y125.78
G1 F1050 X125.78 Y125.949 E67.0877
G0 F7500 X125.78 Y126.69
;MESH:NONMESH
G0 F300 X125.78 Y126.69 Z0.6
G0 F7500 X108.5 Y126.5
;TIME_ELAPSED:173.243288
;LAYER:2
M106 S170
;TYPE:WALL-INNER
;MESH:Cube.stl
G1 F1500 X108.5 Y108.5 E67.68638
G1 X126.5 Y108.5 E68.28507
G1 X126.5 Y126.5 E68.88375
G1 X108.5 Y126.5 E69.48243
G0 F9000 X108.1 Y126.9
G1 F1500 X108.1 Y108.1 E70.10772
G1 X126.9 Y108.1 E70.73301
G1 X126.9 Y126.9 E71.3583
G1 X108.1 Y126.9 E71.98359
G0 F9000 X107.7 Y127.3
;TYPE:WALL-OUTER
G1 F1500 X107.7 Y107.7 E72.63549
G1 X127.3 Y107.7 E73.28739
G1 X127.3 Y127.3 E73.93929
G1 X107.7 Y127.3 E74.59119
G0 F9000 X107.97 Y127.03
G0 X108.61 Y126.11
G0 X108.89 Y126.11
;TYPE:SKIN
G1 F1500 X108.89 Y108.89 E75.16393
G1 X126.11 Y108.89 E75.73667
G1 X126.11 Y126.11 E76.30941
G1 X108.89 Y126.11 E76.88215
G0 F9000 X109.544 Y125.949
G1 F1500 X109.049 Y125.454 E76.90543
G0 F9000 X109.049 Y124.888
G1 F1500 X110.11 Y125.949 E76.95534
G0 F9000 X110.676 Y125.949
G1 F1500 X109.049 Y124.322 E77.03187
G0 F9000 X109.049 Y123.757
G1 F1500 X111.242 Y125.949 E77.13499
G0 F9000 X111.807 Y125.949
G1 F1500 X109.049 Y123.191 E77.26472
G0 F9000 X109.049 Y122.625
G1 F1500 X112.373 Y125.949 E77.42107
G0 F9000 X112.939 Y125.949
G1 F1500 X109.049 Y122.06 E77.60402
G0 F9000 X109.049 Y121.494
G1 F1500 X113.504 Y125.949 E77.81357
G0 F9000 X114.07 Y125.949
G1 F1500 X109.049 Y120.928 E78.04974
G0 F9000 X109.049 Y120.363
G1 F1500 X114.636 Y125.949 E78.31252
G0 F9000 X115.201 Y125.949
G1 F1500 X109.049 Y119.797 E78.60189
G0 F9000 X109.049 Y119.231
G1 F1500 X115.767 Y125.949 E78.91788
G0 F9000 X116.333 Y125.949
G1 F1500 X109.049 Y118.665 E79.2605
G0 F9000 X109.049 Y118.1
G1 F1500 X116.898 Y125.949 E79.62969
G0 F9000 X117.464 Y125.949
G1 F1500 X109.049 Y117.534 E80.02551
G0 F9000 X109.049 Y116.968
G1 F1500 X118.03 Y125.949 E80.44795
G0 F9000 X118.595 Y125.949
G1 F1500 X109.049 Y116.403 E80.89696
G0 F9000 X109.049 Y115.837
G1 F1500 X119.161 Y125.949 E81.3726
G0 F9000 X119.727 Y125.949
G1 F1500 X109.049 Y115.271 E81.87486
G0 F9000 X109.049 Y114.706
G1 F1500 X120.293 Y125.949 E82.40372
G0 F9000 X120.858 Y125.949
G1 F1500 X109.049 Y114.14 E82.95918
G0 F9000 X109.049 Y113.574
G1 F1500 X121.424 Y125.949 E83.54126
G0 F9000 X121.99 Y125.949
G1 F1500 X109.049 Y113.009 E84.14994
G0 F9000 X109.049 Y112.443
G1 F1500 X122.555 Y125.949 E84.78522
G0 F9000 X123.121 Y125.949
G1 F1500 X109.049 Y111.877 E85.44713
G0 F9000 X109.049 Y111.312
G1 F1500 X123.687 Y125.949 E86.13563
G0 F9000 X124.252 Y125.949
G1 F1500 X109.049 Y110.746 E86.85073
G0 F9000 X109.049 Y110.18
G1 F1500 X124.818 Y125.949 E87.59246
G0 F9000 X125.384 Y125.949
G1 F1500 X109.049 Y109.614 E88.36081
G0 F9000 X109.049 Y109.049
G1 F1500 X125.949 Y125.949 E89.15573
G0 F9000 X125.949 Y125.384
G1 F1500 X109.615 Y109.05 E89.92403
G0 F9000 X110.181 Y109.05
G1 F1500 X125.949 Y124.818 E90.66571
G0 F9000 X125.949 Y124.252
G1 F1500 X110.747 Y109.05 E91.38076
G0 F9000 X111.312 Y109.05
G1 F1500 X125.949 Y123.687 E92.06924
G0 F9000 X125.949 Y123.121
G1 F1500 X111.878 Y109.05 E92.7311
G0 F9000 X112.444 Y109.05
G1 F1500 X125.949 Y122.555 E93.36633
G0 F9000 X125.949 Y121.99
G1 F1500 X113.009 Y109.05 E93.97499
G0 F9000 X113.575 Y109.05
G1 F1500 X125.949 Y121.424 E94.55703
G0 F9000 X125.949 Y120.858
G1 F1500 X114.141 Y109.05 E95.11244
G0 F9000 X114.706 Y109.05
G1 F1500 X125.949 Y120.293 E95.64128
G0 F9000 X125.949 Y119.727
G1 F1500 X115.272 Y109.05 E96.14349
G0 F9000 X115.838 Y109.05
G1 F1500 X125.949 Y119.161 E96.61908
G0 F9000 X125.949 Y118.595
G1 F1500 X116.403 Y109.05 E97.06807
G0 F9000 X116.969 Y109.05
G1 F1500 X125.949 Y118.03 E97.49046
G0 F9000 X125.949 Y117.464
G1 F1500 X117.535 Y109.05 E97.88623
G0 F9000 X118.1 Y109.05
G1 F1500 X125.949 Y116.898 E98.2554
G0 F9000 X125.949 Y116.333
G1 F1500 X118.666 Y109.05 E98.59797
G0 F9000 X119.232 Y109.05
G1 F1500 X125.949 Y115.767 E98.91392
G0 F9000 X125.949 Y115.201
G1 F1500 X119.798 Y109.05 E99.20324
G0 F9000 X120.363 Y109.05
G1 F1500 X125.949 Y114.636 E99.46599
G0 F9000 X125.949 Y114.07
G1 F1500 X120.929 Y109.05 E99.70212
G0 F9000 X121.495 Y109.05
G1 F1500 X125.949 Y113.504 E99.91162
G0 F9000 X125.949 Y112.939
G1 F1500 X122.06 Y109.05 E100.09454
G0 F9000 X122.626 Y109.05
G1 F1500 X125.949 Y112.373 E100.25085
G0 F9000 X125.949 Y111.807
G1 F1500 X123.192 Y109.05 E100.38053
G0 F9000 X123.757 Y109.05
G1 F1500 X125.949 Y111.242 E100.48363
G0 F9000 X125.949 Y110.676
G1 F1500 X124.323 Y109.05 E100.56012
G0 F9000 X124.889 Y109.05
G1 F1500 X125.949 Y110.11 E100.60998
G0 F9000 X125.949 Y109.544
G1 F1500 X125.454 Y109.05 E100.63324
G0 F9000 X125.454 Y108.31
G1 F2700 E95.63324
;MESH:NONMESH
G0 F300 X125.454 Y108.31 Z0.8
G0 F9000 X108.682 Y108.682
G0 X108.5 Y126.5
;TIME_ELAPSED:219.988582
;LAYER:3
M106 S255
;TYPE:WALL-INNER
;MESH:Cube.stl
G1 F2700 E100.63324
G1 F1500 X108.5 Y108.5 E101.23192
G1 X126.5 Y108.5 E101.8306
G1 X126.5 Y126.5 E102.42928
G1 X108.5 Y126.5 E103.02796
G0 F9000 X108.1 Y126.9
G1 F1500 X108.1 Y108.1 E103.65326
G1 X126.9 Y108.1 E104.27855
G1 X126.9 Y126.9 E104.90384
G1 X108.1 Y126.9 E105.52913
G0 F9000 X107.7 Y127.3
;TYPE:WALL-OUTER
G1 F1500 X107.7 Y107.7 E106.18103
G1 X127.3 Y107.7 E106.83292
G1 X127.3 Y127.3 E107.48482
G1 X107.7 Y127.3 E108.13672
G0 F9000 X107.97 Y127.03
G0 X108.61 Y126.11
G0 X108.89 Y126.11
;TYPE:SKIN
G1 F1500 X108.89 Y108.89 E108.70946
G1 X126.11 Y108.89 E109.2822
G1 X126.11 Y126.11 E109.85494
G1 X108.89 Y126.11 E110.42768
G0 F9000 X108.61 Y126.11
G0 X108.61 Y109.304
G0 X109.05 Y109.304
G1 F1500 X109.305 Y109.049 E110.43967
G0 F9000 X109.87 Y109.049
G1 F1500 X109.05 Y109.87 E110.47827
G0 F9000 X109.05 Y110.435
G1 F1500 X110.436 Y109.049 E110.54346
G0 F9000 X111.002 Y109.049
G1 F1500 X109.05 Y111.001 E110.63528
G0 F9000 X109.05 Y111.567
G1 F1500 X111.568 Y109.049 E110.75372
G0 F9000 X112.133 Y109.049
G1 F1500 X109.05 Y112.132 E110.89873
G0 F9000 X109.05 Y112.698
G1 F1500 X112.699 Y109.049 E111.07037
G0 F9000 X113.265 Y109.049
G1 F1500 X109.05 Y113.264 E111.26863
G0 F9000 X109.05 Y113.83
G1 F1500 X113.83 Y109.049 E111.49349
G0 F9000 X114.396 Y109.049
G1 F1500 X109.05 Y114.395 E111.74495
G0 F9000 X109.05 Y114.961
G1 F1500 X114.962 Y109.049 E112.02303
G0 F9000 X115.527 Y109.049
G1 F1500 X109.05 Y115.527 E112.32771
G0 F9000 X109.05 Y116.092
G1 F1500 X116.093 Y109.049 E112.65899
