;FLAVOR:Marlin
;TIME:1062
;Filament used: 0.728885m
;Layer height: 0.2
;MINX:107.797
;MINY:110.836
;MINZ:0.2
;MAXX:127.245
;MAXY:129.02
;MAXZ:12.4
;Generated with Cura_SteamEngine 4.5.0
M140 S50
M105
M190 S50
M104 S200
M105
M109 S200
M82 ;absolute extrusion mode
; Ender 3 Custom Start G-code
G92 E0 ; Reset Extruder
G28 ; Home all axes
G1 Z2.0 F3000 ; Move Z Axis up little to prevent scratching of Heat Bed
G1 X0.1 Y20 Z0.3 F5000.0 ; Move to start position
G1 X0.1 Y200.0 Z0.3 F1500.0 E15 ; Draw the first line
G1 X0.4 Y200.0 Z0.3 F5000.0 ; Move to side a little
G1 X0.4 Y20 Z0.3 F1500.0 E30 ; Draw the second line
G92 E0 ; Reset Extruder
G1 Z2.0 F3000 ; Move Z Axis up little to prevent scratching of Heat Bed
G1 X5 Y20 Z0.3 F5000.0 ; Move over to prevent blob squish
G92 E0
G92 E0
G1 F2700 E-5
;LAYER_COUNT:62
;LAYER:0
M107
G0 F6000 X112.714 Y112.754 Z0.2
;TYPE:SUPPORT-INTERFACE
G1 F2700 E0
G1 F600 X126.138 Y120.505 E0.51557
G1 X126.138 Y120.506 E0.5156
G1 X125.871 Y120.968 E0.53335
G1 X125.71 Y121.247 E0.54406
G1 X125.504 Y121.603 E0.55774
G1 X125.319 Y121.924 E0.57006
G1 X125.232 Y122.074 E0.57583
G1 X111.806 Y114.323 E1.09145
G1 X112.222 Y113.604 E1.11908
G1 X112.253 Y113.547 E1.12124
G1 X112.254 Y113.547 E1.12127
G1 X112.47 Y113.176 E1.13555
G1 X112.714 Y112.754 E1.15177
G1 F2700 E-3.84823
G0 F6000 X111.966 Y112.322
G0 X109.684 Y116.277
G0 X109.829 Y116.762
G0 X109.811 Y117.783
G1 F2700 E1.15177
G1 F600 X123.234 Y125.532 E1.66727
G1 X123.15 Y125.68 E1.67293
G1 X122.365 Y127.036 E1.72504
G1 X122.328 Y127.099 E1.72747
G1 X108.906 Y119.35 E2.24295
G1 X109.185 Y118.869 E2.26144
G1 X109.348 Y118.58 E2.27248
G1 X109.811 Y117.783 E2.30314
G0 F6000 X111.698 Y119.101
G1 F600 X110.665 Y120.134 E2.35172
G0 F6000 X112.816 Y121.377
G1 F600 X113.849 Y120.343 E2.40034
G0 F6000 X113.156 Y119.944
G1 F600 X117.007 Y123.796 E2.5815
G0 F6000 X117.12 Y123.861
G1 F600 X118.153 Y122.828 E2.63009
G0 F6000 X116.001 Y121.586
G1 F600 X114.968 Y122.619 E2.67868
G1 F2700 E-2.32132
G0 F6000 X114.436 Y123.541
G0 X118.739 Y126.026
G0 X119.271 Y125.104
G1 F2700 E2.67868
G1 F600 X120.305 Y124.071 E2.72729
G0 F6000 X121.186 Y124.58
G1 F600 X122.687 Y126.081 E2.79789
G0 F6000 X122.456 Y125.313
G1 F600 X121.423 Y126.346 E2.84648
G1 F2700 E-2.15352
G0 F6000 X120.891 Y127.268
G0 X122.209 Y128.025
G0 X122.894 Y127.841
G0 X125.357 Y123.578
G0 X125.224 Y123.144
G0 X123.52 Y120.855
G1 F2700 E2.84648
G1 F600 X124.554 Y119.821 E2.89512
G0 F6000 X125.172 Y121.777
G1 F600 X121.386 Y117.992 E3.07318
G0 F6000 X122.403 Y118.578
G1 F600 X121.368 Y119.613 E3.12186
G0 F6000 X119.216 Y118.371
G1 F600 X120.251 Y117.335 E3.17057
G0 F6000 X118.1 Y116.093
G1 F600 X117.065 Y117.128 E3.21925
G0 F6000 X117.214 Y117.214
G1 F600 X113.352 Y113.352 E3.40091
G0 F6000 X113.796 Y113.608
G1 F600 X112.761 Y114.643 E3.44959
G0 F6000 X114.913 Y115.886
G1 F600 X115.948 Y114.851 E3.49827
G1 F2700 E-1.50173
;MESH:cylinder (0.1cm tolerance).stl
G0 F6000 X116.479 Y113.93
G0 X112.835 Y111.83
G0 X112.148 Y112.013
G0 X110.208 Y115.363
G0 X111.054 Y115.882
G0 X110.858 Y116.311
G0 X110.609 Y116.398
;TYPE:WALL-OUTER
G1 F2700 E3.49827
G1 F600 X111.007 Y115.707 E3.5248
G1 X124.432 Y123.457 E4.04037
G1 X124.034 Y124.148 E4.0669
G1 X110.609 Y116.398 E4.58248
G0 F6000 X110.999 Y116.373
;TYPE:SKIN
G1 F600 X111.385 Y116.477 E4.60634
G0 F6000 X111.894 Y116.42
G1 F600 X113.119 Y117.644 E4.63513
G0 F6000 X113.233 Y117.193
G1 F600 X114.457 Y118.417 E4.66392
G0 F6000 X114.571 Y117.965
G1 F600 X115.796 Y119.19 E4.69273
G0 F6000 X115.91 Y118.738
G1 F600 X117.135 Y119.963 E4.72154
G0 F6000 X117.248 Y119.511
G1 F600 X118.473 Y120.736 E4.75035
G0 F6000 X118.587 Y120.284
G1 F600 X119.812 Y121.509 E4.77916
G0 F6000 X119.926 Y121.057
G1 F600 X121.151 Y122.282 E4.80797
G0 F6000 X121.264 Y121.83
G1 F600 X122.489 Y123.055 E4.83678
G0 F6000 X122.603 Y122.603
G1 F600 X123.828 Y123.828 E4.86559
G0 F6000 X124.051 Y123.768
G1 F600 X123.272 Y122.989 E4.88391
G0 F6000 X123.158 Y123.441
G1 F600 X121.934 Y122.217 E4.9127
G0 F6000 X121.82 Y122.668
G1 F600 X120.595 Y121.444 E4.9415
G0 F6000 X120.481 Y121.896
G1 F600 X119.257 Y120.671 E4.9703
G0 F6000 X119.143 Y121.123
G1 F600 X117.918 Y119.898 E4.99911
G0 F6000 X117.804 Y120.35
G1 F600 X116.579 Y119.125 E5.02792
G0 F6000 X116.466 Y119.577
G1 F600 X115.24 Y118.351 E5.05675
G0 F6000 X115.127 Y118.804
G1 F600 X113.902 Y117.579 E5.08556
G0 F6000 X113.789 Y118.031
G1 F600 X112.563 Y116.806 E5.11438
G0 F6000 X112.449 Y117.258
G1 F600 X111.225 Y116.033 E5.14318
G0 F6000 X111.211 Y116.055
G0 X123.929 Y123.397
G0 X123.942 Y123.376
G1 F600 X124.154 Y123.588 E5.14817
G0 F6000 X123.749 Y123.64
G1 F2700 E0.14817
;MESH:NONMESH
G0 F300 X123.749 Y123.64 Z0.4
G0 F6000 X111.049 Y115.863
G0 X110.93 Y114.851
G0 X110.685 Y114.549
G0 X112.007 Y112.25
G0 X112.581 Y112.581
;TIME_ELAPSED:28.176542
;LAYER:1
M140 S50
M106 S85
;TYPE:SUPPORT-INTERFACE
G1 F2700 E5.14817
G1 F1050 X116.12 Y116.12 E5.31463
G0 F7500 X115.206 Y115.593
G1 F1050 X116.239 Y114.559 E5.36324
G0 F7500 X114.088 Y113.317
G1 F1050 X113.054 Y114.351 E5.41188
G1 F2700 E0.41188
G0 F7500 X114.092 Y112.552
G0 X118.395 Y115.036
G0 X117.357 Y116.835
G1 F2700 E5.41188
G1 F1050 X118.391 Y115.802 E5.46049
G0 F7500 X120.297 Y116.903
G1 F1050 X124.151 Y120.757 E5.64177
G0 F7500 X123.812 Y120.563
G1 F1050 X124.846 Y119.529 E5.69041
G0 F7500 X122.695 Y118.286
G1 F1050 X121.661 Y119.32 E5.73904
G0 F7500 X119.509 Y118.078
G1 F1050 X120.543 Y117.044 E5.78768
G1 F2700 E0.78768
G0 F7500 X120.875 Y116.468
G0 X126.872 Y119.935
G0 X127.065 Y120.624
G0 X122.894 Y127.84
G0 X122.209 Y128.025
G0 X116.823 Y124.919
G0 X117.86 Y123.121
G1 F2700 E5.78768
G1 F1050 X116.827 Y124.154 E5.83627
G0 F7500 X118.099 Y124.887
G1 F1050 X114.247 Y121.036 E6.01743
G0 F7500 X113.557 Y120.636
G1 F1050 X112.524 Y121.669 E6.06602
G0 F7500 X114.675 Y122.912
G1 F1050 X115.708 Y121.879 E6.11461
G1 F2700 E1.11461
G0 F7500 X114.671 Y123.677
G0 X118.648 Y125.972
G0 X118.979 Y125.396
G1 F2700 E6.11461
G1 F1050 X120.012 Y124.363 E6.1632
G0 F7500 X122.164 Y125.605
G1 F1050 X121.131 Y126.638 E6.21179
G0 F7500 X122.277 Y125.671
G1 F1050 X122.979 Y126.373 E6.24481
G1 F2700 E1.24481
G0 F7500 X123.554 Y126.705
G0 X122.894 Y127.84
G0 X122.209 Y128.025
G0 X110.368 Y121.193
G0 X111.405 Y119.394
G1 F2700 E6.24481
G1 F1050 X110.372 Y120.427 E6.2934
G0 F7500 X110.069 Y120.251
G1 F1050 X108.854 Y119.036 E6.35055
G1 F2700 E1.35055
;MESH:cylinder (0.1cm tolerance).stl
G0 F7500 X110.302 Y117.357
G0 X112.045 Y116.308
;TYPE:WALL-INNER
G1 F2700 E6.35055
G1 F1050 X112.217 Y116.407 E6.35715
G1 X123.393 Y122.858 E6.78634
G1 X123.095 Y123.375 E6.80619
G1 X122.996 Y123.547 E6.81279
G1 X122.824 Y123.448 E6.81706
G1 X111.648 Y116.997 E7.24625
G1 X111.946 Y116.48 E7.2661
G1 X112.045 Y116.308 E7.27037
G0 F7500 X111.799 Y115.934
G1 F1050 X111.898 Y115.762 E7.27697
G1 X112.07 Y115.861 E7.28124
G1 X123.939 Y122.712 E7.73705
G1 X123.242 Y123.921 E7.78346
G1 X123.143 Y124.093 E7.79006
G1 X122.971 Y123.994 E7.79433
G1 X111.102 Y117.143 E8.25014
G1 X111.799 Y115.934 E8.29655
G0 F7500 X111.653 Y115.388
G1 F1050 X111.752 Y115.216 E8.30315
G1 X111.924 Y115.315 E8.30742
G1 X124.485 Y122.566 E8.78981
G1 X123.388 Y124.467 E8.86281
G1 X123.289 Y124.639 E8.86941
G1 X123.117 Y124.54 E8.87368
G1 X110.556 Y117.289 E9.35607
G1 X111.653 Y115.388 E9.42907
G0 F7500 X111.606 Y114.67
;TYPE:WALL-OUTER
G1 F1050 X125.031 Y122.42 E9.94465
G1 X123.435 Y125.185 E10.05084
G1 X110.01 Y117.435 E10.56642
G1 X111.606 Y114.67 E10.6726
G0 F7500 X111.704 Y115.039
G0 X112.214 Y116.605
G0 X112.05 Y116.768
;TYPE:SKIN
G1 F1050 X112.229 Y116.872 E10.68045
G1 X117.071 Y119.667 E10.89235
G1 X121.912 Y122.462 E11.10421
G1 X122.988 Y123.083 E11.1513
G0 F7500 X123.152 Y122.92
G1 F2700 E6.1513
;MESH:NONMESH
G0 F300 X123.152 Y122.92 Z0.6
G0 F7500 X111.684 Y114.962
G0 X112.581 Y112.581
;TIME_ELAPSED:45.365654
;LAYER:2
M106 S170
;TYPE:SUPPORT-INTERFACE
G1 F2700 E11.1513
G1 F1458.1 X114.665 Y114.665 E11.24932
G0 F9000 X115.595 Y115.203
G1 F1458.1 X116.239 Y114.559 E11.27961
G0 F9000 X117.747 Y116.446
G1 F1458.1 X118.391 Y115.802 E11.30991
G0 F9000 X120.297 Y116.903
G1 F1458.1 X122.699 Y119.305 E11.42289
G0 F9000 X122.05 Y118.931
G1 F1458.1 X122.695 Y118.286 E11.45323
G0 F9000 X124.201 Y120.174
G1 F1458.1 X124.846 Y119.529 E11.48357
G1 F2700 E6.48357
G0 F9000 X125.178 Y118.954
G0 X120.875 Y116.469
G0 X120.543 Y117.044
G1 F2700 E11.48357
G1 F1458.1 X119.899 Y117.688 E11.51386
G1 F2700 E6.51386
G0 F9000 X120.671 Y116.351
G0 X126.874 Y119.937
G0 X127.064 Y120.624
G0 X122.894 Y127.84
G0 X122.209 Y128.025
G0 X116.7 Y124.848
G0 X117.47 Y123.511
G1 F2700 E11.51386
G1 F1458.1 X116.827 Y124.154 E11.5441
G0 F9000 X118.099 Y124.887
G1 F1458.1 X115.701 Y122.489 E11.6569
G0 F9000 X115.319 Y122.268
G1 F1458.1 X114.675 Y122.912 E11.68719
G0 F9000 X113.167 Y121.026
G1 F1458.1 X112.524 Y121.669 E11.71743
G0 F9000 X111.015 Y119.783
G1 F1458.1 X110.372 Y120.427 E11.7477
G0 F9000 X110.069 Y120.251
G1 F1458.1 X108.854 Y119.036 E11.80485
G1 F2700 E6.80485
G0 F9000 X108.28 Y118.703
G0 X112.147 Y112.015
G0 X112.834 Y111.829
G0 X114.216 Y112.623
G0 X113.444 Y113.96
G1 F2700 E11.80485
G1 F1458.1 X114.088 Y113.317 E11.83512
G1 F2700 E6.83512
G0 F9000 X114.42 Y112.741
G0 X112.834 Y111.829
G0 X112.147 Y112.015
G0 X107.978 Y119.23
G0 X108.166 Y119.918
G0 X118.852 Y126.09
G0 X119.622 Y124.753
G1 F2700 E11.83512
G1 F1458.1 X118.979 Y125.396 E11.86536
G0 F9000 X121.131 Y126.638
G1 F1458.1 X121.774 Y125.995 E11.89561
G1 F2700 E6.89561
;MESH:cylinder (0.1cm tolerance).stl
G0 F9000 X122.385 Y124.94
G0 X122.437 Y122.916
;TYPE:WALL-INNER
G1 F2700 E11.89561
G1 F1458.1 X112.474 Y117.165 E12.27822
G1 X112.604 Y116.939 E12.2869
G1 X122.567 Y122.69 E12.53621
G1 X122.437 Y122.916 E12.54488
G0 F9000 X122.683 Y123.29
G1 F1458.1 X122.584 Y123.462 E12.55148
G1 X122.412 Y123.363 E12.55575
G1 X111.928 Y117.311 E12.95837
G1 X112.358 Y116.565 E12.98701
G1 X112.457 Y116.393 E12.99361
G1 X112.629 Y116.492 E12.99788
G1 X123.113 Y122.544 E13.40051
G1 X122.683 Y123.29 E13.42915
G0 F9000 X122.829 Y123.836
G1 F1458.1 X122.73 Y124.008 E13.43575
G1 X122.558 Y123.909 E13.44002
G1 X111.382 Y117.457 E13.86923
G1 X112.212 Y116.019 E13.92445
G1 X112.311 Y115.847 E13.93105
G1 X112.483 Y115.946 E13.93532
G1 X123.659 Y122.398 E14.36453
G1 X122.829 Y123.836 E14.41975
G0 F9000 X122.975 Y124.382
G1 F1458.1 X122.876 Y124.554 E14.42635
G1 X122.704 Y124.455 E14.43062
G1 X110.836 Y117.603 E14.88642
G1 X112.066 Y115.473 E14.96823
G1 X112.165 Y115.301 E14.97483
G1 X112.337 Y115.4 E14.97909
G1 X124.205 Y122.252 E15.43489
G1 X122.975 Y124.382 E15.5167
G0 F9000 X123.022 Y125.1
G1 F1458.1 X110.462 Y117.848 E15.99908
G1 X110.29 Y117.749 E16.00568
G1 X110.389 Y117.577 E16.00995
G1 X112.019 Y114.755 E16.11834
G1 X124.579 Y122.007 E16.60072
G1 X124.751 Y122.106 E16.60732
G1 X124.652 Y122.278 E16.61159
G1 X123.022 Y125.1 E16.71998
G0 F9000 X123.168 Y125.646
;TYPE:WALL-OUTER
G1 F1458.1 X109.744 Y117.895 E17.23555
G1 X111.873 Y114.209 E17.37712
G1 X125.297 Y121.96 E17.89269
G1 X123.168 Y125.646 E18.03427
G0 F9000 X122.891 Y124.927
G1 F2700 E13.03427
;MESH:NONMESH
G0 F300 X122.891 Y124.927 Z0.8
G0 F9000 X111.951 Y114.501
G0 X112.713 Y112.754
;TIME_ELAPSED:61.735198
;LAYER:3
M106 S255
;TYPE:SUPPORT
G1 F2700 E18.03427
G1 F1500 X126.138 Y120.505 E18.54986
G1 X126.082 Y120.601 E18.55356
G1 X112.658 Y112.849 E19.06914
G1 X112.713 Y112.754 E19.07279
G1 F2700 E14.07279
G0 F9000 X111.965 Y112.321
G0 X108.212 Y118.82
G0 X108.96 Y119.254
G1 F2700 E19.07279
G1 F1500 X122.383 Y127.005 E19.58833
G1 X122.328 Y127.1 E19.59198
G1 X108.904 Y119.349 E20.10755
G1 X108.96 Y119.254 E20.11122
G1 F2700 E15.11122
;MESH:cylinder (0.1cm tolerance).stl
G0 F9000 X109.852 Y118.137
G0 X112.936 Y117.165
;TYPE:WALL-INNER
G1 F2700 E20.11122
G1 F1500 X122.206 Y122.516 E20.46722
G1 X122.106 Y122.69 E20.47389
G1 X112.836 Y117.339 E20.65234
G1 X112.936 Y117.165 E20.65901
G0 F9000 X112.69 Y116.791
G1 F1500 X112.789 Y116.619 E20.66561
G1 X112.961 Y116.718 E20.66988
G1 X122.752 Y122.37 E21.0459
G1 X122.352 Y123.064 E21.07254
G1 X122.253 Y123.236 E21.07914
G1 X122.081 Y123.137 E21.08341
G1 X112.29 Y117.485 E21.45942
G1 X112.69 Y116.791 E21.48606
G0 F9000 X112.543 Y116.245
G1 F1500 X112.642 Y116.073 E21.49266
G1 X112.814 Y116.172 E21.49693
G1 X123.298 Y122.224 E21.89956
G1 X122.499 Y123.61 E21.95277
G1 X122.4 Y123.782 E21.95937
G1 X122.228 Y123.683 E21.96364
G1 X111.744 Y117.631 E22.36626
G1 X112.543 Y116.245 E22.41947
G0 F9000 X112.397 Y115.699
G1 F1500 X112.496 Y115.527 E22.42607
G1 X112.668 Y115.626 E22.43034
G1 X123.844 Y122.078 E22.85955
G1 X122.645 Y124.156 E22.93935
G1 X122.546 Y124.328 E22.94595
G1 X122.374 Y124.229 E22.95022
G1 X111.198 Y117.777 E23.37943
G1 X112.397 Y115.699 E23.45922
G0 F9000 X112.251 Y115.153
G1 F1500 X112.35 Y114.981 E23.46582
G1 X112.522 Y115.08 E23.47009
G1 X124.39 Y121.932 E23.92589
G1 X122.791 Y124.702 E24.03226
G1 X122.692 Y124.874 E24.03887
G1 X122.52 Y124.775 E24.04313
G1 X110.652 Y117.923 E24.49893
G1 X112.251 Y115.153 E24.60531
G0 F9000 X112.105 Y114.607
G1 F1500 X112.204 Y114.435 E24.61191
G1 X112.376 Y114.534 E24.61618
G1 X124.936 Y121.786 E25.09856
G1 X122.937 Y125.248 E25.23152
G1 X122.838 Y125.42 E25.23812
G1 X122.666 Y125.321 E25.24239
G1 X110.106 Y118.069 E25.72477
G1 X112.105 Y114.607 E25.85773
G0 F9000 X112.058 Y113.889
;TYPE:WALL-OUTER
G1 F1500 X125.482 Y121.64 E26.3733
G1 X122.984 Y125.966 E26.53945
G1 X109.56 Y118.215 E27.05501
G1 X112.058 Y113.889 E27.22116
G0 F9000 X112.175 Y114.649
;MESH:NONMESH
G0 F300 X112.175 Y114.649 Z1
G0 F9000 X113.198 Y117.513
;TIME_ELAPSED:75.966705
;LAYER:4
;TYPE:WALL-INNER
;MESH:cylinder (0.1cm tolerance).stl
G1 F1500 X113.268 Y117.39 E27.22587
G1 X121.844 Y122.342 E27.55525
G1 X121.774 Y122.465 E27.55995
G1 X113.198 Y117.513 E27.67637
G0 F9000 X113.022 Y117.016
G1 F1500 X113.121 Y116.844 E27.68297
G1 X113.293 Y116.943 E27.68724
G1 X122.391 Y122.196 E28.03666
G1 X122.02 Y122.839 E28.06135
G1 X121.921 Y123.011 E28.06795
G1 X121.749 Y122.912 E28.07221
G1 X112.651 Y117.659 E28.42163
G1 X113.022 Y117.016 E28.44632
G0 F9000 X112.875 Y116.47
G1 F1500 X112.974 Y116.298 E28.45292
G1 X113.146 Y116.397 E28.45719
G1 X122.937 Y122.05 E28.83322
G1 X122.167 Y123.385 E28.88448
G1 X122.068 Y123.557 E28.89108
G1 X121.896 Y123.458 E28.89535
G1 X112.105 Y117.805 E29.27138
G1 X112.875 Y116.47 E29.32264
G0 F9000 X112.728 Y115.924
G1 F1500 X112.827 Y115.752 E29.32924
G1 X112.999 Y115.851 E29.33351
G1 X123.483 Y121.904 E29.73615
G1 X122.314 Y123.931 E29.81398
G1 X122.215 Y124.103 E29.82058
G1 X122.043 Y124.004 E29.82484
G1 X111.559 Y117.951 E30.22749
G1 X112.728 Y115.924 E30.30531
G0 F9000 X112.582 Y115.378
G1 F1500 X112.681 Y115.206 E30.31192
G1 X112.853 Y115.305 E30.31618
G1 X124.029 Y121.758 E30.74541
G1 X122.46 Y124.477 E30.84982
G1 X122.361 Y124.649 E30.85642
G1 X122.189 Y124.55 E30.86069
G1 X111.013 Y118.097 E31.28992
G1 X112.582 Y115.378 E31.39433
G0 F9000 X112.436 Y114.832
G1 F1500 X112.535 Y114.66 E31.40093
G1 X112.707 Y114.759 E31.4052
G1 X124.575 Y121.612 E31.86101
G1 X122.606 Y125.023 E31.99201
G1 X122.507 Y125.195 E31.99861
G1 X122.335 Y125.096 E32.00287
G1 X110.467 Y118.243 E32.45869
G1 X112.436 Y114.832 E32.58968
G0 F9000 X112.29 Y114.286
G1 F1500 X112.389 Y114.114 E32.59628
G1 X112.561 Y114.213 E32.60055
G1 X125.121 Y121.466 E33.08295
G1 X122.752 Y125.569 E33.24053
G1 X122.653 Y125.741 E33.24713
G1 X122.481 Y125.642 E33.2514
G1 X109.921 Y118.389 E33.73379
G1 X112.29 Y114.286 E33.89137
G1 F2700 E28.89137
G0 F9000 X109.744 Y118.437
G0 X109.375 Y118.535
;TYPE:WALL-OUTER
G1 F2700 E33.89137
G1 F1500 X112.243 Y113.568 E34.08214
G1 X125.667 Y121.32 E34.59772
G1 X122.799 Y126.287 E34.78849
G1 X109.375 Y118.535 E35.30407
G0 F9000 X110.093 Y118.258
;MESH:NONMESH
G0 F300 X110.093 Y118.258 Z1.2
G0 F9000 X113.558 Y117.687
;TIME_ELAPSED:87.984310
;LAYER:5
;TYPE:WALL-INNER
;MESH:cylinder (0.1cm tolerance).stl
G1 F1500 X113.599 Y117.616 E35.3068
G1 X121.483 Y122.168 E35.60959
G1 X121.442 Y122.239 E35.61231
G1 X113.558 Y117.687 E35.67414
G0 F9000 X113.353 Y117.242
G1 F1500 X113.452 Y117.07 E35.68074
