;FLAVOR:Marlin
;TIME:40984
;Filament used: 25.9945m
;Layer height: 0.16
;MINX:34
;MINY:71.5
;MINZ:0.2
;MAXX:201
;MAXY:163.5
;MAXZ:19.84
;Generated with Cura_SteamEngine 4.5.0
M140 S50
M105
M190 S50
M104 S200
M105
M109 S200
M82 ;absolute extrusion mode
; Ender 3 Custom Start G-code
G92 E0 ; Reset Extruder
G28 ; Home all axes
G1 Z2.0 F3000 ; Move Z Axis up little to prevent scratching of Heat Bed
G1 X0.1 Y20 Z0.3 F5000.0 ; Move to start position
G1 X0.1 Y200.0 Z0.3 F1500.0 E15 ; Draw the first line
G1 X0.4 Y200.0 Z0.3 F5000.0 ; Move to side a little
G1 X0.4 Y20 Z0.3 F1500.0 E30 ; Draw the second line
G92 E0 ; Reset Extruder
G1 Z2.0 F3000 ; Move Z Axis up little to prevent scratching of Heat Bed
G1 X5 Y20 Z0.3 F5000.0 ; Move over to prevent blob squish
G92 E0
G92 E0
G1 F2700 E-5
;LAYER_COUNT:116
;LAYER:0
M107
G0 F6000 X39.412 Y73.039 Z0.2
;TYPE:SKIRT
G1 F2700 E0
G1 F1200 X40.239 Y72.597 E0.03119
G1 X41.101 Y72.227 E0.06239
G1 X41.991 Y71.931 E0.09358
G1 X42.903 Y71.713 E0.12477
G1 X43.83 Y71.572 E0.15596
G1 X44.701 Y71.513 E0.18499
G1 X45.33 Y71.5 E0.20592
G1 X114.284 Y71.5 E2.49934
G1 X114.44 Y71.501 E2.50453
G1 X116.271 Y71.527 E2.56543
G1 X118.91 Y71.527 E2.65321
G1 X120.204 Y71.501 E2.69625
G1 X189.293 Y71.5 E4.99416
G1 X189.451 Y71.501 E4.99942
G1 X190.149 Y71.511 E5.02264
G1 X191.085 Y71.565 E5.05382
G1 X192.013 Y71.697 E5.085
G1 X192.927 Y71.909 E5.1162
G1 X193.819 Y72.198 E5.14739
G1 X194.684 Y72.561 E5.17859
G1 X195.514 Y72.997 E5.20977
G1 X196.305 Y73.502 E5.24099
G1 X197.049 Y74.073 E5.27218
G1 X197.742 Y74.705 E5.30337
G1 X198.379 Y75.393 E5.33456
G1 X198.954 Y76.134 E5.36575
G1 X199.465 Y76.92 E5.39694
G1 X199.907 Y77.748 E5.42815
G1 X200.276 Y78.61 E5.45934
G1 X200.571 Y79.5 E5.49053
G1 X200.789 Y80.412 E5.52171
G1 X200.929 Y81.34 E5.55293
G1 X200.987 Y82.201 E5.58163
G1 X201 Y82.83 E5.60256
G1 X201 Y151.764 E7.89531
G1 X200.99 Y152.627 E7.92401
G1 X200.939 Y153.564 E7.95523
G1 X200.807 Y154.492 E7.9864
G1 X200.598 Y155.406 E8.01759
G1 X200.311 Y156.299 E8.04878
G1 X199.949 Y157.165 E8.08
G1 X199.515 Y157.996 E8.11118
G1 X199.011 Y158.787 E8.14238
G1 X198.442 Y159.532 E8.17356
G1 X197.811 Y160.227 E8.20478
G1 X197.124 Y160.865 E8.23596
G1 X196.385 Y161.442 E8.26715
G1 X195.599 Y161.954 E8.29835
G1 X194.773 Y162.397 E8.32952
G1 X193.911 Y162.769 E8.36075
G1 X193.022 Y163.065 E8.39191
G1 X192.11 Y163.285 E8.42312
G1 X191.183 Y163.426 E8.4543
G1 X190.299 Y163.487 E8.48377
G1 X189.67 Y163.5 E8.5047
G1 X120.716 Y163.5 E10.79812
G1 X120.56 Y163.499 E10.80331
G1 X118.729 Y163.473 E10.86421
G1 X116.09 Y163.473 E10.95199
G1 X114.796 Y163.499 E10.99503
G1 X45.707 Y163.5 E13.29294
G1 X44.867 Y163.49 E13.32088
G1 X43.931 Y163.438 E13.35206
G1 X43.002 Y163.306 E13.38327
G1 X42.088 Y163.096 E13.41446
G1 X41.195 Y162.809 E13.44566
G1 X40.33 Y162.446 E13.47686
G1 X39.499 Y162.012 E13.50804
G1 X38.708 Y161.508 E13.53924
G1 X37.963 Y160.938 E13.57044
G1 X37.269 Y160.307 E13.60164
G1 X36.632 Y159.62 E13.6328
G1 X36.055 Y158.88 E13.66401
G1 X35.543 Y158.094 E13.69521
G1 X35.1 Y157.267 E13.72641
G1 X34.729 Y156.406 E13.75759
G1 X34.433 Y155.516 E13.78879
G1 X34.214 Y154.604 E13.81998
G1 X34.073 Y153.677 E13.85117
G1 X34.013 Y152.788 E13.88081
G1 X34 Y152.158 E13.90176
G1 X34 Y83.174 E16.19618
G1 X34.01 Y82.36 E16.22326
G1 X34.063 Y81.424 E16.25444
G1 X34.195 Y80.495 E16.28565
G1 X34.406 Y79.581 E16.31685
G1 X34.694 Y78.689 E16.34802
G1 X35.057 Y77.824 E16.37922
G1 X35.492 Y76.993 E16.41042
G1 X35.996 Y76.203 E16.44159
G1 X36.566 Y75.458 E16.47279
G1 X37.198 Y74.764 E16.50401
G1 X37.886 Y74.127 E16.53519
G1 X38.626 Y73.551 E16.56638
G1 X39.412 Y73.039 E16.59758
G0 F6000 X39.791 Y73.282
G1 F1200 X40.611 Y72.864 E16.62819
G1 X41.465 Y72.519 E16.65883
G1 X42.345 Y72.249 E16.68944
G1 X43.245 Y72.057 E16.72005
G1 X44.159 Y71.943 E16.75069
G1 X44.712 Y71.913 E16.76911
G1 X45.33 Y71.9 E16.78967
G1 X114.284 Y71.9 E19.08309
G1 X114.435 Y71.901 E19.08811
G1 X116.266 Y71.927 E19.14901
G1 X118.919 Y71.927 E19.23725
G1 X120.204 Y71.901 E19.28
G1 X189.293 Y71.9 E21.57791
G1 X189.445 Y71.901 E21.58297
G1 X190.143 Y71.911 E21.60618
G1 X191.062 Y71.964 E21.6368
G1 X191.973 Y72.097 E21.66742
G1 X192.869 Y72.308 E21.69804
G1 X193.743 Y72.596 E21.72864
G1 X194.59 Y72.959 E21.75929
G1 X195.401 Y73.394 E21.7899
G1 X196.171 Y73.898 E21.82051
G1 X196.895 Y74.467 E21.85114
G1 X197.567 Y75.097 E21.88178
G1 X198.182 Y75.782 E21.91239
G1 X198.735 Y76.518 E21.94301
G1 X199.222 Y77.299 E21.97363
G1 X199.639 Y78.12 E22.00425
G1 X199.984 Y78.974 E22.03489
G1 X200.253 Y79.854 E22.06549
G1 X200.445 Y80.755 E22.09613
G1 X200.558 Y81.668 E22.12673
G1 X200.587 Y82.212 E22.14485
G1 X200.6 Y82.83 E22.16541
G1 X200.6 Y151.764 E24.45816
G1 X200.59 Y152.622 E24.4867
G1 X200.539 Y153.541 E24.51732
G1 X200.408 Y154.453 E24.54796
G1 X200.198 Y155.349 E24.57857
G1 X199.912 Y156.224 E24.60919
G1 X199.551 Y157.071 E24.63981
G1 X199.117 Y157.883 E24.67043
G1 X198.615 Y158.655 E24.70106
G1 X198.047 Y159.38 E24.73169
G1 X197.419 Y160.053 E24.76231
G1 X196.735 Y160.669 E24.79293
G1 X196 Y161.223 E24.82354
G1 X195.22 Y161.712 E24.85416
G1 X194.4 Y162.131 E24.88479
G1 X193.547 Y162.477 E24.9154
G1 X192.667 Y162.748 E24.94603
G1 X191.767 Y162.941 E24.97664
G1 X190.853 Y163.056 E25.00728
G1 X190.288 Y163.087 E25.0261
G1 X189.67 Y163.1 E25.04666
G1 X120.716 Y163.1 E27.34008
G1 X120.565 Y163.099 E27.3451
G1 X118.734 Y163.073 E27.40601
G1 X116.081 Y163.073 E27.49425
G1 X114.796 Y163.099 E27.537
G1 X45.707 Y163.1 E29.8349
G1 X44.872 Y163.09 E29.86268
G1 X43.953 Y163.038 E29.89329
G1 X43.042 Y162.907 E29.92391
G1 X42.146 Y162.697 E29.95451
G1 X41.271 Y162.41 E29.98514
G1 X40.424 Y162.048 E30.01578
G1 X39.612 Y161.614 E30.0464
G1 X38.841 Y161.112 E30.077
G1 X38.116 Y160.544 E30.10763
G1 X37.443 Y159.915 E30.13827
G1 X36.828 Y159.231 E30.16887
G1 X36.274 Y158.496 E30.19948
G1 X35.786 Y157.715 E30.23011
G1 X35.367 Y156.895 E30.26074
G1 X35.021 Y156.042 E30.29135
G1 X34.751 Y155.162 E30.32197
G1 X34.558 Y154.261 E30.35262
G1 X34.444 Y153.348 E30.38322
G1 X34.413 Y152.777 E30.40224
G1 X34.4 Y152.158 E30.42283
G1 X34.4 Y83.174 E32.71725
G1 X34.41 Y82.366 E32.74412
G1 X34.462 Y81.446 E32.77477
G1 X34.594 Y80.535 E32.80539
G1 X34.805 Y79.639 E32.836
G1 X35.092 Y78.764 E32.86663
G1 X35.455 Y77.918 E32.89725
G1 X35.889 Y77.106 E32.92787
G1 X36.392 Y76.335 E32.95849
G1 X36.961 Y75.611 E32.98912
G1 X37.589 Y74.939 E33.01971
G1 X38.274 Y74.323 E33.05035
G1 X39.01 Y73.77 E33.08097
G1 X39.791 Y73.282 E33.1116
G0 F6000 X40.169 Y73.531
G1 F1200 X40.982 Y73.138 E33.14164
G1 X41.827 Y72.818 E33.17169
G1 X42.696 Y72.575 E33.2017
G1 X43.584 Y72.409 E33.23175
G1 X44.723 Y72.313 E33.26976
G1 X45.33 Y72.3 E33.28996
G1 X114.284 Y72.3 E35.58338
G1 X114.429 Y72.301 E35.5882
G1 X116.26 Y72.327 E35.6491
G1 X118.882 Y72.327 E35.73631
G1 X120.204 Y72.301 E35.78029
G1 X189.293 Y72.3 E38.0782
G1 X189.439 Y72.301 E38.08306
G1 X190.137 Y72.311 E38.10627
G1 X191.039 Y72.364 E38.13633
G1 X191.932 Y72.496 E38.16635
G1 X192.81 Y72.707 E38.19639
G1 X193.666 Y72.995 E38.22642
G1 X194.493 Y73.357 E38.25645
G1 X195.285 Y73.792 E38.2865
G1 X196.036 Y74.294 E38.31655
G1 X196.739 Y74.861 E38.34659
G1 X197.389 Y75.488 E38.37663
G1 X197.981 Y76.17 E38.40666
G1 X198.511 Y76.901 E38.43669
G1 X198.973 Y77.677 E38.46673
G1 X199.366 Y78.49 E38.49677
G1 X199.684 Y79.335 E38.5268
G1 X199.927 Y80.205 E38.55684
G1 X200.092 Y81.093 E38.58688
G1 X200.187 Y82.223 E38.6246
G1 X200.2 Y82.83 E38.64479
G1 X200.2 Y151.764 E40.93754
G1 X200.19 Y152.617 E40.96592
G1 X200.139 Y153.519 E40.99597
G1 X200.008 Y154.413 E41.02602
G1 X199.799 Y155.291 E41.05604
G1 X199.513 Y156.148 E41.08608
G1 X199.152 Y156.976 E41.11613
G1 X198.72 Y157.768 E41.14613
G1 X198.219 Y158.52 E41.17619
G1 X197.653 Y159.224 E41.20623
G1 X197.028 Y159.875 E41.23625
G1 X196.347 Y160.469 E41.2663
G1 X195.616 Y161 E41.29635
G1 X194.842 Y161.464 E41.32637
G1 X194.029 Y161.858 E41.35642
G1 X193.185 Y162.178 E41.38644
G1 X192.315 Y162.423 E41.4165
G1 X191.428 Y162.589 E41.44651
G1 X190.277 Y162.687 E41.48494
G1 X189.67 Y162.7 E41.50513
G1 X120.716 Y162.7 E43.79855
G1 X120.571 Y162.699 E43.80337
G1 X118.74 Y162.673 E43.86428
G1 X116.118 Y162.673 E43.95149
G1 X114.796 Y162.699 E43.99546
G1 X45.707 Y162.7 E46.29337
G1 X44.877 Y162.69 E46.32098
G1 X43.976 Y162.639 E46.351
G1 X43.082 Y162.507 E46.38105
G1 X42.204 Y162.298 E46.41107
G1 X41.347 Y162.011 E46.44113
G1 X40.52 Y161.65 E46.47114
G1 X39.727 Y161.217 E46.50119
G1 X38.976 Y160.716 E46.53122
G1 X38.272 Y160.15 E46.56127
G1 X37.621 Y159.524 E46.5913
G1 X37.028 Y158.843 E46.62134
G1 X36.498 Y158.112 E46.65137
G1 X36.034 Y157.337 E46.68141
G1 X35.64 Y156.524 E46.71146
G1 X35.32 Y155.68 E46.74148
G1 X35.076 Y154.81 E46.77154
G1 X34.91 Y153.922 E46.80158
G1 X34.813 Y152.767 E46.84013
G1 X34.8 Y152.158 E46.86039
G1 X34.8 Y83.174 E49.15481
G1 X34.81 Y82.371 E49.18152
G1 X34.862 Y81.469 E49.21157
G1 X34.994 Y80.576 E49.24159
G1 X35.204 Y79.698 E49.27162
G1 X35.491 Y78.841 E49.30168
G1 X35.853 Y78.014 E49.33171
G1 X36.286 Y77.222 E49.36173
G1 X36.788 Y76.471 E49.39177
G1 X37.355 Y75.767 E49.42184
G1 X37.981 Y75.117 E49.45185
G1 X38.662 Y74.524 E49.48189
G1 X39.394 Y73.994 E49.51195
G1 X40.169 Y73.531 E49.54197
G1 F2700 E44.54197
;MESH:Mold.stl
G0 F6000 X115.653 Y81.847
G0 X119.335 Y82.914
G0 X120.414 Y82.914
G0 X121 Y151.5
;TYPE:WALL-INNER
G1 F2700 E49.54197
G1 F1200 X121 Y83.5 E51.80366
G1 X189 Y83.5 E54.06535
G1 X189 Y151.5 E56.32704
G1 X121 Y151.5 E58.58873
G0 F6000 X120.6 Y151.9
G1 F1200 X120.6 Y83.1 E60.87703
G1 X189.4 Y83.1 E63.16532
G1 X189.4 Y151.9 E65.45362
G1 X120.6 Y151.9 E67.74192
G0 F6000 X120.2 Y152.3
;TYPE:WALL-OUTER
G1 F1200 X120.2 Y82.7 E70.05682
G1 X189.8 Y82.7 E72.37173
G1 X189.8 Y152.3 E74.68663
G1 X120.2 Y152.3 E77.00154
G0 F6000 X120.47 Y152.03
G0 X121.11 Y151.11
G0 X121.39 Y151.11
;TYPE:SKIN
G1 F1200 X121.39 Y83.89 E79.23729
G1 X188.61 Y83.89 E81.47303
G1 X188.61 Y151.11 E83.70878
G1 X121.39 Y151.11 E85.94452
G0 F6000 X122.098 Y150.948
G1 F1200 X121.549 Y150.399 E85.97035
G0 F6000 X121.549 Y149.833
G1 F1200 X122.664 Y150.948 E86.02279
G0 F6000 X123.23 Y150.948
G1 F1200 X121.549 Y149.268 E86.10184
G0 F6000 X121.549 Y148.702
G1 F1200 X123.796 Y150.948 E86.20751
G0 F6000 X124.361 Y150.948
G1 F1200 X121.549 Y148.136 E86.33978
G0 F6000 X121.549 Y147.571
G1 F1200 X124.927 Y150.948 E86.49864
G0 F6000 X125.493 Y150.948
G1 F1200 X121.549 Y147.005 E86.68413
G0 F6000 X121.549 Y146.439
G1 F1200 X126.058 Y150.948 E86.89622
G0 F6000 X126.624 Y150.948
G1 F1200 X121.549 Y145.874 E87.13491
G0 F6000 X121.549 Y145.308
G1 F1200 X127.19 Y150.948 E87.40022
G0 F6000 X127.755 Y150.948
G1 F1200 X121.549 Y144.742 E87.69213
G0 F6000 X121.549 Y144.176
G1 F1200 X128.321 Y150.948 E88.01067
G0 F6000 X128.887 Y150.948
G1 F1200 X121.549 Y143.611 E88.3558
G0 F6000 X121.549 Y143.045
G1 F1200 X129.452 Y150.948 E88.72753
G0 F6000 X130.018 Y150.948
G1 F1200 X121.549 Y142.479 E89.12589
G0 F6000 X121.549 Y141.914
G1 F1200 X130.584 Y150.948 E89.55085
G0 F6000 X131.149 Y150.948
G1 F1200 X121.549 Y141.348 E90.0024
G0 F6000 X121.549 Y140.782
G1 F1200 X131.715 Y150.948 E90.48058
G0 F6000 X132.281 Y150.948
G1 F1200 X121.549 Y140.217 E90.98535
G0 F6000 X121.549 Y139.651
G1 F1200 X132.846 Y150.948 E91.51673
G0 F6000 X133.412 Y150.948
G1 F1200 X121.549 Y139.085 E92.07473
G0 F6000 X121.549 Y138.52
G1 F1200 X133.978 Y150.948 E92.65933
G0 F6000 X134.544 Y150.948
G1 F1200 X121.549 Y137.954 E93.27055
G0 F6000 X121.549 Y137.388
G1 F1200 X135.109 Y150.948 E93.90837
G0 F6000 X135.675 Y150.948
G1 F1200 X121.549 Y136.823 E94.57279
G0 F6000 X121.549 Y136.257
G1 F1200 X136.241 Y150.948 E95.26383
G0 F6000 X136.806 Y150.948
G1 F1200 X121.549 Y135.691 E95.98148
G0 F6000 X121.549 Y135.125
G1 F1200 X137.372 Y150.948 E96.72574
G0 F6000 X137.938 Y150.948
G1 F1200 X121.549 Y134.56 E97.49661
G0 F6000 X121.549 Y133.994
G1 F1200 X138.503 Y150.948 E98.29407
G0 F6000 X139.069 Y150.948
G1 F1200 X121.549 Y133.428 E99.11816
G0 F6000 X121.549 Y132.863
G1 F1200 X139.635 Y150.948 E99.96884
G0 F6000 X140.2 Y150.948
G1 F1200 X121.549 Y132.297 E100.84613
G0 F6000 X121.549 Y131.731
G1 F1200 X140.766 Y150.948 E101.75004
G0 F6000 X141.332 Y150.948
G1 F1200 X121.549 Y131.166 E102.68055
G0 F6000 X121.549 Y130.6
G1 F1200 X141.897 Y150.948 E103.63765
G0 F6000 X142.463 Y150.948
G1 F1200 X121.549 Y130.034 E104.62139
G0 F6000 X121.549 Y129.469
G1 F1200 X143.029 Y150.948 E105.63172
G0 F6000 X143.595 Y150.948
G1 F1200 X121.549 Y128.903 E106.66867
G0 F6000 X121.549 Y128.337
G1 F1200 X144.16 Y150.948 E107.73222
G0 F6000 X144.726 Y150.948
G1 F1200 X121.549 Y127.772 E108.82237
G0 F6000 X121.549 Y127.206
G1 F1200 X145.292 Y150.948 E109.93915
G0 F6000 X145.857 Y150.948
G1 F1200 X121.549 Y126.64 E111.08252
G0 F6000 X121.549 Y126.075
G1 F1200 X146.423 Y150.948 E112.25249
G0 F6000 X146.989 Y150.948
G1 F1200 X121.549 Y125.509 E113.44909
G0 F6000 X121.549 Y124.943
G1 F1200 X147.554 Y150.948 E114.67228
G0 F6000 X148.12 Y150.948
G1 F1200 X121.549 Y124.377 E115.9221
G0 F6000 X121.549 Y123.812
G1 F1200 X148.686 Y150.948 E117.19852
G0 F6000 X149.251 Y150.948
G1 F1200 X121.549 Y123.246 E118.50154
G0 F6000 X121.549 Y122.68
G1 F1200 X149.817 Y150.948 E119.83118
G0 F6000 X150.383 Y150.948
G1 F1200 X121.549 Y122.115 E121.18742
G0 F6000 X121.549 Y121.549
G1 F1200 X150.948 Y150.948 E122.57026
G0 F6000 X151.514 Y150.948
G1 F1200 X121.549 Y120.983 E123.97972
G0 F6000 X121.549 Y120.418
G1 F1200 X152.08 Y150.948 E125.41578
G0 F6000 X152.645 Y150.948
G1 F1200 X121.549 Y119.852 E126.87844
G0 F6000 X121.549 Y119.286
G1 F1200 X153.211 Y150.948 E128.36772
G0 F6000 X153.777 Y150.948
G1 F1200 X121.549 Y118.721 E129.88361
G0 F6000 X121.549 Y118.155
G1 F1200 X154.343 Y150.948 E131.42611
G0 F6000 X154.908 Y150.948
G1 F1200 X121.549 Y117.589 E132.99522
G0 F6000 X121.549 Y117.024
G1 F1200 X155.475 Y150.949 E134.59097
G0 F6000 X156.04 Y150.949
G1 F1200 X121.549 Y116.458 E136.21332
G0 F6000 X121.549 Y115.892
G1 F1200 X156.606 Y150.949 E137.86229
G0 F6000 X157.172 Y150.949
G1 F1200 X121.549 Y115.326 E139.53789
G0 F6000 X121.549 Y114.761
G1 F1200 X157.737 Y150.949 E141.24006
G0 F6000 X158.303 Y150.949
G1 F1200 X121.549 Y114.195 E142.96886
G0 F6000 X121.549 Y113.629
G1 F1200 X158.869 Y150.949 E144.72428
G0 F6000 X159.434 Y150.949
G1 F1200 X121.549 Y113.064 E146.50627
G0 F6000 X121.549 Y112.498
G1 F1200 X160 Y150.949 E148.31489
G0 F6000 X160.566 Y150.949
G1 F1200 X121.549 Y111.932 E150.15013
G0 F6000 X121.549 Y111.367
G1 F1200 X161.131 Y150.949 E152.01194
G0 F6000 X161.697 Y150.949
G1 F1200 X121.549 Y110.801 E153.90038
G0 F6000 X121.549 Y110.235
G1 F1200 X162.263 Y150.949 E155.81544
G0 F6000 X162.829 Y150.949
G1 F1200 X121.549 Y109.67 E157.7571
G0 F6000 X121.549 Y109.104
G1 F1200 X163.394 Y150.949 E159.72537
G0 F6000 X163.96 Y150.949
G1 F1200 X121.549 Y108.538 E161.72025
G0 F6000 X121.549 Y107.973
G1 F1200 X164.526 Y150.949 E163.74173
G0 F6000 X165.091 Y150.949
G1 F1200 X121.549 Y107.407 E165.78981
G0 F6000 X121.549 Y106.841
G1 F1200 X165.657 Y150.949 E167.86452
G0 F6000 X166.223 Y150.949
G1 F1200 X121.549 Y106.276 E169.96582
G0 F6000 X121.549 Y105.71
G1 F1200 X166.788 Y150.949 E172.09373
G0 F6000 X167.354 Y150.949
G1 F1200 X121.549 Y105.144 E174.24825
G0 F6000 X121.549 Y104.578
G1 F1200 X167.92 Y150.949 E176.4294
G0 F6000 X168.485 Y150.949
G1 F1200 X121.549 Y104.013 E178.63713
G0 F6000 X121.549 Y103.447
G1 F1200 X169.051 Y150.949 E180.87148
G0 F6000 X169.617 Y150.949
G1 F1200 X121.549 Y102.881 E183.13245
G0 F6000 X121.549 Y102.316
G1 F1200 X170.182 Y150.949 E185.42
G0 F6000 X170.748 Y150.949
G1 F1200 X121.549 Y101.75 E187.73417
G0 F6000 X121.549 Y101.184
G1 F1200 X171.314 Y150.949 E190.07496
G0 F6000 X171.879 Y150.949
G1 F1200 X121.549 Y100.619 E192.44233
G0 F6000 X121.549 Y100.053
G1 F1200 X172.445 Y150.949 E194.83632
G0 F6000 X173.011 Y150.949
G1 F1200 X121.549 Y99.487 E197.25693
G0 F6000 X121.549 Y98.922
G1 F1200 X173.577 Y150.949 E199.70415
G0 F6000 X174.142 Y150.949
G1 F1200 X121.549 Y98.356 E202.17796
G0 F6000 X121.549 Y97.79
G1 F1200 X174.708 Y150.949 E204.6784
G0 F6000 X175.274 Y150.949
G1 F1200 X121.549 Y97.225 E207.20543
