;FLAVOR:Marlin
;TIME:280
;Filament used: 0.164105m
;Layer height: 0.2
;MINX:107.71
;MINY:107.701
;MINZ:0.2
;MAXX:127.289
;MAXY:127.299
;MAXZ:4
;Generated with Cura_SteamEngine 4.5.0
M140 S50
M105
M190 S50
M104 S200
M105
M109 S200
M82 ;absolute extrusion mode
; Ender 3 Custom Start G-code
G92 E0 ; Reset Extruder
G28 ; Home all axes
G1 Z2.0 F3000 ; Move Z Axis up little to prevent scratching of Heat Bed
G1 X0.1 Y20 Z0.3 F5000.0 ; Move to start position
G1 X0.1 Y200.0 Z0.3 F1500.0 E15 ; Draw the first line
G1 X0.4 Y200.0 Z0.3 F5000.0 ; Move to side a little
G1 X0.4 Y20 Z0.3 F1500.0 E30 ; Draw the second line
G92 E0 ; Reset Extruder
G1 Z2.0 F3000 ; Move Z Axis up little to prevent scratching of Heat Bed
G1 X5 Y20 Z0.3 F5000.0 ; Move over to prevent blob squish
G92 E0
G92 E0
G1 F2700 E-5
;LAYER_COUNT:20
;LAYER:0
M107
;MESH:Tube.stl
G0 F6000 X122.449 Y124.937 Z0.2
;TYPE:WALL-INNER
G1 F2700 E0
G1 F600 X123.804 Y123.824 E0.05832
G1 X124.917 Y122.469 E0.11664
G1 X125.744 Y120.923 E0.17496
G1 X126.252 Y119.244 E0.2333
G1 X126.425 Y117.5 E0.29159
G1 X126.252 Y115.756 E0.34988
G1 X125.744 Y114.077 E0.40823
G1 X124.917 Y112.531 E0.46654
G1 X123.804 Y111.176 E0.52486
G1 X122.449 Y110.063 E0.58319
G1 X120.903 Y109.236 E0.6415
G1 X119.224 Y108.728 E0.69984
G1 X117.48 Y108.555 E0.75814
G1 X115.735 Y108.728 E0.81646
G1 X114.057 Y109.236 E0.87477
G1 X112.51 Y110.063 E0.93311
G1 X111.155 Y111.176 E0.99144
G1 X110.043 Y112.531 E1.04974
G1 X109.216 Y114.077 E1.10805
G1 X108.707 Y115.756 E1.16641
G1 X108.535 Y117.5 E1.22469
G1 X108.707 Y119.244 E1.28298
G1 X109.216 Y120.923 E1.34133
G1 X110.043 Y122.469 E1.39965
G1 X111.155 Y123.824 E1.45795
G1 X112.51 Y124.937 E1.51627
G1 X114.057 Y125.764 E1.57462
G1 X115.735 Y126.272 E1.63293
G1 X117.48 Y126.445 E1.69125
G1 X119.224 Y126.272 E1.74954
G1 X120.903 Y125.764 E1.80789
G1 X122.449 Y124.937 E1.8662
G0 F6000 X122.226 Y124.603
;TYPE:WALL-OUTER
G1 F600 X123.52 Y123.54 E1.9219
G1 X124.583 Y122.246 E1.9776
G1 X125.373 Y120.769 E2.03331
G1 X125.858 Y119.166 E2.08901
G1 X126.023 Y117.5 E2.14469
G1 X125.858 Y115.834 E2.20038
G1 X125.373 Y114.231 E2.25608
G1 X124.583 Y112.754 E2.31179
G1 X123.52 Y111.46 E2.36749
G1 X122.226 Y110.397 E2.42319
G1 X120.749 Y109.607 E2.4789
G1 X119.146 Y109.122 E2.5346
G1 X117.48 Y108.957 E2.59028
G1 X115.813 Y109.122 E2.646
G1 X114.211 Y109.607 E2.70167
G1 X112.733 Y110.397 E2.75741
G1 X111.439 Y111.46 E2.81311
G1 X110.377 Y112.754 E2.86879
G1 X109.587 Y114.231 E2.9245
G1 X109.101 Y115.834 E2.98021
G1 X108.937 Y117.5 E3.03589
G1 X109.101 Y119.166 E3.09157
G1 X109.587 Y120.769 E3.14728
G1 X110.377 Y122.246 E3.20299
G1 X111.439 Y123.54 E3.25867
G1 X112.733 Y124.603 E3.31437
G1 X114.211 Y125.393 E3.37011
G1 X115.813 Y125.878 E3.42578
G1 X117.48 Y126.043 E3.48149
G1 X119.146 Y125.878 E3.53718
G1 X120.749 Y125.393 E3.59288
G1 X122.226 Y124.603 E3.64859
G0 F6000 X122.47 Y124.968
G0 X120.841 Y125.615
G0 X119.192 Y126.114
G0 X117.48 Y126.284
G0 X115.767 Y126.114
G0 X114.119 Y125.615
G0 X112.599 Y124.803
G0 X111.269 Y123.71
G0 X110.651 Y122.957
G0 X108.412 Y120.004
;TYPE:WALL-INNER
G1 F600 X108.11 Y118.34 E3.70484
G1 X108.11 Y116.66 E3.76072
G1 X108.412 Y114.996 E3.81696
G1 X109.004 Y113.417 E3.87305
G1 X109.869 Y111.971 E3.92909
G1 X110.98 Y110.699 E3.98527
G1 X112.296 Y109.649 E4.04126
G1 X113.787 Y108.847 E4.09757
G1 X115.385 Y108.328 E4.15345
G1 X117.052 Y108.102 E4.20941
G1 X118.747 Y108.178 E4.26584
G1 X120.385 Y108.552 E4.32172
G1 X121.939 Y109.217 E4.37794
G1 X123.346 Y110.145 E4.434
G1 X124.561 Y111.307 E4.48992
G1 X125.558 Y112.679 E4.54633
G1 X126.287 Y114.191 E4.60216
G1 X126.738 Y115.826 E4.65857
G1 X126.888 Y117.5 E4.71447
G1 X126.738 Y119.174 E4.77037
G1 X126.287 Y120.809 E4.82678
G1 X125.558 Y122.321 E4.88261
G1 X124.561 Y123.693 E4.93902
G1 X123.346 Y124.855 E4.99493
G1 X121.939 Y125.783 E5.05099
G1 X120.385 Y126.448 E5.10721
G1 X118.747 Y126.822 E5.1631
G1 X117.052 Y126.898 E5.21953
G1 X115.385 Y126.672 E5.27548
G1 X113.787 Y126.153 E5.33136
G1 X112.296 Y125.351 E5.38767
G1 X110.98 Y124.301 E5.44367
G1 X109.869 Y123.029 E5.49984
G1 X109.004 Y121.583 E5.55588
G1 X108.412 Y120.004 E5.61197
G0 F6000 X108.025 Y120.113
;TYPE:WALL-OUTER
G1 F600 X107.71 Y118.378 E5.67062
G1 X107.71 Y116.622 E5.72902
G1 X108.025 Y114.887 E5.78767
G1 X108.64 Y113.248 E5.8459
G1 X109.545 Y111.735 E5.90454
G1 X110.704 Y110.408 E5.96314
G1 X112.075 Y109.314 E6.02148
G1 X113.626 Y108.479 E6.08006
G1 X115.297 Y107.937 E6.13849
G1 X117.038 Y107.701 E6.19693
G1 X118.799 Y107.78 E6.25556
G1 X120.509 Y108.17 E6.31389
G1 X122.129 Y108.863 E6.3725
G1 X123.595 Y109.83 E6.43091
G1 X124.866 Y111.045 E6.48939
G1 X125.902 Y112.471 E6.54801
G1 X126.664 Y114.052 E6.60639
G1 X127.132 Y115.751 E6.665
G1 X127.289 Y117.5 E6.72341
G1 X127.132 Y119.249 E6.78181
G1 X126.664 Y120.948 E6.84043
G1 X125.902 Y122.529 E6.8988
G1 X124.866 Y123.955 E6.95742
G1 X123.595 Y125.17 E7.01591
G1 X122.129 Y126.137 E7.07432
G1 X120.509 Y126.83 E7.13292
G1 X118.799 Y127.22 E7.19126
G1 X117.038 Y127.299 E7.24989
G1 X115.297 Y127.063 E7.30832
G1 X113.626 Y126.521 E7.36675
G1 X112.075 Y125.686 E7.42534
G1 X110.704 Y124.592 E7.48368
G1 X109.545 Y123.265 E7.54228
G1 X108.64 Y121.752 E7.60091
G1 X108.025 Y120.113 E7.65914
G0 F6000 X108.449 Y119.996
G0 X108.675 Y119.989
;TYPE:SKIN
G1 F600 X108.809 Y120.406 E7.66473
G1 X109.182 Y121.345 E7.67764
G1 X109.476 Y121.921 E7.6859
G1 X109.947 Y122.675 E7.69726
G0 F6000 X110.672 Y123.683
G1 F600 X111.407 Y124.418 E7.71454
G0 F6000 X112.334 Y125.062
G1 F600 X113.041 Y125.486 E7.72303
G1 X114.153 Y126.032 E7.73578
G1 X115.747 Y126.495 E7.75287
G1 X117.319 Y126.652 E7.76914
G1 X118.901 Y126.538 E7.78547
G1 X120.275 Y126.214 E7.8
G1 X121.671 Y125.631 E7.81558
G1 X122.893 Y124.873 E7.83038
G1 X123.964 Y123.964 E7.84484
G1 X124.989 Y122.727 E7.86138
G1 X125.617 Y121.657 E7.87416
G1 X126.13 Y120.473 E7.88744
G1 X126.496 Y119.142 E7.90165
G1 X126.636 Y117.302 E7.92065
G1 X126.477 Y115.729 E7.93693
G1 X126.013 Y114.134 E7.95403
G1 X125.43 Y112.985 E7.96729
G1 X124.889 Y112.161 E7.97744
G0 F6000 X124.612 Y111.884
G0 X123.097 Y110.369
G1 F600 X122.593 Y109.865 E7.9893
G0 F6000 X121.969 Y109.524
G1 F600 X121.417 Y109.255 E7.99543
G1 X120.425 Y108.829 E8.00623
G1 X118.92 Y108.454 E8.02173
G1 X117.111 Y108.343 E8.03985
G1 X115.373 Y108.585 E8.0574
G1 X113.873 Y109.065 E8.07314
G1 X112.244 Y109.981 E8.09183
G1 X111.006 Y111.006 E8.10789
G1 X109.861 Y112.407 E8.12598
G1 X109.068 Y113.876 E8.14267
G1 X108.578 Y115.367 E8.15836
G1 X108.351 Y116.836 E8.17322
G1 X108.363 Y118.263 E8.18749
G1 X108.474 Y119.222 E8.19714
G1 X108.582 Y119.613 E8.2012
G0 F6000 X108.855 Y119.523
;MESH:NONMESH
G0 F300 X108.855 Y119.523 Z0.4
G0 F6000 X109.365 Y120.861
G0 X110.177 Y122.38
G0 X111.269 Y123.71
G0 X112.599 Y124.803
G0 X113.83 Y125.46
G0 X115.733 Y126.272
;TIME_ELAPSED:33.969276
;LAYER:1
M140 S50
M106 S85
;TYPE:WALL-INNER
;MESH:Tube.stl
G1 F1050 X115.909 Y126.29 E8.20708
G1 X117.481 Y126.445 E8.25962
G1 X119.225 Y126.272 E8.31791
G1 X120.901 Y125.765 E8.37615
G1 X122.448 Y124.937 E8.43451
G1 X123.804 Y123.824 E8.49286
G1 X124.917 Y122.468 E8.55121
G1 X125.744 Y120.922 E8.60952
G1 X126.252 Y119.244 E8.66783
G1 X126.425 Y117.499 E8.72616
G1 X126.252 Y115.755 E8.78445
G1 X125.745 Y114.079 E8.84268
G1 X124.917 Y112.532 E8.90104
G1 X123.804 Y111.176 E8.95939
G1 X122.448 Y110.063 E9.01774
G1 X120.902 Y109.236 E9.07605
G1 X119.226 Y108.728 E9.1343
G1 X119.05 Y108.71 E9.14019
G1 X117.479 Y108.555 E9.19269
G1 X117.302 Y108.573 E9.19861
G1 X115.734 Y108.728 E9.25102
G1 X114.059 Y109.235 E9.30922
G1 X112.511 Y110.063 E9.36761
G1 X111.155 Y111.176 E9.42596
G1 X110.043 Y112.532 E9.48429
G1 X109.216 Y114.078 E9.5426
G1 X108.707 Y115.754 E9.60086
G1 X108.689 Y115.93 E9.60674
G1 X108.535 Y117.501 E9.65925
G1 X108.553 Y117.676 E9.6651
G1 X108.707 Y119.245 E9.71753
G1 X109.215 Y120.921 E9.77578
G1 X110.043 Y122.468 E9.83414
G1 X111.155 Y123.824 E9.89247
G1 X112.511 Y124.937 E9.95082
G1 X114.058 Y125.764 E10.00916
G1 X115.733 Y126.272 E10.06738
G0 F7500 X115.812 Y125.878
;TYPE:WALL-OUTER
G1 F1050 X115.949 Y125.892 E10.07196
G1 X117.48 Y126.043 E10.12312
G1 X117.617 Y126.029 E10.12771
G1 X119.147 Y125.878 E10.17884
G1 X120.748 Y125.393 E10.23448
G1 X120.869 Y125.329 E10.23903
G1 X122.225 Y124.603 E10.29019
G1 X123.52 Y123.54 E10.34591
G1 X124.583 Y122.245 E10.40164
G1 X125.373 Y120.768 E10.45735
G1 X125.858 Y119.166 E10.51302
G1 X126.023 Y117.5 E10.5687
G1 X126.009 Y117.363 E10.57328
G1 X125.858 Y115.833 E10.62442
G1 X125.373 Y114.232 E10.68006
G1 X125.309 Y114.111 E10.68461
G1 X124.583 Y112.755 E10.73577
G1 X123.52 Y111.46 E10.79149
G1 X122.225 Y110.397 E10.84722
G1 X120.748 Y109.607 E10.90293
G1 X119.147 Y109.122 E10.95857
G1 X119.01 Y109.108 E10.96315
G1 X117.48 Y108.957 E11.01428
G1 X117.343 Y108.971 E11.01886
G1 X115.812 Y109.122 E11.07003
G1 X114.212 Y109.607 E11.12564
G1 X114.091 Y109.671 E11.13019
G1 X112.734 Y110.397 E11.18138
G1 X111.439 Y111.46 E11.2371
G1 X110.377 Y112.755 E11.29281
G1 X109.587 Y114.232 E11.34852
G1 X109.101 Y115.833 E11.40417
G1 X109.087 Y115.97 E11.40875
G1 X108.937 Y117.5 E11.45988
G1 X108.951 Y117.637 E11.46446
G1 X109.101 Y119.167 E11.51559
G1 X109.587 Y120.768 E11.57124
G1 X109.651 Y120.889 E11.57579
G1 X110.377 Y122.245 E11.62695
G1 X111.439 Y123.54 E11.68265
G1 X112.734 Y124.603 E11.73838
G1 X114.212 Y125.393 E11.79412
G1 X115.812 Y125.878 E11.84973
G0 F7500 X115.726 Y126.309
G0 X117.64 Y126.267
G0 X119.194 Y126.114
G0 X120.981 Y125.541
G0 X122.359 Y124.803
G0 X123.69 Y123.71
G0 X124.673 Y122.513
G0 X126.738 Y119.175
;TYPE:WALL-INNER
G1 F1050 X126.287 Y120.809 E11.90611
G1 X125.558 Y122.321 E11.96193
G1 X124.561 Y123.693 E12.01834
G1 X123.346 Y124.855 E12.07426
G1 X121.939 Y125.783 E12.13032
G1 X120.385 Y126.448 E12.18654
G1 X118.747 Y126.822 E12.24242
G1 X117.052 Y126.898 E12.29885
G1 X115.385 Y126.672 E12.35481
G1 X113.787 Y126.153 E12.41069
G1 X112.297 Y125.351 E12.46697
G1 X112.235 Y125.302 E12.4696
G1 X110.98 Y124.301 E12.52299
G1 X109.869 Y123.029 E12.57916
G1 X109.004 Y121.583 E12.63521
G1 X108.412 Y120.004 E12.69129
G1 X108.11 Y118.34 E12.74754
G1 X108.11 Y116.66 E12.80342
G1 X108.412 Y114.996 E12.85967
G1 X109.004 Y113.417 E12.91576
G1 X109.869 Y111.971 E12.9718
G1 X110.977 Y110.703 E13.0278
G1 X112.3 Y109.647 E13.08411
G1 X113.787 Y108.847 E13.14027
G1 X115.385 Y108.328 E13.19615
G1 X117.052 Y108.102 E13.2521
G1 X118.747 Y108.178 E13.30853
G1 X120.385 Y108.552 E13.36442
G1 X121.939 Y109.217 E13.42064
G1 X123.346 Y110.145 E13.4767
G1 X124.561 Y111.307 E13.53261
G1 X125.558 Y112.679 E13.58902
G1 X126.287 Y114.191 E13.64485
G1 X126.738 Y115.826 E13.70126
G1 X126.888 Y117.499 E13.75713
G1 X126.738 Y119.175 E13.8131
G0 F7500 X127.132 Y119.25
;TYPE:WALL-OUTER
G1 F1050 X126.664 Y120.948 E13.87168
G1 X125.902 Y122.529 E13.93005
G1 X124.866 Y123.955 E13.98868
G1 X123.595 Y125.17 E14.04716
G1 X122.129 Y126.137 E14.10557
G1 X120.509 Y126.83 E14.16417
G1 X118.799 Y127.22 E14.22251
G1 X117.038 Y127.299 E14.28114
G1 X115.297 Y127.063 E14.33957
G1 X113.626 Y126.521 E14.398
G1 X112.076 Y125.686 E14.45656
G1 X111.988 Y125.617 E14.46028
G1 X110.703 Y124.592 E14.51495
G1 X109.545 Y123.265 E14.57353
G1 X108.64 Y121.752 E14.63217
G1 X108.025 Y120.113 E14.69039
G1 X107.71 Y118.378 E14.74904
G1 X107.71 Y116.622 E14.80745
G1 X108.025 Y114.887 E14.8661
G1 X108.64 Y113.248 E14.92432
G1 X109.545 Y111.735 E14.98296
G1 X110.703 Y110.409 E15.04151
G1 X112.076 Y109.313 E15.09994
G1 X113.626 Y108.479 E15.15848
G1 X115.297 Y107.937 E15.21691
G1 X117.038 Y107.701 E15.27535
G1 X118.799 Y107.78 E15.33398
G1 X120.509 Y108.17 E15.39231
G1 X122.129 Y108.863 E15.45092
G1 X123.595 Y109.83 E15.50933
G1 X124.866 Y111.045 E15.56781
G1 X125.902 Y112.471 E15.62644
G1 X126.664 Y114.052 E15.68481
G1 X127.132 Y115.751 E15.74342
G1 X127.289 Y117.499 E15.8018
G1 X127.132 Y119.25 E15.86027
G0 F7500 X126.7 Y119.172
G0 X126.459 Y119.329
;TYPE:SKIN
G1 F1050 X126.344 Y119.728 E15.8651
G1 X125.974 Y120.946 E15.87993
G1 X125.386 Y122.1 E15.89501
G0 F7500 X125.054 Y122.715
G1 F1050 X124.415 Y123.354 E15.91004
G0 F7500 X123.337 Y124.433
G1 F1050 X122.697 Y125.073 E15.92509
G0 F7500 X122.051 Y125.434
G1 F1050 X121.5 Y125.704 E15.93127
G1 X120.49 Y126.147 E15.94238
G1 X118.972 Y126.534 E15.95816
G1 X117.43 Y126.662 E15.97375
G1 X115.633 Y126.479 E15.99194
G1 X113.903 Y125.947 E16.01018
G1 X112.269 Y125.035 E16.02903
G1 X111.029 Y124.013 E16.04521
G1 X109.878 Y122.617 E16.06344
G1 X109.081 Y121.151 E16.08025
G1 X108.587 Y119.666 E16.09602
G1 X108.353 Y118.202 E16.11095
G1 X108.36 Y116.781 E16.12527
G1 X108.566 Y115.443 E16.1389
G1 X108.932 Y114.229 E16.15168
G1 X109.419 Y113.177 E16.16335
G1 X109.818 Y112.495 E16.17131
G0 F7500 X110.374 Y111.657
G1 F1050 X111.614 Y110.416 E16.20049
G0 F7500 X112.499 Y109.814
G1 F1050 X113.134 Y109.462 E16.20779
G1 X114.216 Y108.945 E16.21984
G1 X115.797 Y108.496 E16.23636
G1 X117.363 Y108.344 E16.25217
G1 X118.939 Y108.465 E16.26806
G1 X120.307 Y108.795 E16.28221
G1 X121.699 Y109.382 E16.29739
G1 X122.917 Y110.143 E16.31183
G1 X123.985 Y111.056 E16.32595
G1 X125.007 Y112.296 E16.3421
G1 X125.631 Y113.37 E16.35459
G1 X126.076 Y114.338 E16.36529
G1 X126.502 Y115.892 E16.38149
G1 X126.65 Y117.441 E16.39713
G1 X126.514 Y118.992 E16.41278
G0 F7500 X126.47 Y119.065
;MESH:NONMESH
G0 F300 X126.47 Y119.065 Z0.6
G0 F7500 X126.094 Y115.786
G0 X125.579 Y114.178
G0 X124.757 Y112.335
;TIME_ELAPSED:51.450047
;LAYER:2
M106 S170
;TYPE:WALL-INNER
;MESH:Tube.stl
G1 F1500 X123.804 Y111.175 E16.46271
G1 X123.605 Y111.013 E16.47125
G1 X122.448 Y110.063 E16.52104
G1 X120.903 Y109.236 E16.57932
G1 X119.224 Y108.728 E16.63767
G1 X117.48 Y108.555 E16.69596
G1 X115.735 Y108.728 E16.75428
G1 X114.057 Y109.236 E16.81259
G1 X112.511 Y110.062 E16.87089
G1 X111.155 Y111.176 E16.92926
G1 X110.043 Y112.531 E16.98756
G1 X109.216 Y114.077 E17.04588
G1 X108.707 Y115.756 E17.10423
G1 X108.535 Y117.5 E17.16252
G1 X108.707 Y119.244 E17.22081
G1 X109.216 Y120.923 E17.27916
G1 X110.043 Y122.469 E17.33747
G1 X111.155 Y123.825 E17.3958
G1 X111.353 Y123.986 E17.40429
G1 X112.511 Y124.937 E17.45413
G1 X114.057 Y125.764 E17.51244
G1 X115.735 Y126.272 E17.57075
G1 X117.48 Y126.445 E17.62908
G1 X119.224 Y126.272 E17.68737
G1 X120.903 Y125.764 E17.74571
G1 X122.448 Y124.937 E17.804
G1 X122.645 Y124.777 E17.81244
G1 X123.805 Y123.824 E17.86237
G1 X123.966 Y123.626 E17.87086
G1 X124.917 Y122.468 E17.9207
G1 X125.744 Y120.923 E17.97898
G1 X126.252 Y119.244 E18.03733
G1 X126.425 Y117.5 E18.09562
G1 X126.252 Y115.756 E18.15391
G1 X125.744 Y114.077 E18.21225
G1 X124.917 Y112.532 E18.27054
G1 X124.757 Y112.335 E18.27898
G0 F9000 X124.447 Y112.588
;TYPE:WALL-OUTER
G1 F1500 X123.52 Y111.46 E18.32754
G1 X123.352 Y111.323 E18.33475
G1 X122.225 Y110.397 E18.38326
G1 X120.749 Y109.607 E18.43895
G1 X119.146 Y109.122 E18.49465
G1 X117.48 Y108.957 E18.55033
G1 X115.813 Y109.122 E18.60605
G1 X114.211 Y109.607 E18.66172
G1 X112.734 Y110.397 E18.71743
G1 X112.567 Y110.533 E18.72459
G1 X111.439 Y111.46 E18.77315
G1 X110.377 Y112.754 E18.82883
G1 X109.587 Y114.231 E18.88454
G1 X109.101 Y115.834 E18.94025
G1 X108.937 Y117.5 E18.99593
G1 X109.101 Y119.166 E19.05161
G1 X109.587 Y120.769 E19.10732
G1 X110.377 Y122.246 E19.16303
G1 X111.439 Y123.54 E19.21871
G1 X111.607 Y123.677 E19.22592
G1 X112.734 Y124.603 E19.27444
G1 X114.211 Y125.393 E19.33015
G1 X115.813 Y125.878 E19.38582
G1 X117.48 Y126.043 E19.44153
G1 X119.146 Y125.878 E19.49722
G1 X120.749 Y125.393 E19.55292
G1 X122.225 Y124.603 E19.6086
G1 X122.392 Y124.467 E19.61576
G1 X123.52 Y123.54 E19.66433
G1 X123.657 Y123.372 E19.67154
G1 X124.583 Y122.245 E19.72005
G1 X125.373 Y120.769 E19.77573
G1 X125.858 Y119.166 E19.83143
G1 X126.023 Y117.5 E19.88712
G1 X125.858 Y115.834 E19.9428
G1 X125.373 Y114.231 E19.9985
G1 X124.583 Y112.755 E20.05418
G1 X124.447 Y112.588 E20.06135
G0 F9000 X124.787 Y112.31
G0 X125.595 Y114.139
G0 X125.999 Y115.474
G0 X126.738 Y119.174
;TYPE:WALL-INNER
G1 F1500 X126.287 Y120.809 E20.11776
G1 X125.558 Y122.321 E20.17359
G1 X124.561 Y123.693 E20.23
G1 X123.346 Y124.855 E20.28591
