;FLAVOR:Marlin
;TIME:14864
;Filament used: 9.32188m
;Layer height: 0.2
;MINX:77.883
;MINY:57.3
;MINZ:0.2
;MAXX:157.124
;MAXY:177.7
;MAXZ:26
;Generated with Cura_SteamEngine 4.5.0
M140 S50
M105
M190 S50
M104 S200
M105
M109 S200
M82 ;absolute extrusion mode
; Ender 3 Custom Start G-code
G92 E0 ; Reset Extruder
G28 ; Home all axes
G1 Z2.0 F3000 ; Move Z Axis up little to prevent scratching of Heat Bed
G1 X0.1 Y20 Z0.3 F5000.0 ; Move to start position
G1 X0.1 Y200.0 Z0.3 F1500.0 E15 ; Draw the first line
G1 X0.4 Y200.0 Z0.3 F5000.0 ; Move to side a little
G1 X0.4 Y20 Z0.3 F1500.0 E30 ; Draw the second line
G92 E0 ; Reset Extruder
G1 Z2.0 F3000 ; Move Z Axis up little to prevent scratching of Heat Bed
G1 X5 Y20 Z0.3 F5000.0 ; Move over to prevent blob squish
G92 E0
G92 E0
G1 F2700 E-5
;LAYER_COUNT:130
;LAYER:0
M107
G0 F6000 X81.142 Y66.345 Z0.2
;TYPE:SKIRT
G1 F2700 E0
G1 F1200 X81.774 Y65.652 E0.03119
G1 X82.462 Y65.015 E0.06238
G1 X82.904 Y64.66 E0.08124
G1 X83.821 Y63.96 E0.11961
G1 X85.806 Y62.401 E0.20356
G1 X87.712 Y60.804 E0.28626
G1 X88.419 Y60.219 E0.31678
G1 X89.464 Y59.454 E0.35986
G1 X89.8 Y59.237 E0.37316
G1 X90.609 Y58.762 E0.40436
G1 X91.609 Y58.293 E0.4411
G1 X91.8 Y58.215 E0.44796
G1 X92.683 Y57.898 E0.47916
G1 X93.291 Y57.727 E0.50017
G1 X93.567 Y57.658 E0.50963
G1 X94.486 Y57.47 E0.54083
G1 X95.37 Y57.364 E0.57045
G1 X95.611 Y57.345 E0.57849
G1 X96.28 Y57.313 E0.60076
G1 X97.094 Y57.3 E0.62784
G1 X144.948 Y57.3 E2.21947
G1 X145.653 Y57.31 E2.24292
G1 X146.381 Y57.345 E2.26716
G1 X146.654 Y57.367 E2.27627
G1 X147.584 Y57.482 E2.30744
G1 X148.095 Y57.579 E2.32474
G1 X148.658 Y57.705 E2.34393
G1 X149.592 Y57.972 E2.37624
G1 X150.468 Y58.308 E2.40744
G1 X151.312 Y58.717 E2.43864
G1 X152.118 Y59.196 E2.46982
G1 X152.88 Y59.742 E2.501
G1 X153.593 Y60.351 E2.53219
G1 X154.252 Y61.019 E2.5634
G1 X154.851 Y61.74 E2.59457
G1 X155.387 Y62.51 E2.62578
G1 X155.855 Y63.323 E2.65698
G1 X156.253 Y64.172 E2.68816
G1 X156.576 Y65.052 E2.71934
G1 X156.824 Y65.957 E2.75055
G1 X156.993 Y66.88 E2.78176
G1 X157.096 Y68.141 E2.82384
G1 X157.119 Y69.189 E2.85871
G1 X157.123 Y70.037 E2.88691
G1 X157.124 Y165.863 E6.0741
G1 X157.123 Y166.015 E6.07915
G1 X157.113 Y166.738 E6.1032
G1 X157.06 Y167.675 E6.13442
G1 X156.928 Y168.603 E6.16559
G1 X156.716 Y169.517 E6.1968
G1 X156.428 Y170.409 E6.22798
G1 X156.065 Y171.274 E6.25918
G1 X155.63 Y172.105 E6.29038
G1 X155.125 Y172.895 E6.32156
G1 X154.555 Y173.64 E6.35276
G1 X153.923 Y174.333 E6.38395
G1 X153.235 Y174.97 E6.41514
G1 X152.495 Y175.546 E6.44633
G1 X151.708 Y176.057 E6.47754
G1 X150.881 Y176.499 E6.50873
G1 X150.019 Y176.869 E6.53993
G1 X148.873 Y177.234 E6.57993
G1 X148.599 Y177.305 E6.58934
G1 X147.682 Y177.502 E6.62054
G1 X146.752 Y177.619 E6.65172
G1 X146.201 Y177.651 E6.67007
G1 X144.892 Y177.694 E6.71363
G1 X144.531 Y177.7 E6.72564
G1 X90.052 Y177.7 E8.53762
G1 X89.348 Y177.69 E8.56104
G1 X88.624 Y177.656 E8.58515
G1 X88.35 Y177.634 E8.59429
G1 X87.419 Y177.519 E8.62549
G1 X86.905 Y177.421 E8.64289
G1 X86.609 Y177.357 E8.65296
G1 X86.266 Y177.277 E8.66468
G1 X85.339 Y177.004 E8.69682
G1 X84.465 Y176.662 E8.72804
G1 X83.624 Y176.247 E8.75923
G1 X82.821 Y175.762 E8.79043
G1 X82.063 Y175.21 E8.82162
G1 X81.354 Y174.596 E8.85281
G1 X80.7 Y173.924 E8.884
G1 X80.106 Y173.198 E8.9152
G1 X79.576 Y172.425 E8.94637
G1 X79.113 Y171.609 E8.97758
G1 X78.722 Y170.756 E9.00879
G1 X78.405 Y169.874 E9.03996
G1 X78.164 Y168.967 E9.07117
G1 X78.001 Y168.044 E9.10235
G1 X77.908 Y166.821 E9.14314
G1 X77.885 Y165.563 E9.18499
G1 X77.883 Y126.027 E10.49996
G1 X77.89 Y85.977 E11.83203
G1 X77.9 Y85.279 E11.85525
G1 X77.954 Y84.341 E11.8865
G1 X78.073 Y83.16 E11.92598
G1 X78.119 Y82.756 E11.9395
G1 X78.335 Y80.25 E12.02316
G1 X78.48 Y77.755 E12.10629
G1 X78.556 Y75.213 E12.19087
G1 X78.564 Y74.205 E12.2244
G1 X78.578 Y73.245 E12.25633
G1 X78.632 Y72.308 E12.28755
G1 X78.765 Y71.38 E12.31873
G1 X78.977 Y70.466 E12.34993
G1 X79.266 Y69.574 E12.38112
G1 X79.629 Y68.71 E12.41229
G1 X80.066 Y67.879 E12.44352
G1 X80.571 Y67.089 E12.4747
G1 X81.142 Y66.345 E12.5059
G0 F6000 X81.536 Y66.499
G1 F1200 X82.165 Y65.827 E12.53651
G1 X83.147 Y64.978 E12.57969
G1 X84.026 Y64.308 E12.61645
G1 X86.079 Y62.695 E12.70328
G1 X87.967 Y61.112 E12.78523
G1 X88.674 Y60.527 E12.81575
G1 X89.681 Y59.79 E12.85726
G1 X90.017 Y59.573 E12.87056
G1 X90.812 Y59.107 E12.90121
G1 X91.76 Y58.664 E12.93601
G1 X91.951 Y58.586 E12.94288
G1 X92.818 Y58.275 E12.97351
G1 X93.388 Y58.115 E12.9932
G1 X93.664 Y58.046 E13.00267
G1 X94.566 Y57.862 E13.03328
G1 X95.402 Y57.763 E13.06128
G1 X95.643 Y57.744 E13.06932
G1 X96.287 Y57.713 E13.09077
G1 X97.094 Y57.7 E13.11761
G1 X144.942 Y57.7 E14.70904
G1 X145.647 Y57.71 E14.73249
G1 X146.348 Y57.743 E14.75584
G1 X146.621 Y57.765 E14.76495
G1 X147.535 Y57.879 E14.79558
G1 X148.01 Y57.97 E14.81167
G1 X148.563 Y58.093 E14.83051
G1 X149.481 Y58.357 E14.86228
G1 X150.34 Y58.688 E14.8929
G1 X151.167 Y59.093 E14.92352
G1 X151.956 Y59.568 E14.95416
G1 X152.7 Y60.109 E14.98475
G1 X153.395 Y60.713 E15.01538
G1 X154.035 Y61.375 E15.046
G1 X154.614 Y62.091 E15.07663
G1 X155.13 Y62.853 E15.10724
G1 X155.578 Y63.658 E15.13788
G1 X155.954 Y64.498 E15.16849
G1 X156.255 Y65.368 E15.19911
G1 X156.48 Y66.261 E15.22974
G1 X156.627 Y67.17 E15.26036
G1 X156.696 Y68.151 E15.29307
G1 X156.719 Y69.191 E15.32767
G1 X156.723 Y70.037 E15.35581
G1 X156.724 Y165.863 E18.543
G1 X156.723 Y166.01 E18.54788
G1 X156.713 Y166.733 E18.57193
G1 X156.66 Y167.652 E18.60255
G1 X156.528 Y168.563 E18.63317
G1 X156.317 Y169.459 E18.66378
G1 X156.029 Y170.334 E18.69442
G1 X155.667 Y171.18 E18.72503
G1 X155.232 Y171.991 E18.75564
G1 X154.729 Y172.762 E18.78626
G1 X154.16 Y173.486 E18.81688
G1 X153.531 Y174.159 E18.84752
G1 X152.846 Y174.774 E18.87814
G1 X152.11 Y175.327 E18.90876
G1 X151.329 Y175.814 E18.93937
G1 X150.509 Y176.232 E18.96998
G1 X149.655 Y176.577 E19.00062
G1 X148.773 Y176.847 E19.0313
G1 X148.499 Y176.918 E19.04071
G1 X147.598 Y177.11 E19.07135
G1 X146.685 Y177.223 E19.10195
G1 X146.188 Y177.251 E19.11851
G1 X144.879 Y177.294 E19.16207
G1 X144.531 Y177.3 E19.17364
G1 X90.057 Y177.3 E20.98546
G1 X89.353 Y177.29 E21.00887
G1 X88.656 Y177.257 E21.03208
G1 X88.382 Y177.235 E21.04122
G1 X87.468 Y177.122 E21.07186
G1 X86.99 Y177.03 E21.08805
G1 X86.694 Y176.966 E21.09812
G1 X86.363 Y176.889 E21.10942
G1 X85.452 Y176.62 E21.14101
G1 X84.596 Y176.282 E21.17162
G1 X83.772 Y175.872 E21.20224
G1 X82.987 Y175.391 E21.23286
G1 X82.246 Y174.844 E21.26349
G1 X81.555 Y174.235 E21.29412
G1 X80.92 Y173.569 E21.32473
G1 X80.346 Y172.85 E21.35533
G1 X79.836 Y172.083 E21.38597
G1 X79.394 Y171.275 E21.4166
G1 X79.024 Y170.432 E21.44722
G1 X78.728 Y169.56 E21.47785
G1 X78.51 Y168.666 E21.50845
G1 X78.369 Y167.756 E21.53908
G1 X78.308 Y166.813 E21.57051
G1 X78.285 Y165.563 E21.61209
G1 X78.283 Y126.027 E22.92707
G1 X78.29 Y85.983 E24.25893
G1 X78.3 Y85.285 E24.28215
G1 X78.352 Y84.381 E24.31227
G1 X78.47 Y83.206 E24.35155
G1 X78.516 Y82.803 E24.36504
G1 X78.734 Y80.271 E24.44956
G1 X78.881 Y77.754 E24.53342
G1 X78.956 Y75.228 E24.61747
G1 X78.964 Y74.21 E24.65133
G1 X78.978 Y73.25 E24.68327
G1 X79.032 Y72.331 E24.71389
G1 X79.164 Y71.42 E24.7445
G1 X79.376 Y70.524 E24.77513
G1 X79.664 Y69.65 E24.80573
G1 X80.028 Y68.804 E24.83637
G1 X80.463 Y67.993 E24.86697
G1 X80.967 Y67.222 E24.89761
G1 X81.536 Y66.499 E24.92821
G0 F6000 X81.93 Y66.655
G1 F1200 X82.557 Y66.005 E24.95825
G1 X83.389 Y65.296 E24.99461
G1 X84.309 Y64.594 E25.0331
G1 X86.314 Y63.019 E25.1179
G1 X88.222 Y61.42 E25.2007
G1 X88.929 Y60.835 E25.23122
G1 X89.898 Y60.126 E25.27115
G1 X90.234 Y59.909 E25.28446
G1 X91.014 Y59.453 E25.31451
G1 X91.912 Y59.034 E25.34747
G1 X92.103 Y58.956 E25.35433
G1 X92.953 Y58.652 E25.38435
G1 X93.485 Y58.504 E25.40272
G1 X93.761 Y58.435 E25.41218
G1 X94.646 Y58.255 E25.44222
G1 X95.433 Y58.162 E25.46858
G1 X95.674 Y58.143 E25.47662
G1 X96.294 Y58.113 E25.49726
G1 X97.094 Y58.1 E25.52387
G1 X144.937 Y58.1 E27.11514
G1 X145.642 Y58.11 E27.13859
G1 X146.316 Y58.142 E27.16103
G1 X146.589 Y58.164 E27.17014
G1 X147.926 Y58.361 E27.21509
G1 X148.469 Y58.482 E27.23359
G1 X149.37 Y58.742 E27.26478
G1 X150.211 Y59.069 E27.2948
G1 X151.021 Y59.469 E27.32484
G1 X151.792 Y59.939 E27.35488
G1 X152.518 Y60.476 E27.38491
G1 X153.194 Y61.075 E27.41495
G1 X153.814 Y61.731 E27.44497
G1 X154.374 Y62.44 E27.47502
G1 X154.869 Y63.195 E27.50505
G1 X155.296 Y63.991 E27.53509
G1 X155.65 Y64.822 E27.56514
G1 X155.929 Y65.681 E27.59518
G1 X156.131 Y66.561 E27.62521
G1 X156.255 Y67.456 E27.65526
G1 X156.296 Y68.161 E27.67875
G1 X156.319 Y69.193 E27.71308
G1 X156.323 Y70.037 E27.74115
G1 X156.324 Y165.863 E30.92834
G1 X156.313 Y166.727 E30.95708
G1 X156.261 Y167.629 E30.98713
G1 X156.129 Y168.522 E31.01715
G1 X155.918 Y169.4 E31.04718
G1 X155.631 Y170.256 E31.07721
G1 X155.269 Y171.084 E31.10727
G1 X154.835 Y171.876 E31.13731
G1 X154.333 Y172.627 E31.16735
G1 X153.766 Y173.33 E31.19739
G1 X153.14 Y173.98 E31.22741
G1 X152.458 Y174.573 E31.25746
G1 X151.727 Y175.103 E31.2875
G1 X150.952 Y175.566 E31.31752
G1 X150.138 Y175.959 E31.34759
G1 X149.294 Y176.278 E31.3776
G1 X148.673 Y176.46 E31.39912
G1 X148.399 Y176.531 E31.40853
G1 X147.515 Y176.719 E31.43859
G1 X146.175 Y176.852 E31.48338
G1 X144.866 Y176.895 E31.52694
G1 X144.531 Y176.9 E31.53808
G1 X90.063 Y176.9 E33.3497
G1 X89.359 Y176.89 E33.37312
G1 X88.688 Y176.858 E33.39546
G1 X88.414 Y176.836 E33.4046
G1 X87.074 Y176.639 E33.44965
G1 X86.778 Y176.575 E33.45972
G1 X86.46 Y176.5 E33.47059
G1 X85.567 Y176.236 E33.50156
G1 X84.727 Y175.903 E33.53161
G1 X83.92 Y175.497 E33.56166
G1 X83.153 Y175.021 E33.59168
G1 X82.43 Y174.479 E33.62174
G1 X81.759 Y173.875 E33.65176
G1 X81.143 Y173.214 E33.68182
G1 X80.588 Y172.502 E33.71184
G1 X80.099 Y171.743 E33.74187
G1 X79.678 Y170.944 E33.77191
G1 X79.33 Y170.111 E33.80194
G1 X79.057 Y169.25 E33.83198
G1 X78.861 Y168.368 E33.86203
G1 X78.744 Y167.473 E33.89205
G1 X78.708 Y166.805 E33.9143
G1 X78.685 Y165.563 E33.95562
G1 X78.683 Y126.027 E35.27059
G1 X78.69 Y85.989 E36.60226
G1 X78.7 Y85.291 E36.62548
G1 X78.75 Y84.421 E36.65446
G1 X78.868 Y83.251 E36.69357
G1 X78.915 Y82.843 E36.70723
G1 X79.131 Y80.331 E36.79109
G1 X79.279 Y77.788 E36.87581
G1 X79.356 Y75.198 E36.962
G1 X79.364 Y74.216 E36.99466
G1 X79.378 Y73.256 E37.02659
G1 X79.431 Y72.355 E37.05661
G1 X79.564 Y71.461 E37.08667
G1 X79.775 Y70.583 E37.11671
G1 X80.063 Y69.727 E37.14675
G1 X80.426 Y68.9 E37.17678
G1 X80.86 Y68.108 E37.20682
G1 X81.363 Y67.358 E37.23686
G1 X81.93 Y66.655 E37.2669
G1 F2700 E32.2669
;MESH:Meshes.stl
G0 F6000 X94.074 Y102.087
G0 X93.997 Y102.092
G0 X92.896 Y104
G0 X93.995 Y105.908
G0 X95.385 Y105.912
G0 X97.304 Y110.4
G0 X99.296 Y123.2
G0 X100.395 Y125.108
G0 X101.966 Y125.112
G0 X103.704 Y129.6
G0 X105.696 Y142.4
G0 X106.795 Y144.308
G0 X108.547 Y144.311
G0 X112.213 Y155.005
G0 X112.119 Y155.162
G0 X113.818 Y159.686
G0 X113.818 Y160.769
G0 X114.443 Y161.849
;TYPE:WALL-INNER
G1 F2700 E37.2669
G1 F1200 X114.156 Y161.849 E37.27644
G1 X114.013 Y161.6 E37.28599
G1 X114.156 Y161.352 E37.29552
G1 X114.444 Y161.351 E37.30509
G1 X114.587 Y161.599 E37.31462
G1 X114.443 Y161.849 E37.32421
G0 F6000 X114.675 Y162.249
G1 F1200 X113.926 Y162.249 E37.34912
G1 X113.811 Y162.049 E37.3568
G1 X113.551 Y161.6 E37.37405
G1 X113.924 Y160.952 E37.39892
G1 X114.674 Y160.951 E37.42387
G1 X114.789 Y161.151 E37.43154
G1 X115.049 Y161.6 E37.4488
G1 X114.675 Y162.249 E37.47371
G0 F6000 X114.907 Y162.649
;TYPE:WALL-OUTER
G1 F1200 X113.694 Y162.649 E37.51405
G1 X113.089 Y161.6 E37.55433
G1 X113.693 Y160.551 E37.59459
G1 X113.878 Y160.552 E37.60074
G1 X114.906 Y160.551 E37.63494
G1 X114.998 Y160.712 E37.6411
G1 X115.511 Y161.6 E37.67521
G1 X114.907 Y162.649 E37.71547
G0 F6000 X114.687 Y162.209
G0 X114.377 Y161.612
;TYPE:SKIN
G1 F1200 X114.291 Y161.526 E37.7175
G1 F2700 E32.7175
G0 F6000 X115.26 Y161.6
G0 X116.196 Y161.058
G0 X118.802 Y161.06
G0 X119.74 Y161.6
G0 X120.556 Y161.849
;TYPE:WALL-INNER
G1 F2700 E37.7175
G1 F1200 X120.413 Y161.6 E37.72705
G1 X120.556 Y161.352 E37.73657
G1 X120.844 Y161.351 E37.74615
G1 X120.987 Y161.599 E37.75567
G1 X120.843 Y161.849 E37.76526
G1 X120.556 Y161.849 E37.77481
G0 F6000 X120.211 Y162.049
G1 F1200 X119.951 Y161.6 E37.79207
G1 X120.324 Y160.952 E37.81693
G1 X121.074 Y160.951 E37.84188
G1 X121.189 Y161.151 E37.84955
G1 X121.449 Y161.6 E37.86681
G1 X121.075 Y162.249 E37.89172
G1 X120.326 Y162.249 E37.91664
G1 X120.211 Y162.049 E37.92431
G0 F6000 X120.094 Y162.649
;TYPE:WALL-OUTER
G1 F1200 X119.489 Y161.6 E37.96459
G1 X120.093 Y160.551 E38.00485
G1 X120.278 Y160.552 E38.011
G1 X121.306 Y160.551 E38.04519
G1 X121.398 Y160.712 E38.05136
G1 X121.911 Y161.6 E38.08547
G1 X121.307 Y162.649 E38.12573
G1 X120.094 Y162.649 E38.16607
G0 F6000 X120.314 Y162.209
G0 X120.478 Y162.049
G1 F2700 E33.16607
G0 F6000 X121.66 Y161.6
G0 X122.596 Y161.058
G0 X125.202 Y161.06
G0 X126.14 Y161.6
G0 X126.956 Y161.849
;TYPE:WALL-INNER
G1 F2700 E38.16607
G1 F1200 X126.813 Y161.6 E38.17562
G1 X126.956 Y161.352 E38.18514
G1 X127.244 Y161.351 E38.19472
G1 X127.387 Y161.599 E38.20424
G1 X127.243 Y161.849 E38.21384
G1 X126.956 Y161.849 E38.22339
G0 F6000 X126.611 Y162.049
G1 F1200 X126.351 Y161.6 E38.24064
G1 X126.724 Y160.952 E38.26551
G1 X127.474 Y160.951 E38.29046
G1 X127.589 Y161.151 E38.29813
G1 X127.849 Y161.6 E38.31539
G1 X127.475 Y162.249 E38.3403
G1 X126.726 Y162.249 E38.36521
G1 X126.611 Y162.049 E38.37288
G0 F6000 X126.494 Y162.649
;TYPE:WALL-OUTER
G1 F1200 X125.889 Y161.6 E38.41316
G1 X126.493 Y160.551 E38.45342
G1 X126.678 Y160.552 E38.45957
G1 X127.706 Y160.551 E38.49377
G1 X127.798 Y160.712 E38.49993
G1 X128.311 Y161.6 E38.53404
G1 X127.707 Y162.649 E38.5743
G1 X126.494 Y162.649 E38.61465
G0 F6000 X126.714 Y162.209
G0 X127.151 Y161.658
;TYPE:SKIN
G1 F1200 X127.043 Y161.549 E38.6172
G1 F2700 E33.6172
G0 F6000 X128.06 Y161.6
G0 X128.996 Y161.058
G0 X131.602 Y161.06
G0 X132.54 Y161.6
G0 X133.356 Y161.849
;TYPE:WALL-INNER
G1 F2700 E38.6172
G1 F1200 X133.213 Y161.6 E38.62675
G1 X133.356 Y161.352 E38.63627
G1 X133.644 Y161.351 E38.64585
G1 X133.787 Y161.599 E38.65537
G1 X133.643 Y161.849 E38.66497
G1 X133.356 Y161.849 E38.67451
G0 F6000 X133.011 Y162.049
G1 F1200 X132.751 Y161.6 E38.69177
G1 X133.124 Y160.952 E38.71664
G1 X133.874 Y160.951 E38.74158
G1 X133.989 Y161.151 E38.74926
G1 X134.249 Y161.6 E38.76651
G1 X133.875 Y162.249 E38.79143
G1 X133.126 Y162.249 E38.81634
G1 X133.011 Y162.049 E38.82401
G0 F6000 X132.894 Y162.649
;TYPE:WALL-OUTER
G1 F1200 X132.289 Y161.6 E38.86429
G1 X132.893 Y160.551 E38.90455
G1 X133.078 Y160.552 E38.9107
G1 X134.106 Y160.551 E38.94489
G1 X134.198 Y160.712 E38.95106
G1 X134.711 Y161.6 E38.98517
G1 X134.107 Y162.649 E39.02543
G1 X132.894 Y162.649 E39.06577
G0 F6000 X133.114 Y162.209
G0 X133.571 Y161.572
;TYPE:SKIN
G1 F1200 X133.523 Y161.525 E39.06689
G1 F2700 E34.06689
G0 F6000 X134.46 Y161.6
G0 X135.396 Y161.058
G0 X138.002 Y161.06
G0 X138.94 Y161.6
G0 X139.756 Y161.849
;TYPE:WALL-INNER
G1 F2700 E39.06689
G1 F1200 X139.613 Y161.6 E39.07644
G1 X139.756 Y161.352 E39.08596
G1 X140.044 Y161.351 E39.09554
G1 X140.187 Y161.599 E39.10506
G1 X140.043 Y161.849 E39.11466
G1 X139.756 Y161.849 E39.12421
G0 F6000 X139.411 Y162.049
G1 F1200 X139.151 Y161.6 E39.14146
G1 X139.524 Y160.952 E39.16633
G1 X140.274 Y160.951 E39.19128
G1 X140.389 Y161.151 E39.19895
G1 X140.649 Y161.6 E39.21621
G1 X140.275 Y162.249 E39.24112
G1 X139.526 Y162.249 E39.26603
G1 X139.411 Y162.049 E39.2737
G0 F6000 X139.294 Y162.649
;TYPE:WALL-OUTER
G1 F1200 X138.689 Y161.6 E39.31398
G1 X139.293 Y160.551 E39.35424
G1 X139.478 Y160.552 E39.36039
G1 X140.506 Y160.551 E39.39459
G1 X140.598 Y160.712 E39.40075
G1 X141.111 Y161.6 E39.43486
G1 X140.507 Y162.649 E39.47512
G1 X139.294 Y162.649 E39.51547
G0 F6000 X139.514 Y162.209
G0 X139.894 Y161.672
;TYPE:SKIN
G1 F1200 X139.816 Y161.595 E39.51729
G1 F2700 E34.51729
G0 F6000 X139.761 Y160.752
G0 X139.761 Y159.686
G0 X139.761 Y157.114
G0 X139.761 Y156.029
G0 X139.756 Y155.449
;TYPE:WALL-INNER
G1 F2700 E39.51729
G1 F1200 X139.613 Y155.2 E39.52684
G1 X139.756 Y154.952 E39.53636
