;FLAVOR:Marlin
;TIME:1762
;Filament used: 1.39812m
;Layer height: 0.2
;MINX:107.701
;MINY:107.701
;MINZ:0.2
;MAXX:127.299
;MAXY:127.299
;MAXZ:25.4
;Generated with Cura_SteamEngine 4.5.0
M140 S50
M105
M190 S50
M104 S200
M105
M109 S200
M82 ;absolute extrusion mode
; Ender 3 Custom Start G-code
G92 E0 ; Reset Extruder
G28 ; Home all axes
G1 Z2.0 F3000 ; Move Z Axis up little to prevent scratching of Heat Bed
G1 X0.1 Y20 Z0.3 F5000.0 ; Move to start position
G1 X0.1 Y200.0 Z0.3 F1500.0 E15 ; Draw the first line
G1 X0.4 Y200.0 Z0.3 F5000.0 ; Move to side a little
G1 X0.4 Y20 Z0.3 F1500.0 E30 ; Draw the second line
G92 E0 ; Reset Extruder
G1 Z2.0 F3000 ; Move Z Axis up little to prevent scratching of Heat Bed
G1 X5 Y20 Z0.3 F5000.0 ; Move over to prevent blob squish
G92 E0
G92 E0
G1 F2700 E-5
;LAYER_COUNT:127
;LAYER:0
M107
;MESH:cylinder (0.005cm tolerance).stl
G0 F6000 X112.503 Y124.978 Z0.2
;TYPE:WALL-INNER
G1 F2700 E0
G1 F600 X111.139 Y123.861 E0.05864
G1 X110.022 Y122.497 E0.11728
G1 X109.188 Y120.941 E0.17599
G1 X108.677 Y119.254 E0.23462
G1 X108.505 Y117.5 E0.29324
G1 X108.677 Y115.746 E0.35186
G1 X109.188 Y114.059 E0.41048
G1 X110.022 Y112.503 E0.4692
G1 X111.139 Y111.139 E0.52784
G1 X112.503 Y110.022 E0.58648
G1 X114.059 Y109.188 E0.6452
G1 X115.746 Y108.677 E0.70382
G1 X117.5 Y108.505 E0.76244
G1 X119.254 Y108.677 E0.82106
G1 X120.941 Y109.188 E0.87969
G1 X122.497 Y110.022 E0.93841
G1 X123.861 Y111.139 E0.99704
G1 X124.978 Y112.503 E1.05568
G1 X125.812 Y114.059 E1.1144
G1 X126.323 Y115.746 E1.17303
G1 X126.495 Y117.5 E1.23164
G1 X126.323 Y119.254 E1.29026
G1 X125.812 Y120.941 E1.34889
G1 X124.978 Y122.497 E1.40761
G1 X123.861 Y123.861 E1.46625
G1 X122.497 Y124.978 E1.52488
G1 X120.941 Y125.812 E1.5836
G1 X119.254 Y126.323 E1.64223
G1 X117.5 Y126.495 E1.70085
G1 X115.746 Y126.323 E1.75946
G1 X114.059 Y125.812 E1.81809
G1 X112.503 Y124.978 E1.87681
G0 F6000 X112.281 Y125.314
G1 F600 X110.855 Y124.145 E1.93814
G1 X109.686 Y122.719 E1.99947
G1 X108.817 Y121.096 E2.0607
G1 X108.283 Y119.334 E2.12194
G1 X108.103 Y117.5 E2.18323
G1 X108.283 Y115.666 E2.24452
G1 X108.817 Y113.904 E2.30576
G1 X109.686 Y112.281 E2.36699
G1 X110.855 Y110.855 E2.42832
G1 X112.281 Y109.686 E2.48965
G1 X113.904 Y108.817 E2.55088
G1 X115.666 Y108.283 E2.61212
G1 X117.5 Y108.103 E2.67341
G1 X119.334 Y108.283 E2.7347
G1 X121.096 Y108.817 E2.79594
G1 X122.719 Y109.686 E2.85717
G1 X124.145 Y110.855 E2.9185
G1 X125.314 Y112.281 E2.97983
G1 X126.183 Y113.904 E3.04106
G1 X126.717 Y115.666 E3.1023
G1 X126.897 Y117.5 E3.16359
G1 X126.717 Y119.334 E3.22488
G1 X126.183 Y121.096 E3.28612
G1 X125.314 Y122.719 E3.34735
G1 X124.145 Y124.145 E3.40868
G1 X122.719 Y125.314 E3.47001
G1 X121.096 Y126.183 E3.53124
G1 X119.334 Y126.717 E3.59248
G1 X117.5 Y126.897 E3.65377
G1 X115.666 Y126.717 E3.71506
G1 X113.904 Y126.183 E3.7763
G1 X112.281 Y125.314 E3.83753
G0 F6000 X112.059 Y125.65
;TYPE:WALL-OUTER
G1 F600 X110.571 Y124.429 E3.90155
G1 X109.35 Y122.941 E3.96557
G1 X108.446 Y121.251 E4.02931
G1 X107.889 Y119.414 E4.09316
G1 X107.701 Y117.5 E4.15713
G1 X107.889 Y115.586 E4.22109
G1 X108.446 Y113.749 E4.28494
G1 X109.35 Y112.059 E4.34868
G1 X110.571 Y110.571 E4.4127
G1 X112.059 Y109.35 E4.47673
G1 X113.749 Y108.446 E4.54047
G1 X115.586 Y107.889 E4.60432
G1 X117.5 Y107.701 E4.66828
G1 X119.414 Y107.889 E4.73225
G1 X121.251 Y108.446 E4.7961
G1 X122.941 Y109.35 E4.85984
G1 X124.429 Y110.571 E4.92386
G1 X125.65 Y112.059 E4.98788
G1 X126.554 Y113.749 E5.05163
G1 X127.111 Y115.586 E5.11547
G1 X127.299 Y117.5 E5.17944
G1 X127.111 Y119.414 E5.24341
G1 X126.554 Y121.251 E5.30725
G1 X125.65 Y122.941 E5.371
G1 X124.429 Y124.429 E5.43502
G1 X122.941 Y125.65 E5.49904
G1 X121.251 Y126.554 E5.56278
G1 X119.414 Y127.111 E5.62663
G1 X117.5 Y127.299 E5.6906
G1 X115.586 Y127.111 E5.75456
G1 X113.749 Y126.554 E5.81841
G1 X112.059 Y125.65 E5.88215
G0 F6000 X112.303 Y125.285
G0 X112.724 Y124.655
;TYPE:SKIN
G1 F600 X111.416 Y123.584 E5.93838
G1 X110.345 Y122.276 E5.99461
G1 X109.55 Y120.794 E6.05054
G1 X109.061 Y119.179 E6.10667
G1 X108.897 Y117.5 E6.16278
G1 X109.061 Y115.821 E6.21889
G1 X109.55 Y114.206 E6.27501
G1 X110.345 Y112.724 E6.33095
G1 X111.416 Y111.416 E6.38717
G1 X112.724 Y110.345 E6.4434
G1 X114.206 Y109.55 E6.49934
G1 X115.821 Y109.061 E6.55546
G1 X117.5 Y108.897 E6.61157
G1 X119.179 Y109.061 E6.66768
G1 X120.794 Y109.55 E6.7238
G1 X122.276 Y110.345 E6.77974
G1 X123.584 Y111.416 E6.83597
G1 X124.655 Y112.724 E6.89219
G1 X125.45 Y114.206 E6.94813
G1 X125.939 Y115.821 E7.00425
G1 X126.103 Y117.5 E7.06036
G1 X125.939 Y119.179 E7.11647
G1 X125.45 Y120.794 E7.1726
G1 X124.655 Y122.276 E7.22853
G1 X123.584 Y123.584 E7.28476
G1 X122.276 Y124.655 E7.34099
G1 X120.794 Y125.45 E7.39692
G1 X119.179 Y125.939 E7.45305
G1 X117.5 Y126.103 E7.50916
G1 X115.821 Y125.939 E7.56526
G1 X114.206 Y125.45 E7.62139
G1 X112.724 Y124.655 E7.67732
G0 F6000 X112.592 Y124.9
G0 X111.579 Y124.079
G0 X111.859 Y123.738
G1 F600 X111.26 Y123.139 E7.7055
G0 F6000 X110.918 Y123.418
G0 X110.492 Y122.844
G0 X109.636 Y121.545
G0 X110.024 Y121.338
G1 F600 X113.66 Y124.974 E7.87653
G0 F6000 X113.452 Y125.361
G0 X114.548 Y125.844
G0 X114.675 Y125.423
G1 F600 X109.574 Y120.322 E8.11646
G0 F6000 X109.328 Y119.51
G1 F600 X115.487 Y125.669 E8.40616
G0 F6000 X116.196 Y125.813
G1 F600 X109.185 Y118.801 E8.73596
G0 F6000 X109.123 Y118.174
G1 F600 X116.823 Y125.874 E9.09815
G0 F6000 X117.451 Y125.936
G1 F600 X109.062 Y117.547 E9.49274
G0 F6000 X109.103 Y117.023
G1 F600 X117.975 Y125.894 E9.91003
G0 F6000 X118.49 Y125.844
G1 F600 X109.153 Y116.507 E10.34921
G0 F6000 X109.204 Y115.993
G1 F600 X119.005 Y125.793 E10.8102
G0 F6000 X119.462 Y125.684
G1 F600 X109.313 Y115.536 E11.28755
G0 F6000 X109.445 Y115.102
G1 F600 X119.896 Y125.553 E11.77913
G0 F6000 X120.33 Y125.421
G1 F600 X109.576 Y114.667 E12.28497
G0 F6000 X109.713 Y114.239
G1 F600 X120.758 Y125.284 E12.80449
G0 F6000 X121.127 Y125.087
G1 F600 X109.911 Y113.871 E13.33206
G0 F6000 X110.108 Y113.502
G1 F600 X121.495 Y124.889 E13.86767
G0 F6000 X121.864 Y124.692
G1 F600 X110.305 Y113.134 E14.41134
G0 F6000 X110.51 Y112.772
G1 F600 X122.225 Y124.488 E14.9624
G0 F6000 X122.535 Y124.233
G1 F600 X110.765 Y112.462 E15.51605
G0 F6000 X111.02 Y112.151
G1 F600 X122.847 Y123.978 E16.07236
G0 F6000 X123.158 Y123.723
G1 F600 X111.274 Y111.84 E16.63132
G0 F6000 X111.529 Y111.529
G1 F600 X123.469 Y123.469 E17.19294
G0 F6000 X123.724 Y123.158
G1 F600 X111.84 Y111.275 E17.75191
G0 F6000 X112.152 Y111.02
G1 F600 X123.979 Y122.847 E18.30821
G0 F6000 X124.233 Y122.536
G1 F600 X112.463 Y110.766 E18.86184
G0 F6000 X112.773 Y110.51
G1 F600 X124.488 Y122.226 E19.4129
G0 F6000 X124.693 Y121.864
G1 F600 X113.134 Y110.306 E19.95657
G0 F6000 X113.503 Y110.109
G1 F600 X124.89 Y121.496 E20.49218
G0 F6000 X125.087 Y121.128
G1 F600 X113.871 Y109.911 E21.01977
G0 F6000 X114.24 Y109.714
G1 F600 X125.285 Y120.759 E21.5393
G0 F6000 X125.422 Y120.331
G1 F600 X114.668 Y109.577 E22.04513
G0 F6000 X115.102 Y109.445
G1 F600 X125.553 Y119.897 E22.53674
G0 F6000 X125.685 Y119.462
G1 F600 X115.537 Y109.314 E23.01407
G0 F6000 X115.993 Y109.205
G1 F600 X125.794 Y119.006 E23.47508
G0 F6000 X125.845 Y118.491
G1 F600 X116.508 Y109.154 E23.91426
G0 F6000 X117.024 Y109.104
G1 F600 X125.895 Y117.975 E24.33153
G0 F6000 X125.937 Y117.451
G1 F600 X117.548 Y109.062 E24.72612
G0 F6000 X118.175 Y109.124
G1 F600 X125.875 Y116.824 E25.0883
G0 F6000 X125.814 Y116.197
G1 F600 X118.802 Y109.185 E25.41813
G0 F6000 X119.511 Y109.329
G1 F600 X125.67 Y115.488 E25.70783
G0 F6000 X125.424 Y114.676
G1 F600 X120.323 Y109.575 E25.94776
G0 F6000 X120.45 Y109.155
G0 X121.546 Y109.638
G0 X121.338 Y110.025
G1 F600 X124.974 Y113.661 E26.11879
G0 F6000 X125.363 Y113.453
G0 X125.214 Y113.211
G0 X124.081 Y111.581
G0 X123.739 Y111.86
G1 F600 X123.14 Y111.261 E26.14696
G0 F6000 X123.611 Y110.689
;MESH:NONMESH
G0 F300 X123.611 Y110.689 Z0.4
G0 F6000 X124.835 Y112.597
G0 X125.653 Y114.124
G0 X126.155 Y115.781
G0 X126.324 Y117.5
G0 X126.155 Y119.219
G0 X125.653 Y120.876
G0 X124.991 Y122.112
G0 X123.861 Y123.861
;TIME_ELAPSED:86.706001
;LAYER:1
M140 S50
M106 S85
;TYPE:WALL-INNER
;MESH:cylinder (0.005cm tolerance).stl
G1 F1050 X122.497 Y124.978 E26.2056
G1 X120.941 Y125.812 E26.26432
G1 X119.254 Y126.323 E26.32295
G1 X117.5 Y126.495 E26.38157
G1 X115.746 Y126.323 E26.44018
G1 X114.059 Y125.812 E26.49881
G1 X112.503 Y124.978 E26.55753
G1 X111.139 Y123.861 E26.61617
G1 X110.022 Y122.497 E26.6748
G1 X109.188 Y120.941 E26.73352
G1 X108.677 Y119.254 E26.79215
G1 X108.505 Y117.5 E26.85077
G1 X108.677 Y115.746 E26.90939
G1 X109.188 Y114.059 E26.96801
G1 X110.022 Y112.503 E27.02673
G1 X111.139 Y111.139 E27.08537
G1 X112.503 Y110.022 E27.14401
G1 X114.059 Y109.188 E27.20273
G1 X115.746 Y108.677 E27.26135
G1 X117.5 Y108.505 E27.31997
G1 X119.254 Y108.677 E27.37859
G1 X120.941 Y109.188 E27.43722
G1 X122.497 Y110.022 E27.49593
G1 X123.861 Y111.139 E27.55457
G1 X124.978 Y112.503 E27.61321
G1 X125.812 Y114.059 E27.67193
G1 X126.323 Y115.746 E27.73056
G1 X126.495 Y117.5 E27.78917
G1 X126.323 Y119.254 E27.84779
G1 X125.812 Y120.941 E27.90642
G1 X124.978 Y122.497 E27.96514
G1 X123.861 Y123.861 E28.02377
G0 F7500 X124.145 Y124.145
G1 F1050 X122.719 Y125.314 E28.0851
G1 X121.096 Y126.183 E28.14634
G1 X119.334 Y126.717 E28.20757
G1 X117.5 Y126.897 E28.26886
G1 X115.666 Y126.717 E28.33016
G1 X113.904 Y126.183 E28.39139
G1 X112.281 Y125.314 E28.45262
G1 X110.855 Y124.145 E28.51395
G1 X109.686 Y122.719 E28.57528
G1 X108.817 Y121.096 E28.63651
G1 X108.283 Y119.334 E28.69775
G1 X108.103 Y117.5 E28.75904
G1 X108.283 Y115.666 E28.82034
G1 X108.817 Y113.904 E28.88157
G1 X109.686 Y112.281 E28.9428
G1 X110.855 Y110.855 E29.00413
G1 X112.281 Y109.686 E29.06546
G1 X113.904 Y108.817 E29.12669
G1 X115.666 Y108.283 E29.18793
G1 X117.5 Y108.103 E29.24922
G1 X119.334 Y108.283 E29.31052
G1 X121.096 Y108.817 E29.37175
G1 X122.719 Y109.686 E29.43298
G1 X124.145 Y110.855 E29.49431
G1 X125.314 Y112.281 E29.55564
G1 X126.183 Y113.904 E29.61687
G1 X126.717 Y115.666 E29.67811
G1 X126.897 Y117.5 E29.7394
G1 X126.717 Y119.334 E29.80069
G1 X126.183 Y121.096 E29.86193
G1 X125.314 Y122.719 E29.92316
G1 X124.145 Y124.145 E29.98449
G0 F7500 X124.429 Y124.429
;TYPE:WALL-OUTER
G1 F1050 X122.941 Y125.65 E30.04851
G1 X121.251 Y126.554 E30.11226
G1 X119.414 Y127.111 E30.1761
G1 X117.5 Y127.299 E30.24007
G1 X115.586 Y127.111 E30.30404
G1 X113.749 Y126.554 E30.36788
G1 X112.059 Y125.65 E30.43163
G1 X110.571 Y124.429 E30.49565
G1 X109.35 Y122.941 E30.55967
G1 X108.446 Y121.251 E30.62342
G1 X107.889 Y119.414 E30.68726
G1 X107.701 Y117.5 E30.75123
G1 X107.889 Y115.586 E30.81519
G1 X108.446 Y113.749 E30.87904
G1 X109.35 Y112.059 E30.94279
G1 X110.571 Y110.571 E31.00681
G1 X112.059 Y109.35 E31.07083
G1 X113.749 Y108.446 E31.13457
G1 X115.586 Y107.889 E31.19842
G1 X117.5 Y107.701 E31.26238
G1 X119.414 Y107.889 E31.32635
G1 X121.251 Y108.446 E31.3902
G1 X122.941 Y109.35 E31.45394
G1 X124.429 Y110.571 E31.51796
G1 X125.65 Y112.059 E31.58198
G1 X126.554 Y113.749 E31.64573
G1 X127.111 Y115.586 E31.70957
G1 X127.299 Y117.5 E31.77354
G1 X127.111 Y119.414 E31.83751
G1 X126.554 Y121.251 E31.90135
G1 X125.65 Y122.941 E31.9651
G1 X124.429 Y124.429 E32.02912
G0 F7500 X124.118 Y124.118
G0 X123.584 Y123.584
;TYPE:SKIN
G1 F1050 X122.276 Y124.655 E32.08535
G1 X120.794 Y125.45 E32.14128
G1 X119.179 Y125.939 E32.19741
G1 X117.5 Y126.103 E32.25351
G1 X115.821 Y125.939 E32.30962
G1 X114.206 Y125.45 E32.36575
G1 X112.724 Y124.655 E32.42168
G1 X111.416 Y123.584 E32.47791
G1 X110.345 Y122.276 E32.53414
G1 X109.55 Y120.794 E32.59007
G1 X109.061 Y119.179 E32.6462
G1 X108.897 Y117.5 E32.70231
G1 X109.061 Y115.821 E32.75842
G1 X109.55 Y114.206 E32.81454
G1 X110.345 Y112.724 E32.87048
G1 X111.416 Y111.416 E32.9267
G1 X112.724 Y110.345 E32.98293
G1 X114.206 Y109.55 E33.03887
G1 X115.821 Y109.061 E33.09499
G1 X117.5 Y108.897 E33.1511
G1 X119.179 Y109.061 E33.20721
G1 X120.794 Y109.55 E33.26333
G1 X122.276 Y110.345 E33.31927
G1 X123.584 Y111.416 E33.3755
G1 X124.655 Y112.724 E33.43172
G1 X125.45 Y114.206 E33.48766
G1 X125.939 Y115.821 E33.54378
G1 X126.103 Y117.5 E33.59989
G1 X125.939 Y119.179 E33.656
G1 X125.45 Y120.794 E33.71213
G1 X124.655 Y122.276 E33.76806
G1 X123.584 Y123.584 E33.82429
G0 F7500 X123.8 Y123.762
G0 X124.987 Y122.247
G0 X124.599 Y122.039
G1 F1050 X122.038 Y124.599 E33.94473
G0 F7500 X122.246 Y124.988
G0 X121.029 Y125.64
G0 X120.821 Y125.251
G1 F1050 X125.251 Y120.821 E34.1531
G0 F7500 X125.528 Y119.979
G1 F1050 X119.978 Y125.529 E34.41416
G0 F7500 X119.166 Y125.775
G1 F1050 X125.774 Y119.167 E34.72498
G0 F7500 X125.839 Y118.536
G1 F1050 X118.535 Y125.84 E35.06853
G0 F7500 X117.908 Y125.901
G1 F1050 X125.901 Y117.909 E35.44448
G0 F7500 X125.923 Y117.321
G1 F1050 X117.32 Y125.924 E35.84913
G0 F7500 X116.805 Y125.873
G1 F1050 X125.872 Y116.806 E36.27562
G0 F7500 X125.822 Y116.29
G1 F1050 X116.29 Y125.823 E36.724
G0 F7500 X115.786 Y125.761
G1 F1050 X125.76 Y115.787 E37.19314
G0 F7500 X125.628 Y115.353
G1 F1050 X115.352 Y125.629 E37.6765
G0 F7500 X114.918 Y125.498
G1 F1050 X125.497 Y114.918 E38.17412
G0 F7500 X125.365 Y114.484
G1 F1050 X114.484 Y125.366 E38.68596
G0 F7500 X114.083 Y125.201
G1 F1050 X125.201 Y114.083 E39.20891
G0 F7500 X125.003 Y113.715
G1 F1050 X113.714 Y125.004 E39.73991
G0 F7500 X113.346 Y124.807
G1 F1050 X124.806 Y113.347 E40.27896
G0 F7500 X124.609 Y112.978
G1 F1050 X112.977 Y124.609 E40.82607
G0 F7500 X112.641 Y124.38
G1 F1050 X124.38 Y112.642 E41.37821
G0 F7500 X124.124 Y112.331
G1 F1050 X112.33 Y124.125 E41.93296
G0 F7500 X112.019 Y123.87
G1 F1050 X123.87 Y112.02 E42.49037
G0 F7500 X123.615 Y111.709
G1 F1050 X111.708 Y123.616 E43.05044
G0 F7500 X111.422 Y123.337
G1 F1050 X123.337 Y111.421 E43.61091
G0 F7500 X123.026 Y111.167
G1 F1050 X111.167 Y123.025 E44.1687
G0 F7500 X110.913 Y122.714
G1 F1050 X122.715 Y110.912 E44.72383
G0 F7500 X122.405 Y110.657
G1 F1050 X110.657 Y122.404 E45.27639
G0 F7500 X110.42 Y122.076
G1 F1050 X122.077 Y110.419 E45.8247
G0 F7500 X121.708 Y110.222
G1 F1050 X110.223 Y121.707 E46.36492
G0 F7500 X110.025 Y121.339
G1 F1050 X121.34 Y110.025 E46.89712
G0 F7500 X120.971 Y109.827
G1 F1050 X109.828 Y120.971 E47.42128
G0 F7500 X109.653 Y120.58
G1 F1050 X120.58 Y109.653 E47.93525
G0 F7500 X120.146 Y109.521
G1 F1050 X109.522 Y120.145 E48.43497
G0 F7500 X109.39 Y119.712
G1 F1050 X119.713 Y109.389 E48.92053
G0 F7500 X119.279 Y109.257
G1 F1050 X109.258 Y119.278 E49.39189
G0 F7500 X109.184 Y118.786
G1 F1050 X118.787 Y109.183 E49.84359
G0 F7500 X118.272 Y109.132
G1 F1050 X109.133 Y118.272 E50.27348
G0 F7500 X109.083 Y117.756
G1 F1050 X117.757 Y109.082 E50.68148
G0 F7500 X117.185 Y109.088
G1 F1050 X109.088 Y117.185 E51.06234
G0 F7500 X109.15 Y116.558
G1 F1050 X116.558 Y109.149 E51.41081
G0 F7500 X115.932 Y109.21
G1 F1050 X109.211 Y115.931 E51.72695
G0 F7500 X109.433 Y115.143
G1 F1050 X115.144 Y109.432 E51.99557
G0 F7500 X114.332 Y109.679
G1 F1050 X109.68 Y114.331 E52.21439
G0 F7500 X109.26 Y114.204
G0 X109.914 Y112.938
G0 X110.3 Y113.145
G1 F1050 X113.146 Y110.299 E52.34826
G0 F7500 X112.797 Y109.649
;MESH:NONMESH
G0 F300 X112.797 Y109.649 Z0.6
G0 F7500 X115.781 Y108.845
G0 X117.5 Y108.676
G0 X119.219 Y108.845
G0 X120.876 Y109.347
G0 X122.403 Y110.165
G0 X123.74 Y111.26
G0 X124.835 Y112.597
G0 X125.653 Y114.124
G0 X126.155 Y115.781
G0 X126.324 Y117.5
G0 X126.188 Y118.892
G0 X125.812 Y120.941
;TIME_ELAPSED:135.650649
;LAYER:2
M106 S170
;TYPE:WALL-INNER
;MESH:cylinder (0.005cm tolerance).stl
G1 F1500 X124.978 Y122.497 E52.40697
G1 X123.861 Y123.861 E52.46561
G1 X122.497 Y124.978 E52.52425
G1 X120.941 Y125.812 E52.58297
G1 X119.254 Y126.323 E52.6416
G1 X117.5 Y126.495 E52.70021
G1 X115.746 Y126.323 E52.75883
G1 X114.059 Y125.812 E52.81746
G1 X112.503 Y124.978 E52.87618
G1 X111.139 Y123.861 E52.93481
G1 X110.022 Y122.497 E52.99345
G1 X109.188 Y120.941 E53.05217
G1 X108.677 Y119.254 E53.1108
G1 X108.505 Y117.5 E53.16942
G1 X108.677 Y115.746 E53.22803
G1 X109.188 Y114.059 E53.28666
G1 X110.022 Y112.503 E53.34538
G1 X111.139 Y111.139 E53.40402
G1 X112.503 Y110.022 E53.46265
