;FLAVOR:Marlin
;TIME:270
;Filament used: 0.164524m
;Layer height: 0.2
;MINX:107.574
;MINY:107.827
;MINZ:0.2
;MAXX:127.173
;MAXY:127.445
;MAXZ:4
;Generated with Cura_SteamEngine 4.5.0
M140 S50
M105
M190 S50
M104 S200
M105
M109 S200
M82 ;absolute extrusion mode
; Ender 3 Custom Start G-code
G92 E0 ; Reset Extruder
G28 ; Home all axes
G1 Z2.0 F3000 ; Move Z Axis up little to prevent scratching of Heat Bed
G1 X0.1 Y20 Z0.3 F5000.0 ; Move to start position
G1 X0.1 Y200.0 Z0.3 F1500.0 E15 ; Draw the first line
G1 X0.4 Y200.0 Z0.3 F5000.0 ; Move to side a little
G1 X0.4 Y20 Z0.3 F1500.0 E30 ; Draw the second line
G92 E0 ; Reset Extruder
G1 Z2.0 F3000 ; Move Z Axis up little to prevent scratching of Heat Bed
G1 X5 Y20 Z0.3 F5000.0 ; Move over to prevent blob squish
G92 E0
G92 E0
G1 F2700 E-5
;LAYER_COUNT:20
;LAYER:0
M107
;MESH:Tube.stl
G0 F6000 X117.353 Y126.589 Z0.2
;TYPE:WALL-INNER
G1 F2700 E0
G1 F600 X119.099 Y126.417 E0.05835
G1 X120.78 Y125.907 E0.11678
G1 X122.328 Y125.08 E0.17515
G1 X123.684 Y123.966 E0.23352
G1 X124.797 Y122.61 E0.29187
G1 X125.625 Y121.062 E0.35026
G1 X126.134 Y119.382 E0.40864
G1 X126.307 Y117.636 E0.467
G1 X126.134 Y115.89 E0.52536
G1 X125.625 Y114.209 E0.58377
G1 X124.797 Y112.662 E0.64213
G1 X123.684 Y111.305 E0.70051
G1 X122.328 Y110.192 E0.75886
G1 X120.78 Y109.364 E0.81724
G1 X119.099 Y108.855 E0.87566
G1 X117.353 Y108.683 E0.93402
G1 X115.607 Y108.855 E0.99237
G1 X113.927 Y109.364 E1.05075
G1 X112.379 Y110.192 E1.10914
G1 X111.023 Y111.305 E1.16749
G1 X109.91 Y112.662 E1.22586
G1 X109.082 Y114.209 E1.28422
G1 X108.573 Y115.89 E1.34264
G1 X108.4 Y117.636 E1.401
G1 X108.573 Y119.382 E1.45935
G1 X109.082 Y121.062 E1.51774
G1 X109.91 Y122.61 E1.57613
G1 X111.023 Y123.966 E1.63448
G1 X112.379 Y125.08 E1.69285
G1 X113.927 Y125.907 E1.75122
G1 X115.607 Y126.417 E1.80961
G1 X117.353 Y126.589 E1.86797
G0 F6000 X117.353 Y126.187
;TYPE:WALL-OUTER
G1 F600 X119.021 Y126.023 E1.92371
G1 X120.626 Y125.536 E1.9795
G1 X122.105 Y124.746 E2.03527
G1 X123.4 Y123.682 E2.09101
G1 X124.463 Y122.387 E2.14674
G1 X125.254 Y120.908 E2.20252
G1 X125.74 Y119.304 E2.25827
G1 X125.905 Y117.636 E2.31402
G1 X125.74 Y115.968 E2.36976
G1 X125.254 Y114.363 E2.42554
G1 X124.463 Y112.885 E2.4813
G1 X123.4 Y111.589 E2.53705
G1 X122.105 Y110.526 E2.59277
G1 X120.626 Y109.735 E2.64856
G1 X119.021 Y109.249 E2.70433
G1 X117.353 Y109.085 E2.76008
G1 X115.685 Y109.249 E2.81582
G1 X114.081 Y109.735 E2.87157
G1 X112.602 Y110.526 E2.92735
G1 X111.307 Y111.589 E2.98308
G1 X110.244 Y112.885 E3.03883
G1 X109.453 Y114.363 E3.09458
G1 X108.967 Y115.968 E3.15036
G1 X108.802 Y117.636 E3.20611
G1 X108.967 Y119.304 E3.26186
G1 X109.453 Y120.908 E3.3176
G1 X110.244 Y122.387 E3.37339
G1 X111.307 Y123.682 E3.42911
G1 X112.602 Y124.746 E3.48486
G1 X114.081 Y125.536 E3.54062
G1 X115.685 Y126.023 E3.59638
G1 X117.353 Y126.187 E3.65212
G0 F6000 X117.353 Y126.627
G0 X116.925 Y127.044
;TYPE:WALL-INNER
G1 F600 X115.257 Y126.818 E3.70811
G1 X113.656 Y126.298 E3.7641
G1 X112.167 Y125.496 E3.82035
G1 X110.845 Y124.441 E3.8766
G1 X109.734 Y123.171 E3.93272
G1 X108.867 Y121.718 E3.989
G1 X108.276 Y120.149 E4.04477
G1 X107.974 Y118.477 E4.10128
G1 X107.974 Y116.795 E4.15722
G1 X108.276 Y115.123 E4.21373
G1 X108.867 Y113.553 E4.26953
G1 X109.734 Y112.101 E4.32577
G1 X110.845 Y110.83 E4.38192
G1 X112.167 Y109.775 E4.43818
G1 X113.656 Y108.974 E4.49441
G1 X115.257 Y108.454 E4.5504
G1 X116.925 Y108.228 E4.60638
G1 X118.619 Y108.304 E4.66278
G1 X120.262 Y108.679 E4.71884
G1 X121.818 Y109.344 E4.77512
G1 X123.226 Y110.273 E4.83122
G1 X124.442 Y111.436 E4.88719
G1 X125.44 Y112.81 E4.94367
G1 X126.17 Y114.323 E4.99954
G1 X126.622 Y115.96 E5.05603
G1 X126.772 Y117.636 E5.11199
G1 X126.622 Y119.312 E5.16796
G1 X126.17 Y120.949 E5.22444
G1 X125.44 Y122.462 E5.28032
G1 X124.442 Y123.836 E5.3368
G1 X123.226 Y124.999 E5.39276
G1 X121.818 Y125.928 E5.44887
G1 X120.262 Y126.594 E5.50516
G1 X118.621 Y126.968 E5.56114
G1 X116.925 Y127.044 E5.61761
G0 F6000 X116.911 Y127.445
;TYPE:WALL-OUTER
G1 F600 X115.169 Y127.209 E5.67608
G1 X113.495 Y126.666 E5.73461
G1 X111.943 Y125.83 E5.79324
G1 X110.571 Y124.735 E5.85163
G1 X109.41 Y123.407 E5.9103
G1 X108.505 Y121.892 E5.96899
G1 X107.888 Y120.252 E6.02727
G1 X107.574 Y118.515 E6.08598
G1 X107.574 Y116.757 E6.14445
G1 X107.888 Y115.02 E6.20316
G1 X108.505 Y113.379 E6.26147
G1 X109.41 Y111.865 E6.32014
G1 X110.571 Y110.536 E6.37883
G1 X111.943 Y109.441 E6.43722
G1 X113.495 Y108.606 E6.49583
G1 X115.169 Y108.063 E6.55437
G1 X116.911 Y107.827 E6.61283
G1 X118.671 Y107.905 E6.67143
G1 X120.387 Y108.297 E6.72997
G1 X122.008 Y108.99 E6.78861
G1 X123.475 Y109.958 E6.84707
G1 X124.747 Y111.174 E6.9056
G1 X125.784 Y112.602 E6.96429
G1 X126.547 Y114.184 E7.02271
G1 X127.016 Y115.885 E7.0814
G1 X127.173 Y117.636 E7.13987
G1 X127.016 Y119.387 E7.19834
G1 X126.547 Y121.088 E7.25703
G1 X125.784 Y122.67 E7.31545
G1 X124.747 Y124.098 E7.37414
G1 X123.475 Y125.314 E7.43267
G1 X122.008 Y126.282 E7.49113
G1 X120.386 Y126.976 E7.54981
G1 X118.673 Y127.366 E7.60824
G1 X116.911 Y127.445 E7.66691
G0 F6000 X116.93 Y127.006
G0 X116.888 Y126.787
;TYPE:SKIN
G1 F600 X116.571 Y126.753 E7.67067
G1 X115.24 Y126.554 E7.68656
G1 X114.01 Y126.172 E7.70177
G1 X112.893 Y125.621 E7.71648
G1 X112.17 Y125.18 E7.72648
G0 F6000 X111.233 Y124.527
G1 F600 X110.593 Y123.887 E7.74153
G0 F6000 X109.839 Y122.849
G1 F600 X109.352 Y122.08 E7.75091
G1 X108.824 Y120.986 E7.76342
G1 X108.449 Y119.763 E7.7766
G1 X108.229 Y118.411 E7.79072
G1 X108.215 Y116.983 E7.80543
G1 X108.44 Y115.511 E7.82077
G1 X108.928 Y114.019 E7.83695
G1 X109.721 Y112.549 E7.85416
G1 X110.863 Y111.145 E7.87281
G1 X112.258 Y109.995 E7.89143
G1 X113.931 Y109.123 E7.91087
G1 X115.446 Y108.658 E7.9272
G1 X117.232 Y108.464 E7.94571
G1 X118.757 Y108.574 E7.96146
G1 X120.258 Y108.944 E7.97739
G1 X121.231 Y109.352 E7.98826
G1 X121.783 Y109.621 E7.99459
G1 X122.57 Y110.125 E8.00422
G0 F6000 X122.792 Y110.347
G0 X123.646 Y110.918
G1 F600 X124.385 Y111.657 E8.0216
G0 F6000 X124.889 Y112.444
G1 F600 X125.345 Y113.183 E8.03061
G1 X125.911 Y114.315 E8.04373
G1 X126.373 Y115.908 E8.06093
G1 X126.527 Y117.759 E8.08019
G1 X126.324 Y119.536 E8.09874
G1 X125.863 Y121.054 E8.11519
G1 X125.091 Y122.545 E8.1326
G1 X124.106 Y123.823 E8.14934
G1 X123.085 Y124.782 E8.16386
G1 X121.903 Y125.579 E8.17865
G1 X120.764 Y126.138 E8.1918
G1 X119.246 Y126.6 E8.20826
G1 X117.993 Y126.761 E8.22136
G1 X117.18 Y126.797 E8.2298
G0 F6000 X117.121 Y126.767
;MESH:NONMESH
G0 F300 X117.121 Y126.767 Z0.4
G0 F6000 X117.353 Y126.589
;TIME_ELAPSED:33.456586
;LAYER:1
M140 S50
M106 S85
;TYPE:WALL-INNER
;MESH:Tube.stl
G1 F1050 X119.099 Y126.417 E8.28815
G1 X120.78 Y125.907 E8.34658
G1 X122.327 Y125.08 E8.40492
G1 X123.684 Y123.966 E8.46332
G1 X124.797 Y122.609 E8.52169
G1 X125.625 Y121.061 E8.58008
G1 X126.134 Y119.382 E8.63843
G1 X126.307 Y117.635 E8.69682
G1 X126.134 Y115.889 E8.75518
G1 X125.626 Y114.212 E8.81346
G1 X125.543 Y114.055 E8.81937
G1 X124.797 Y112.662 E8.87192
G1 X123.684 Y111.305 E8.9303
G1 X122.327 Y110.192 E8.98867
G1 X120.779 Y109.364 E9.04706
G1 X119.099 Y108.855 E9.10544
G1 X117.354 Y108.683 E9.16376
G1 X117.178 Y108.7 E9.16964
G1 X115.607 Y108.855 E9.22215
G1 X113.929 Y109.363 E9.28046
G1 X112.38 Y110.192 E9.3389
G1 X111.023 Y111.305 E9.39727
G1 X109.909 Y112.663 E9.45569
G1 X109.827 Y112.818 E9.46152
G1 X109.082 Y114.209 E9.51401
G1 X108.573 Y115.888 E9.57236
G1 X108.555 Y116.064 E9.57824
G1 X108.4 Y117.637 E9.63081
G1 X108.418 Y117.812 E9.63667
G1 X108.573 Y119.383 E9.68917
G1 X109.081 Y121.06 E9.74745
G1 X109.91 Y122.609 E9.80589
G1 X111.023 Y123.966 E9.86426
G1 X112.38 Y125.08 E9.92265
G1 X113.927 Y125.907 E9.981
G1 X115.607 Y126.417 E10.03939
G1 X117.353 Y126.589 E10.09775
G0 F7500 X117.353 Y126.187
;TYPE:WALL-OUTER
G1 F1050 X119.021 Y126.023 E10.15349
G1 X120.626 Y125.536 E10.20928
G1 X122.104 Y124.746 E10.26502
G1 X123.4 Y123.682 E10.32079
G1 X124.463 Y122.386 E10.37654
G1 X125.254 Y120.907 E10.43232
G1 X125.74 Y119.304 E10.48804
G1 X125.905 Y117.636 E10.54378
G1 X125.891 Y117.499 E10.54836
G1 X125.74 Y115.967 E10.59957
G1 X125.254 Y114.364 E10.65528
G1 X125.19 Y114.242 E10.65986
G1 X124.463 Y112.885 E10.71106
G1 X123.4 Y111.589 E10.76681
G1 X122.104 Y110.526 E10.82256
G1 X120.625 Y109.735 E10.87835
G1 X119.021 Y109.249 E10.93409
G1 X118.884 Y109.236 E10.93867
G1 X117.353 Y109.085 E10.98984
G1 X117.217 Y109.098 E10.99438
G1 X115.685 Y109.249 E11.04558
G1 X114.082 Y109.735 E11.1013
G1 X113.961 Y109.799 E11.10585
G1 X112.603 Y110.526 E11.15708
G1 X111.307 Y111.589 E11.21283
G1 X110.244 Y112.886 E11.26861
G1 X110.18 Y113.007 E11.27316
G1 X109.453 Y114.363 E11.32433
G1 X108.967 Y115.967 E11.38008
G1 X108.953 Y116.104 E11.38466
G1 X108.802 Y117.636 E11.43586
G1 X108.816 Y117.773 E11.44044
G1 X108.967 Y119.305 E11.49164
G1 X109.453 Y120.907 E11.54732
G1 X109.517 Y121.028 E11.55188
G1 X110.244 Y122.386 E11.60311
G1 X111.307 Y123.682 E11.65886
G1 X112.603 Y124.746 E11.71463
G1 X114.081 Y125.536 E11.77037
G1 X115.685 Y126.023 E11.82612
G1 X115.822 Y126.036 E11.8307
G1 X117.353 Y126.187 E11.88187
G0 F7500 X117.353 Y126.627
G0 X116.925 Y127.044
;TYPE:WALL-INNER
G1 F1050 X115.257 Y126.818 E11.93785
G1 X113.656 Y126.298 E11.99384
G1 X112.165 Y125.495 E12.05017
G1 X112.103 Y125.446 E12.0528
G1 X110.846 Y124.444 E12.10626
G1 X109.734 Y123.171 E12.16248
G1 X108.868 Y121.721 E12.21865
G1 X108.843 Y121.652 E12.2211
G1 X108.276 Y120.148 E12.27456
G1 X107.974 Y118.477 E12.33103
G1 X107.974 Y116.795 E12.38698
G1 X108.276 Y115.123 E12.44349
G1 X108.867 Y113.553 E12.49928
G1 X109.734 Y112.101 E12.55553
G1 X110.844 Y110.831 E12.61163
G1 X112.17 Y109.772 E12.66807
G1 X113.653 Y108.975 E12.72407
G1 X115.257 Y108.454 E12.78016
G1 X116.925 Y108.228 E12.83615
G1 X118.619 Y108.304 E12.89255
G1 X120.262 Y108.679 E12.9486
G1 X121.818 Y109.344 E13.00488
G1 X123.223 Y110.271 E13.06087
G1 X124.45 Y111.445 E13.11735
G1 X125.438 Y112.806 E13.17328
G1 X126.17 Y114.323 E13.22931
G1 X126.622 Y115.96 E13.28579
G1 X126.772 Y117.635 E13.34172
G1 X126.622 Y119.313 E13.39776
G1 X126.17 Y120.949 E13.45421
G1 X125.438 Y122.465 E13.5102
G1 X124.445 Y123.834 E13.56645
G1 X123.226 Y124.999 E13.62253
G1 X121.818 Y125.928 E13.67864
G1 X120.262 Y126.594 E13.73493
G1 X118.621 Y126.968 E13.79091
G1 X116.925 Y127.044 E13.84738
G0 F7500 X116.911 Y127.445
;TYPE:WALL-OUTER
G1 F1050 X115.169 Y127.209 E13.90585
G1 X113.495 Y126.666 E13.96438
G1 X111.944 Y125.83 E14.02298
G1 X111.856 Y125.761 E14.0267
G1 X110.57 Y124.735 E14.08142
G1 X109.41 Y123.407 E14.14007
G1 X108.505 Y121.892 E14.19876
G1 X108.468 Y121.792 E14.20231
G1 X107.888 Y120.252 E14.25704
G1 X107.574 Y118.515 E14.31575
G1 X107.574 Y116.757 E14.37422
G1 X107.888 Y115.02 E14.43293
G1 X108.505 Y113.379 E14.49124
G1 X109.41 Y111.865 E14.54991
G1 X110.57 Y110.537 E14.60856
G1 X111.944 Y109.44 E14.66703
G1 X113.495 Y108.606 E14.72561
G1 X115.169 Y108.063 E14.78414
G1 X116.911 Y107.827 E14.84261
G1 X118.671 Y107.905 E14.9012
G1 X120.387 Y108.297 E14.95975
G1 X122.008 Y108.99 E15.01838
G1 X123.475 Y109.958 E15.07684
G1 X124.75 Y111.178 E15.13553
G1 X124.814 Y111.265 E15.13912
G1 X125.782 Y112.598 E15.19392
G1 X126.547 Y114.184 E15.25248
G1 X127.016 Y115.885 E15.31117
G1 X127.173 Y117.635 E15.36961
G1 X127.016 Y119.388 E15.42815
G1 X126.547 Y121.088 E15.4868
G1 X125.782 Y122.673 E15.54534
G1 X124.75 Y124.095 E15.60378
G1 X123.475 Y125.314 E15.66245
G1 X122.008 Y126.282 E15.7209
G1 X120.386 Y126.976 E15.77958
G1 X118.673 Y127.366 E15.83802
G1 X116.911 Y127.445 E15.89668
G0 F7500 X116.93 Y127.006
G0 X117.008 Y126.801
;TYPE:SKIN
G1 F1050 X117.285 Y126.807 E15.89974
G1 X118.822 Y126.684 E15.91675
G1 X120.333 Y126.304 E15.93395
G1 X121.336 Y125.867 E15.94602
G1 X121.887 Y125.599 E15.95278
G0 F7500 X122.506 Y125.263
G1 F1050 X123.095 Y124.674 E15.96664
G0 F7500 X124.397 Y123.373
G1 F1050 X124.999 Y122.77 E15.98081
G0 F7500 X125.289 Y122.197
G1 F1050 X125.584 Y121.619 E15.98744
G1 X126.005 Y120.633 E15.9984
G1 X126.399 Y119.107 E16.01452
G1 X126.532 Y117.561 E16.03039
G1 X126.336 Y115.775 E16.04876
G1 X125.793 Y114.055 E16.0672
G1 X125.003 Y112.583 E16.08428
G1 X123.996 Y111.327 E16.10074
G1 X122.955 Y110.389 E16.11507
G1 X121.758 Y109.605 E16.1297
G1 X120.389 Y108.996 E16.14502
G1 X119.056 Y108.63 E16.15915
G1 X117.516 Y108.474 E16.17498
G1 X116.312 Y108.546 E16.18731
G1 X115.311 Y108.699 E16.19767
G1 X114.091 Y109.071 E16.21071
G1 X113.614 Y109.265 E16.21597
G1 X112.382 Y109.931 E16.23029
G0 F7500 X111.506 Y110.525
G1 F1050 X110.211 Y111.82 E16.26075
G0 F7500 X109.671 Y112.642
G1 F1050 X109.281 Y113.315 E16.2686
G1 X108.795 Y114.366 E16.28027
G1 X108.432 Y115.578 E16.29304
G1 X108.225 Y116.916 E16.30669
G1 X108.218 Y118.338 E16.32103
G1 X108.451 Y119.802 E16.33599
G1 X108.945 Y121.288 E16.35178
G1 X109.742 Y122.753 E16.3686
G1 X110.891 Y124.15 E16.38685
G1 X112.291 Y125.296 E16.4051
G1 X113.972 Y126.159 E16.42416
G1 X115.491 Y126.621 E16.44017
G1 X116.754 Y126.772 E16.453
G0 F7500 X116.814 Y126.736
;MESH:NONMESH
G0 F300 X116.814 Y126.736 Z0.6
G0 F7500 X117.353 Y126.589
;TIME_ELAPSED:50.469569
;LAYER:2
M106 S170
;TYPE:WALL-INNER
;MESH:Tube.stl
G1 F1500 X119.099 Y126.417 E16.51135
G1 X120.78 Y125.907 E16.56978
G1 X122.328 Y125.08 E16.62815
G1 X123.684 Y123.966 E16.68652
G1 X124.797 Y122.61 E16.74487
G1 X125.625 Y121.062 E16.80326
G1 X126.134 Y119.382 E16.86164
G1 X126.307 Y117.636 E16.92
G1 X126.134 Y115.89 E16.97836
G1 X125.625 Y114.209 E17.03677
G1 X124.797 Y112.662 E17.09513
G1 X123.684 Y111.305 E17.15351
G1 X122.328 Y110.192 E17.21186
G1 X120.78 Y109.364 E17.27024
G1 X119.099 Y108.855 E17.32866
G1 X117.353 Y108.683 E17.38702
G1 X115.607 Y108.855 E17.44537
G1 X113.927 Y109.364 E17.50375
G1 X112.379 Y110.192 E17.56214
G1 X111.023 Y111.305 E17.62049
G1 X109.91 Y112.662 E17.67886
G1 X109.082 Y114.209 E17.73722
G1 X108.573 Y115.89 E17.79564
G1 X108.4 Y117.636 E17.854
G1 X108.573 Y119.382 E17.91235
G1 X109.082 Y121.062 E17.97074
G1 X109.91 Y122.61 E18.02913
G1 X111.023 Y123.966 E18.08748
G1 X112.379 Y125.08 E18.14585
G1 X113.927 Y125.907 E18.20422
G1 X115.607 Y126.417 E18.26261
G1 X117.353 Y126.589 E18.32097
G0 F9000 X117.353 Y126.187
;TYPE:WALL-OUTER
G1 F1500 X119.021 Y126.023 E18.37671
G1 X120.626 Y125.536 E18.4325
G1 X122.105 Y124.746 E18.48827
G1 X123.4 Y123.682 E18.54401
G1 X124.463 Y122.387 E18.59974
G1 X125.254 Y120.908 E18.65552
G1 X125.74 Y119.304 E18.71127
G1 X125.905 Y117.636 E18.76702
G1 X125.74 Y115.968 E18.82276
G1 X125.254 Y114.363 E18.87854
G1 X124.463 Y112.885 E18.9343
G1 X123.4 Y111.589 E18.99005
G1 X122.105 Y110.526 E19.04577
G1 X120.626 Y109.735 E19.10156
G1 X119.021 Y109.249 E19.15733
G1 X117.353 Y109.085 E19.21308
G1 X115.685 Y109.249 E19.26882
G1 X114.081 Y109.735 E19.32457
G1 X112.602 Y110.526 E19.38035
G1 X111.307 Y111.589 E19.43608
G1 X110.244 Y112.885 E19.49183
G1 X109.453 Y114.363 E19.54758
G1 X108.967 Y115.968 E19.60336
G1 X108.802 Y117.636 E19.65911
G1 X108.967 Y119.304 E19.71486
G1 X109.453 Y120.908 E19.7706
G1 X110.244 Y122.387 E19.82639
G1 X111.307 Y123.682 E19.88211
G1 X112.602 Y124.746 E19.93786
G1 X114.081 Y125.536 E19.99362
G1 X115.685 Y126.023 E20.04938
G1 X117.353 Y126.187 E20.10512
G0 F9000 X117.353 Y126.627
G0 X116.925 Y127.044
;TYPE:WALL-INNER
G1 F1500 X115.257 Y126.818 E20.16111
G1 X113.656 Y126.298 E20.2171
G1 X112.167 Y125.496 E20.27335
G1 X110.845 Y124.441 E20.3296
G1 X109.734 Y123.171 E20.38572
G1 X108.867 Y121.718 E20.442
G1 X108.276 Y120.149 E20.49777
G1 X107.974 Y118.477 E20.55428
G1 X107.974 Y116.795 E20.61022
G1 X108.276 Y115.123 E20.66673
G1 X108.867 Y113.553 E20.72253
G1 X109.734 Y112.101 E20.77877
G1 X110.845 Y110.83 E20.83492
G1 X112.167 Y109.775 E20.89118
G1 X113.656 Y108.974 E20.94741
G1 X115.257 Y108.454 E21.0034
G1 X116.925 Y108.228 E21.05938
G1 X118.619 Y108.304 E21.11578
G1 X120.262 Y108.679 E21.17184
G1 X121.818 Y109.344 E21.22812
G1 X123.226 Y110.273 E21.28422
G1 X124.442 Y111.436 E21.34019
G1 X125.44 Y112.81 E21.39667
G1 X126.17 Y114.323 E21.45254
G1 X126.622 Y115.96 E21.50903
G1 X126.772 Y117.636 E21.56499
G1 X126.622 Y119.312 E21.62096
